;FLAVOR:Marlin
;TIME:8678
;Filament used: 5.30147m
;Layer height: 0.28
;MINX:5.313
;MINY:6.995
;MINZ:0.28
;MAXX:213.249
;MAXY:214.927
;MAXZ:1.68
;TARGET_MACHINE.NAME:Creality Ender-3 S1 Pro
;Generated with Cura_SteamEngine 5.8.0
M82 ;absolute extrusion mode
; Ender 3 S1 Pro Start G-code
; M413 S0 ; Disable power loss recovery
G92 E0 ; Reset Extruder

; Prep surfaces before auto home for better accuracy
M140 S60
M104 S200

G28 ; Home all axes
G1 Z10.0 F3000 ; Move Z Axis up little to prevent scratching of Heat Bed
G1 X0 Y0

M190 S60
M109 S200

G1 X0.1 Y20 Z0.3 F5000.0 ; Move to start position
G1 X0.1 Y200.0 Z0.3 F1500.0 E15 ; Draw the first line
G1 X0.4 Y200.0 Z0.3 F5000.0 ; Move to side a little
G1 X0.4 Y20 Z0.3 F1500.0 E30 ; Draw the second line
G92 E0 ; Reset Extruder
G1 Z2.0 F3000 ; Move Z Axis up little to prevent scratching of Heat Bed
G1 X5 Y20 Z0.3 F5000.0 ; Move over to prevent blob squish

G92 E0
G92 E0
G1 F2400 E-0.8
;LAYER_COUNT:6
;LAYER:0
M107
M204 S2000
G0 F7200 X18.676 Y12.353 Z0.28
M204 S500
;TYPE:SKIRT
G1 F2400 E0
G1 F1500 X19.057 Y11.838 E0.02983
G1 X19.672 Y11.081 E0.07525
G1 X20.325 Y10.408 E0.11891
G1 X21.065 Y9.767 E0.1645
G1 X22.166 Y9 E0.22698
G1 X22.736 Y8.654 E0.25803
G1 X23.56 Y8.205 E0.30172
G1 X24.452 Y7.815 E0.34705
G1 X25.414 Y7.494 E0.39428
G1 X26.418 Y7.26 E0.44228
G1 X27.162 Y7.137 E0.47739
G1 X27.554 Y7.084 E0.49581
G1 X28.523 Y6.997 E0.54112
G1 X29.497 Y6.995 E0.58647
G1 X30.397 Y7.072 E0.62853
G1 X31.306 Y7.226 E0.67146
G1 X32.016 Y7.388 E0.70537
G1 X32.412 Y7.492 E0.72443
G1 X33.337 Y7.78 E0.76955
G1 X34.121 Y8.095 E0.80889
G1 X34.783 Y8.392 E0.84267
G1 X49.914 Y15.448 E1.62008
G1 X52.282 Y16.512 E1.74096
G1 X54.628 Y17.486 E1.85924
G1 X56.956 Y18.377 E1.97531
G1 X59.313 Y19.206 E2.09166
G1 X61.755 Y19.985 E2.21101
G1 X64.136 Y20.671 E2.32639
G1 X66.561 Y21.297 E2.44301
G1 X69.068 Y21.868 E2.56274
G1 X71.519 Y22.355 E2.6791
G1 X73.971 Y22.77 E2.79489
G1 X76.484 Y23.122 E2.91305
G1 X78.972 Y23.4 E3.02963
G1 X81.497 Y23.611 E3.14761
G1 X84.014 Y23.746 E3.26498
G1 X86.517 Y23.813 E3.38157
G1 X89.036 Y23.807 E3.49887
G1 X91.568 Y23.73 E3.61682
G1 X94.041 Y23.586 E3.73217
G1 X96.598 Y23.364 E3.85168
G1 X99.036 Y23.081 E3.96597
G1 X101.576 Y22.714 E4.08547
G1 X102.222 Y22.6 E4.11602
G1 X103.916 Y22.325 E4.19593
G1 X104.623 Y22.227 E4.22916
G1 X105.594 Y22.143 E4.27455
G1 X106.567 Y22.147 E4.31985
G1 X107.527 Y22.233 E4.36473
G1 X108.177 Y22.341 E4.39542
G1 X109.028 Y22.531 E4.43602
G1 X109.456 Y22.644 E4.45663
G1 X110.35 Y22.922 E4.50023
G1 X111.133 Y23.236 E4.53951
G1 X111.766 Y23.518 E4.57178
G1 X142.617 Y37.905 E6.15685
G1 X143.403 Y38.285 E6.19751
G1 X144.253 Y38.746 E6.24253
G1 X144.878 Y39.151 E6.27721
G1 X145.477 Y39.58 E6.31152
G1 X145.735 Y39.776 E6.3266
G1 X146.509 Y40.425 E6.37364
G1 X147.198 Y41.113 E6.41898
G1 X147.822 Y41.859 E6.46426
G1 X148.343 Y42.601 E6.50648
G1 X150.035 Y45.242 E6.65253
G1 X151.435 Y47.289 E6.76801
G1 X152.936 Y49.357 E6.88699
G1 X154.451 Y51.325 E7.00264
G1 X156.04 Y53.271 E7.11963
G1 X157.7 Y55.191 E7.23781
G1 X159.413 Y57.063 E7.35597
G1 X161.13 Y58.838 E7.47096
G1 X162.948 Y60.612 E7.58924
G1 X164.786 Y62.305 E7.7056
G1 X166.714 Y63.983 E7.82461
G1 X168.629 Y65.56 E7.94013
G1 X170.639 Y67.119 E8.05857
G1 X172.666 Y68.603 E8.17555
G1 X174.733 Y70.027 E8.29243
G1 X177.046 Y71.524 E8.42072
G1 X177.568 Y71.852 E8.44943
G1 X178.354 Y72.396 E8.49394
G1 X179.129 Y73.043 E8.54095
G1 X179.769 Y73.679 E8.58296
G1 X180.57 Y74.649 E8.64154
G1 X180.942 Y75.157 E8.67086
G1 X181.479 Y75.967 E8.71611
G1 X181.926 Y76.788 E8.75964
G1 X182.317 Y77.586 E8.80102
G1 X196.691 Y108.415 E10.38491
G1 X197 Y109.101 E10.41994
G1 X197.334 Y109.94 E10.46199
G1 X197.638 Y110.961 E10.5116
G1 X197.794 Y111.597 E10.54209
G1 X197.983 Y112.553 E10.58747
G1 X198.085 Y113.521 E10.63279
G1 X198.101 Y114.502 E10.67848
G1 X198.008 Y115.661 E10.73262
G1 X197.92 Y116.258 E10.76072
G1 X197.659 Y117.808 E10.83391
G1 X197.274 Y120.313 E10.95192
G1 X196.956 Y122.864 E11.07163
G1 X196.714 Y125.367 E11.18872
G1 X196.546 Y127.868 E11.30544
G1 X196.445 Y130.409 E11.42385
G1 X196.417 Y132.914 E11.5405
G1 X196.46 Y135.372 E11.65497
G1 X196.578 Y137.972 E11.77617
G1 X196.758 Y140.42 E11.89046
G1 X197.014 Y142.924 E12.00767
G1 X197.346 Y145.457 E12.12662
G1 X197.738 Y147.917 E12.24262
G1 X198.206 Y150.389 E12.35977
G1 X198.75 Y152.88 E12.47849
G1 X199.345 Y155.287 E12.59395
G1 X200.021 Y157.712 E12.71117
G1 X200.761 Y160.101 E12.82763
G1 X201.582 Y162.515 E12.94636
G1 X202.463 Y164.882 E13.06396
G1 X203.394 Y167.181 E13.17946
G1 X204.781 Y170.307 E13.3387
G1 X211.842 Y185.454 E14.11688
G1 X212.154 Y186.149 E14.15235
G1 X212.512 Y187.057 E14.1978
G1 X212.798 Y188.031 E14.24507
G1 X212.95 Y188.659 E14.27515
G1 X213.134 Y189.613 E14.3204
G1 X213.234 Y190.582 E14.36576
G1 X213.249 Y191.485 E14.40781
G1 X213.12 Y192.927 E14.47522
G1 X213.019 Y193.568 E14.50544
G1 X212.822 Y194.522 E14.5508
G1 X212.543 Y195.456 E14.59619
G1 X212.21 Y196.295 E14.63822
G1 X211.543 Y197.566 E14.70506
G1 X211.206 Y198.117 E14.73513
G1 X210.66 Y198.923 E14.78046
G1 X210.067 Y199.651 E14.82419
G1 X209.383 Y200.355 E14.86989
G1 X208.35 Y201.217 E14.93254
G1 X207.841 Y201.59 E14.96192
G1 X207.031 Y202.127 E15.00718
G1 X206.204 Y202.579 E15.05106
G1 X205.421 Y202.961 E15.09163
G1 X182.933 Y213.448 E16.24703
G1 X182.058 Y213.839 E16.29165
G1 X181.151 Y214.195 E16.33703
G1 X180.212 Y214.471 E16.3826
G1 X179.619 Y214.616 E16.41102
G1 X178.628 Y214.81 E16.45805
G1 X177.661 Y214.91 E16.50331
G1 X176.758 Y214.927 E16.54537
G1 X175.327 Y214.8 E16.61226
G1 X174.69 Y214.701 E16.64228
G1 X173.735 Y214.508 E16.68765
G1 X172.869 Y214.253 E16.72969
G1 X171.907 Y213.876 E16.7778
G1 X171.358 Y213.611 E16.80618
G1 X168.512 Y212.179 E16.95453
G1 X166.208 Y211.104 E17.07292
G1 X163.92 Y210.119 E17.18891
G1 X161.566 Y209.181 E17.30691
G1 X159.199 Y208.312 E17.42432
G1 X156.832 Y207.523 E17.5405
G1 X154.39 Y206.782 E17.65933
G1 X152 Y206.13 E17.77468
G1 X149.445 Y205.511 E17.8971
G1 X148.615 Y205.321 E17.93674
G1 X147.679 Y205.061 E17.98198
G1 X146.766 Y204.718 E18.02739
G1 X145.9 Y204.303 E18.07211
G1 X145.391 Y204.012 E18.09941
G1 X144.84 Y203.678 E18.12941
G1 X144.032 Y203.135 E18.17474
G1 X143.329 Y202.569 E18.21677
G1 X142.566 Y201.833 E18.26613
G1 X141.715 Y200.816 E18.32788
G1 X141.324 Y200.282 E18.3587
G1 X140.823 Y199.53 E18.40077
G1 X140.362 Y198.696 E18.44515
G1 X138.814 Y195.578 E18.60724
G1 X137.631 Y193.367 E18.72401
G1 X136.385 Y191.187 E18.84093
G1 X135.077 Y189.042 E18.95791
G1 X133.692 Y186.911 E19.07626
G1 X132.279 Y184.868 E19.19192
G1 X130.794 Y182.841 E19.30893
G1 X129.246 Y180.85 E19.42636
G1 X127.626 Y178.883 E19.54502
G1 X125.968 Y176.983 E19.66244
G1 X124.275 Y175.15 E19.77863
G1 X122.601 Y173.434 E19.89025
G1 X107.752 Y158.583 E20.86815
G1 X107.256 Y158.075 E20.90121
G1 X106.611 Y157.347 E20.9465
G1 X106.072 Y156.623 E20.98853
G1 X105.372 Y155.448 E21.05222
G1 X104.117 Y153.005 E21.18011
G1 X102.904 Y150.799 E21.29733
G1 X101.629 Y148.627 E21.41461
G1 X100.31 Y146.521 E21.53032
G1 X98.904 Y144.409 E21.64846
G1 X97.441 Y142.342 E21.76638
G1 X95.936 Y140.337 E21.88311
G1 X94.37 Y138.372 E22.00011
G1 X92.745 Y136.445 E22.11749
G1 X91.075 Y134.576 E22.2342
G1 X89.337 Y132.737 E22.35202
G1 X87.547 Y130.948 E22.46986
G1 X85.731 Y129.231 E22.58623
G1 X83.847 Y127.551 E22.70377
G1 X81.925 Y125.93 E22.82085
G1 X79.96 Y124.367 E22.93776
G1 X77.933 Y122.847 E23.05574
G1 X75.899 Y121.409 E23.17173
G1 X73.779 Y119.997 E23.29034
G1 X71.66 Y118.671 E23.40673
G1 X69.456 Y117.378 E23.52572
G1 X67.272 Y116.177 E23.64178
G1 X64.784 Y114.889 E23.77223
G1 X63.94 Y114.401 E23.81763
G1 X63.201 Y113.883 E23.85965
G1 X62.316 Y113.131 E23.91373
G1 X61.873 Y112.706 E23.94231
G1 X46.814 Y97.647 E24.93397
G1 X44.898 Y95.785 E25.05838
G1 X43.032 Y94.072 E25.17633
G1 X41.163 Y92.45 E25.29156
G1 X39.208 Y90.847 E25.40928
G1 X37.19 Y89.287 E25.52805
G1 X35.2 Y87.837 E25.64271
G1 X33.088 Y86.389 E25.76194
G1 X30.971 Y85.021 E25.87931
G1 X28.83 Y83.725 E25.99585
G1 X26.642 Y82.481 E26.11304
G1 X24.403 Y81.29 E26.23113
G1 X22.514 Y80.349 E26.3294
G1 X21.627 Y79.92 E26.37528
G1 X20.801 Y79.472 E26.41904
G1 X19.96 Y78.915 E26.46601
G1 X19.425 Y78.523 E26.49689
G1 X18.668 Y77.912 E26.54219
G1 X17.991 Y77.261 E26.58592
G1 X17.346 Y76.521 E26.63163
G1 X16.525 Y75.342 E26.69853
G1 X16.191 Y74.786 E26.72873
G1 X15.743 Y73.961 E26.77245
G1 X15.343 Y73.034 E26.81946
G1 X15.05 Y72.15 E26.86282
G1 X14.898 Y71.549 E26.89169
G1 X14.184 Y68.529 E27.03619
G1 X13.529 Y66.099 E27.15338
G1 X12.817 Y63.724 E27.26883
G1 X12.01 Y61.289 E27.38828
G1 X11.162 Y58.945 E27.50435
G1 X10.237 Y56.604 E27.62156
G1 X9.243 Y54.282 E27.73917
G1 X8.181 Y51.985 E27.85701
G1 X7.048 Y49.703 E27.97564
G1 X6.598 Y48.826 E28.02154
G1 X6.195 Y47.94 E28.06687
G1 X5.872 Y47.022 E28.11218
G1 X5.646 Y46.147 E28.15426
G1 X5.523 Y45.481 E28.1858
G1 X5.426 Y44.844 E28.2158
G1 X5.327 Y43.875 E28.26116
G1 X5.313 Y42.903 E28.30642
G1 X5.381 Y41.964 E28.35026
G1 X5.566 Y40.856 E28.40257
G1 X5.727 Y40.168 E28.43547
G1 X5.825 Y39.799 E28.45325
G1 X6.115 Y38.874 E28.49839
G1 X6.423 Y38.112 E28.53666
G1 X6.759 Y37.369 E28.57463
G1 X17.302 Y14.76 E29.73623
G1 X17.642 Y14.061 E29.77243
G1 X18.118 Y13.188 E29.81873
G1 X18.676 Y12.353 E29.86549
M204 S2000
G0 F7200 X18.998 Y12.591
M204 S500
G1 F1500 X19.368 Y12.09 E29.89449
G1 X19.959 Y11.36 E29.93823
G1 X20.612 Y10.687 E29.98189
G1 X21.294 Y10.095 E30.02395
G1 X22.395 Y9.328 E30.08643
G1 X22.928 Y9.005 E30.11545
G1 X23.72 Y8.572 E30.15748
G1 X24.612 Y8.182 E30.20281
G1 X25.505 Y7.884 E30.24665
G1 X26.509 Y7.65 E30.29465
G1 X27.216 Y7.533 E30.32802
G1 X27.59 Y7.482 E30.34559
G1 X28.524 Y7.397 E30.38926
G1 X29.463 Y7.394 E30.43299
G1 X30.363 Y7.471 E30.47505
G1 X31.217 Y7.616 E30.51538
G1 X31.915 Y7.775 E30.54872
G1 X32.294 Y7.874 E30.56696
G1 X33.188 Y8.151 E30.61054
G1 X33.957 Y8.46 E30.64913
G1 X34.614 Y8.755 E30.68267
G1 X49.745 Y15.811 E31.46007
G1 X52.118 Y16.877 E31.5812
G1 X54.485 Y17.86 E31.70055
G1 X56.813 Y18.751 E31.81662
G1 X59.191 Y19.587 E31.93399
G1 X61.633 Y20.366 E32.05335
G1 X64.03 Y21.057 E32.16951
G1 X66.472 Y21.687 E32.28694
G1 X68.979 Y22.258 E32.40666
G1 X71.446 Y22.748 E32.52378
G1 X73.915 Y23.166 E32.64039
G1 X76.44 Y23.52 E32.75911
G1 X78.931 Y23.798 E32.87582
G1 X81.464 Y24.009 E32.99418
G1 X84.003 Y24.146 E33.11258
G1 X86.507 Y24.213 E33.22921
G1 X89.048 Y24.207 E33.34753
G1 X91.58 Y24.13 E33.46549
G1 X94.076 Y23.984 E33.58191
G1 X96.633 Y23.762 E33.70142
G1 X99.093 Y23.477 E33.81674
G1 X101.642 Y23.109 E33.93666
G1 X102.286 Y22.995 E33.96711
G1 X103.971 Y22.721 E34.04661
G1 X104.658 Y22.625 E34.07891
G1 X105.593 Y22.543 E34.12261
G1 X106.531 Y22.545 E34.16629
G1 X107.461 Y22.628 E34.20976
G1 X108.111 Y22.736 E34.24045
G1 X108.926 Y22.918 E34.27933
G1 X109.337 Y23.026 E34.29912
G1 X110.231 Y23.304 E34.34271
G1 X110.97 Y23.601 E34.3798
G1 X111.597 Y23.881 E34.41177
G1 X142.443 Y38.265 E35.99658
G1 X143.213 Y38.637 E36.0364
G1 X144.035 Y39.082 E36.07993
G1 X144.66 Y39.487 E36.1146
G1 X145.235 Y39.899 E36.14754
G1 X145.493 Y40.095 E36.16263
G1 X146.227 Y40.708 E36.20716
G1 X146.892 Y41.37 E36.25085
G1 X147.495 Y42.089 E36.29455
G1 X148.006 Y42.817 E36.33596
G1 X149.698 Y45.458 E36.48201
G1 X151.111 Y47.524 E36.59856
G1 X152.619 Y49.601 E36.71808
G1 X154.141 Y51.578 E36.83426
G1 X155.737 Y53.533 E36.95177
G1 X157.397 Y55.453 E37.06996
G1 X159.118 Y57.333 E37.18864
G1 X160.851 Y59.124 E37.30469
G1 X162.677 Y60.906 E37.42349
G1 X164.523 Y62.607 E37.54038
G1 X166.451 Y64.285 E37.65939
G1 X168.384 Y65.876 E37.77597
G1 X170.403 Y67.442 E37.89495
G1 X172.43 Y68.926 E38.01192
G1 X174.516 Y70.363 E38.12987
G1 X176.833 Y71.863 E38.2584
G1 X177.34 Y72.181 E38.28626
G1 X178.126 Y72.725 E38.33077
G1 X178.847 Y73.327 E38.37451
G1 X179.487 Y73.963 E38.41652
G1 X180.248 Y74.886 E38.47223
G1 X180.609 Y75.378 E38.50064
G1 X181.128 Y76.159 E38.54431
G1 X181.567 Y76.964 E38.587
G1 X181.954 Y77.755 E38.62801
G1 X196.326 Y108.579 E40.21165
G1 X196.628 Y109.249 E40.24587
G1 X196.962 Y110.088 E40.28792
G1 X197.25 Y111.056 E40.33495
G1 X197.402 Y111.675 E40.36463
G1 X197.585 Y112.596 E40.40835
G1 X197.685 Y113.528 E40.452
G1 X197.702 Y114.47 E40.49587
G1 X197.612 Y115.603 E40.54879
G1 X197.526 Y116.192 E40.57651
G1 X197.265 Y117.742 E40.6497
G1 X196.877 Y120.264 E40.76852
G1 X196.559 Y122.815 E40.88822
G1 X196.316 Y125.329 E41.00583
G1 X196.146 Y127.852 E41.12358
G1 X196.045 Y130.393 E41.24199
G1 X196.017 Y132.91 E41.3592
G1 X196.06 Y135.39 E41.4747
G1 X196.178 Y137.99 E41.59589
G1 X196.36 Y140.461 E41.71126
G1 X196.617 Y142.976 E41.82898
G1 X196.949 Y145.509 E41.94793
G1 X197.345 Y147.991 E42.06497
G1 X197.815 Y150.474 E42.18264
G1 X198.359 Y152.965 E42.30136
G1 X198.96 Y155.394 E42.41788
G1 X199.639 Y157.83 E42.53563
G1 X200.382 Y160.23 E42.65262
G1 X201.207 Y162.655 E42.77189
G1 X202.092 Y165.032 E42.89
G1 X203.028 Y167.343 E43.0061
G1 X204.418 Y170.476 E43.1657
G1 X211.477 Y185.618 E43.94363
G1 X211.782 Y186.296 E43.97825
G1 X212.128 Y187.17 E44.02202
G1 X212.409 Y188.125 E44.06837
G1 X212.557 Y188.735 E44.0976
G1 X212.736 Y189.655 E44.14124
G1 X212.834 Y190.589 E44.18497
G1 X212.849 Y191.492 E44.22702
G1 X212.725 Y192.865 E44.29122
G1 X212.627 Y193.488 E44.32058
G1 X212.439 Y194.408 E44.36431
G1 X212.171 Y195.308 E44.40803
G1 X211.838 Y196.147 E44.45007
G1 X211.202 Y197.357 E44.51372
G1 X210.874 Y197.893 E44.54298
G1 X210.349 Y198.671 E44.58668
G1 X209.78 Y199.372 E44.62872
G1 X209.096 Y200.076 E44.67443
G1 X208.113 Y200.895 E44.73401
G1 X207.62 Y201.257 E44.76249
G1 X206.839 Y201.776 E44.80615
G1 X206.029 Y202.219 E44.84914
G1 X205.252 Y202.598 E44.8894
G1 X182.769 Y213.083 E46.04454
G1 X181.912 Y213.467 E46.08827
G1 X181.038 Y213.811 E46.13201
G1 X180.117 Y214.082 E46.17671
G1 X179.524 Y214.227 E46.20514
G1 X178.586 Y214.412 E46.24966
G1 X177.653 Y214.51 E46.29334
G1 X176.75 Y214.527 E46.3354
G1 X175.388 Y214.405 E46.39907
G1 X174.769 Y214.309 E46.42824
G1 X173.848 Y214.124 E46.47198
G1 X172.982 Y213.869 E46.51402
G1 X172.081 Y213.516 E46.55908
G1 X171.541 Y213.256 E46.58698
G1 X170.987 Y212.97 E46.61601
G1 X168.681 Y211.816 E46.73609
G1 X166.377 Y210.742 E46.85445
G1 X164.068 Y209.747 E46.97153
G1 X161.704 Y208.805 E47.09002
G1 X159.337 Y207.937 E47.20742
G1 X156.948 Y207.14 E47.32469
G1 X154.506 Y206.399 E47.44352
G1 X152.094 Y205.741 E47.55993
G1 X149.539 Y205.122 E47.68235
G1 X148.722 Y204.936 E47.72136
G1 X147.819 Y204.686 E47.76499
G1 X146.939 Y204.357 E47.80874
G1 X146.098 Y203.955 E47.85214
G1 X145.598 Y203.67 E47.87894
G1 X145.063 Y203.346 E47.90807
G1 X144.283 Y202.823 E47.95179
G1 X143.58 Y202.257 E47.99382
G1 X142.873 Y201.576 E48.03953
G1 X142.022 Y200.559 E48.10128
G1 X141.657 Y200.06 E48.13007
G1 X141.156 Y199.308 E48.17214
G1 X140.72 Y198.518 E48.21416
G1 X139.167 Y195.389 E48.37682
G1 X137.984 Y193.178 E48.49358
G1 X136.732 Y190.988 E48.61104
G1 X135.418 Y188.834 E48.72853
G1 X134.027 Y186.693 E48.84742
G1 X132.602 Y184.632 E48.96409
G1 X131.11 Y182.595 E49.08167
G1 X129.562 Y180.604 E49.1991
G1 X127.935 Y178.629 E49.31825
G1 X126.269 Y176.72 E49.43623
G1 X124.569 Y174.879 E49.55291
G1 X122.884 Y173.151 E49.6653
G1 X108.038 Y158.304 E50.64297
G1 X107.555 Y157.809 E50.67517
G1 X106.932 Y157.108 E50.71884
G1 X106.393 Y156.384 E50.76087
G1 X105.728 Y155.265 E50.82148
G1 X104.473 Y152.822 E50.94937
G1 X103.255 Y150.606 E51.06712
G1 X101.974 Y148.424 E51.18493
G1 X100.643 Y146.299 E51.30169
G1 X99.237 Y144.187 E51.41983
G1 X97.761 Y142.102 E51.53878
G1 X96.256 Y140.097 E51.65552
G1 X94.676 Y138.114 E51.77358
G1 X93.051 Y136.187 E51.89096
G1 X91.366 Y134.301 E52.00872
G1 X89.628 Y132.462 E52.12654
G1 X87.83 Y130.665 E52.24491
G1 X86.006 Y128.94 E52.36181
G1 X84.113 Y127.252 E52.47991
G1 X82.183 Y125.624 E52.59748
G1 X80.209 Y124.054 E52.71493
G1 X78.164 Y122.52 E52.83397
G1 X76.13 Y121.082 E52.94996
G1 X74.001 Y119.664 E53.06907
G1 X71.872 Y118.332 E53.18601
G1 X69.658 Y117.033 E53.30553
G1 X67.456 Y115.822 E53.42255
G1 X64.984 Y114.542 E53.55217
G1 X64.17 Y114.073 E53.59592
G1 X63.431 Y113.555 E53.63794
