;FLAVOR:Marlin
;TIME:12353
;Filament used: 7.1796m
;Layer height: 0.28
;MINX:0.304
;MINY:12.139
;MINZ:0.28
;MAXX:209.434
;MAXY:220
;MAXZ:2.52
;TARGET_MACHINE.NAME:Creality Ender-3 S1 Pro
;Generated with Cura_SteamEngine 5.8.0
M82 ;absolute extrusion mode
; Ender 3 S1 Pro Start G-code
; M413 S0 ; Disable power loss recovery
G92 E0 ; Reset Extruder

; Prep surfaces before auto home for better accuracy
M140 S60
M104 S210.0

G28 ; Home all axes
G1 Z10.0 F3000 ; Move Z Axis up little to prevent scratching of Heat Bed
G1 X0 Y0

M190 S60
M109 S210.0

G1 X0.1 Y20 Z0.3 F5000.0 ; Move to start position
G1 X0.1 Y200.0 Z0.3 F1500.0 E15 ; Draw the first line
G1 X0.4 Y200.0 Z0.3 F5000.0 ; Move to side a little
G1 X0.4 Y20 Z0.3 F1500.0 E30 ; Draw the second line
G92 E0 ; Reset Extruder
G1 Z2.0 F3000 ; Move Z Axis up little to prevent scratching of Heat Bed
G1 X5 Y20 Z0.3 F5000.0 ; Move over to prevent blob squish

G92 E0
G92 E0
G1 F2400 E-0.8
;LAYER_COUNT:9
;LAYER:0
M107
M204 S2000
G0 F7200 X166.656 Y220 Z0.28
M204 S500
;TYPE:SKIRT
G1 F2400 E0
G1 F1500 X165.978 Y219.69 E0.03471
G1 X163.584 Y218.64 E0.15644
G1 X161.263 Y217.699 E0.27306
G1 X158.888 Y216.812 E0.39111
G1 X156.491 Y215.994 E0.50905
G1 X154.102 Y215.254 E0.6255
G1 X151.683 Y214.579 E0.74244
G1 X149.199 Y213.963 E0.86161
G1 X146.767 Y213.431 E0.97753
G1 X144.278 Y212.959 E1.0955
G1 X142.736 Y212.691 E1.16838
G1 X141.787 Y212.479 E1.21365
G1 X140.926 Y212.208 E1.25569
G1 X139.961 Y211.806 E1.30436
G1 X139.098 Y211.352 E1.34977
G1 X138.281 Y210.824 E1.39507
G1 X137.513 Y210.225 E1.44042
G1 X136.8 Y209.56 E1.48582
G1 X136.151 Y208.835 E1.53113
G1 X135.568 Y208.057 E1.5764
G1 X135.075 Y207.265 E1.61984
G1 X134.749 Y206.643 E1.65254
G1 X133.223 Y203.483 E1.81594
G1 X132.061 Y201.246 E1.93332
G1 X130.835 Y199.04 E2.05083
G1 X129.567 Y196.903 E2.16654
G1 X128.204 Y194.747 E2.28531
G1 X126.802 Y192.662 E2.40231
G1 X125.344 Y190.622 E2.51906
G1 X123.831 Y188.626 E2.63569
G1 X122.252 Y186.659 E2.75314
G1 X120.611 Y184.731 E2.87103
G1 X118.932 Y182.869 E2.98778
G1 X116.54 Y180.386 E3.14832
G1 X41.183 Y105.028 E8.11074
G1 X39.354 Y103.251 E8.22948
G1 X37.487 Y101.536 E8.34753
G1 X35.605 Y99.902 E8.46359
G1 X33.654 Y98.304 E8.58102
G1 X31.625 Y96.736 E8.70042
G1 X29.624 Y95.276 E8.81576
G1 X27.53 Y93.84 E8.93399
G1 X25.408 Y92.469 E9.05163
G1 X23.29 Y91.187 E9.16691
G1 X21.072 Y89.926 E9.28571
G1 X18.882 Y88.762 E9.4012
G1 X14.874 Y86.805 E9.60889
G1 X14.021 Y86.337 E9.65419
G1 X13.211 Y85.795 E9.69957
G1 X12.453 Y85.184 E9.74491
G1 X11.801 Y84.559 E9.78696
G1 X11.114 Y83.772 E9.83561
G1 X10.562 Y83.012 E9.87935
G1 X10.044 Y82.146 E9.92633
G1 X9.622 Y81.27 E9.97161
G1 X9.278 Y80.358 E10.017
G1 X9.019 Y79.433 E10.06173
G1 X8.896 Y78.831 E10.09034
G1 X8.428 Y76.153 E10.21693
G1 X7.925 Y73.693 E10.33384
G1 X7.361 Y71.28 E10.44923
G1 X6.704 Y68.79 E10.56915
G1 X5.99 Y66.366 E10.68681
G1 X5.227 Y64.02 E10.80168
G1 X4.377 Y61.64 E10.91936
G1 X3.458 Y59.281 E11.03725
G1 X2.487 Y56.98 E11.15354
G1 X1.282 Y54.341 E11.28863
G1 X0.919 Y53.436 E11.33403
G1 X0.656 Y52.572 E11.37609
G1 X0.442 Y51.55 E11.42471
G1 X0.329 Y50.582 E11.47009
G1 X0.304 Y49.61 E11.51536
G1 X0.363 Y48.638 E11.56071
G1 X0.509 Y47.675 E11.60606
G1 X0.733 Y46.753 E11.65024
G1 X1.222 Y45.393 E11.71754
G1 X1.472 Y44.828 E11.74631
G1 X13.465 Y19.107 E13.06778
G1 X13.845 Y18.321 E13.10843
G1 X14.309 Y17.463 E13.15385
G1 X14.848 Y16.651 E13.19923
G1 X15.456 Y15.892 E13.24452
G1 X16.129 Y15.187 E13.2899
G1 X16.834 Y14.568 E13.33359
G1 X17.647 Y13.972 E13.38053
G1 X18.481 Y13.469 E13.42588
G1 X19.358 Y13.042 E13.4713
G1 X20.267 Y12.694 E13.51662
G1 X21.204 Y12.428 E13.56198
G1 X22.161 Y12.246 E13.60734
G1 X23.13 Y12.149 E13.65268
G1 X24.103 Y12.139 E13.69799
G1 X25.074 Y12.214 E13.74334
G1 X25.965 Y12.36 E13.78538
G1 X26.984 Y12.623 E13.83439
G1 X28.039 Y13.009 E13.8867
G1 X28.692 Y13.294 E13.91987
G1 X44.517 Y20.674 E14.73294
G1 X46.89 Y21.74 E14.85407
G1 X49.199 Y22.699 E14.9705
G1 X51.574 Y23.609 E15.08893
G1 X53.924 Y24.432 E15.20487
G1 X56.35 Y25.207 E15.32346
G1 X58.749 Y25.899 E15.43972
G1 X61.172 Y26.524 E15.55624
G1 X63.664 Y27.092 E15.67525
G1 X66.105 Y27.577 E15.79114
G1 X68.59 Y27.996 E15.90848
G1 X71.074 Y28.344 E16.02528
G1 X73.593 Y28.626 E16.1433
G1 X76.1 Y28.836 E16.26045
G1 X78.584 Y28.969 E16.37628
G1 X81.15 Y29.037 E16.49581
G1 X83.639 Y29.031 E16.6117
G1 X86.171 Y28.954 E16.72966
G1 X88.655 Y28.809 E16.84552
G1 X91.177 Y28.59 E16.9634
G1 X93.68 Y28.299 E17.08073
G1 X96.173 Y27.939 E17.19802
G1 X98.959 Y27.455 E17.32969
G1 X99.925 Y27.334 E17.37503
G1 X100.898 Y27.298 E17.42036
G1 X101.8 Y27.343 E17.46242
G1 X102.835 Y27.487 E17.51108
G1 X103.748 Y27.699 E17.55472
G1 X104.641 Y27.988 E17.59842
G1 X105.216 Y28.22 E17.6273
G1 X105.845 Y28.498 E17.65932
G1 X139.858 Y44.361 E19.40688
G1 X140.533 Y44.69 E19.44185
G1 X141.327 Y45.121 E19.48392
G1 X142.198 Y45.7 E19.53262
G1 X142.956 Y46.31 E19.57792
G1 X143.634 Y46.96 E19.62166
G1 X144.297 Y47.721 E19.66866
G1 X144.869 Y48.507 E19.71392
G1 X145.263 Y49.104 E19.74723
G1 X145.999 Y50.255 E19.81084
G1 X147.445 Y52.382 E19.93061
G1 X148.916 Y54.421 E20.04768
G1 X150.428 Y56.392 E20.16335
G1 X152.044 Y58.383 E20.28275
G1 X153.651 Y60.251 E20.39749
G1 X155.341 Y62.107 E20.51438
G1 X157.113 Y63.946 E20.63329
G1 X158.908 Y65.705 E20.75032
G1 X160.753 Y67.416 E20.86748
G1 X162.651 Y69.077 E20.98493
G1 X164.57 Y70.664 E21.10088
G1 X166.57 Y72.224 E21.21899
G1 X168.61 Y73.725 E21.33692
G1 X170.671 Y75.151 E21.45362
G1 X172.97 Y76.65 E21.58142
G1 X173.765 Y77.212 E21.62675
G1 X174.508 Y77.841 E21.67208
G1 X175.144 Y78.482 E21.71413
G1 X175.812 Y79.284 E21.76273
G1 X176.346 Y80.059 E21.80656
G1 X176.885 Y81.022 E21.85794
G1 X177.19 Y81.642 E21.89012
G1 X193.008 Y115.567 E23.63308
G1 X193.342 Y116.311 E23.67106
G1 X193.675 Y117.15 E23.71309
G1 X193.973 Y118.152 E23.76177
G1 X194.164 Y119.107 E23.80712
G1 X194.27 Y120.075 E23.85246
G1 X194.29 Y121.05 E23.89787
G1 X194.225 Y122.01 E23.94267
G1 X194.127 Y122.696 E23.97494
G1 X193.852 Y124.255 E24.04866
G1 X193.459 Y126.751 E24.16631
G1 X193.129 Y129.316 E24.28673
G1 X192.88 Y131.793 E24.40265
G1 X192.699 Y134.325 E24.52086
G1 X192.592 Y136.81 E24.63668
G1 X192.554 Y139.335 E24.75426
G1 X192.588 Y141.843 E24.87106
G1 X192.693 Y144.365 E24.98859
G1 X192.867 Y146.859 E25.10501
G1 X193.116 Y149.389 E25.22338
G1 X193.428 Y151.847 E25.33876
G1 X193.817 Y154.35 E25.45671
G1 X194.278 Y156.84 E25.57462
G1 X194.799 Y159.271 E25.69039
G1 X195.404 Y161.747 E25.80907
G1 X196.062 Y164.143 E25.92477
G1 X196.81 Y166.596 E26.04419
G1 X197.61 Y168.975 E26.16106
G1 X198.473 Y171.322 E26.2775
G1 X199.39 Y173.61 E26.39228
G1 X200.953 Y177.151 E26.57251
G1 X208.174 Y192.639 E27.36823
G1 X208.481 Y193.322 E27.40309
G1 X208.837 Y194.227 E27.44838
G1 X209.114 Y195.163 E27.49383
G1 X209.305 Y196.115 E27.53904
G1 X209.414 Y197.085 E27.58449
G1 X209.434 Y198.057 E27.62976
G1 X209.369 Y199.03 E27.67517
G1 X209.218 Y199.992 E27.72052
G1 X208.983 Y200.936 E27.76581
G1 X208.665 Y201.857 E27.81118
G1 X208.267 Y202.746 E27.85654
G1 X207.792 Y203.596 E27.90188
G1 X207.243 Y204.401 E27.94725
G1 X206.626 Y205.154 E27.99258
G1 X205.944 Y205.849 E28.03792
G1 X205.203 Y206.482 E28.0833
G1 X204.402 Y207.051 E28.12905
G1 X203.354 Y207.65 E28.18526
G1 X202.755 Y207.945 E28.21635
G1 X176.898 Y220 E29.54478
M204 S2000
G0 F7200 X175.896 Y220
M204 S500
G1 F1500 X176.096 Y219.921 E29.5548
G1 X176.75 Y219.628 E29.58817
G1 X202.586 Y207.582 E30.91554
G1 X203.177 Y207.291 E30.94621
G1 X204.203 Y206.704 E31.00125
G1 X204.971 Y206.156 E31.04518
G1 X205.684 Y205.545 E31.08891
G1 X206.34 Y204.874 E31.1326
G1 X206.933 Y204.148 E31.17625
G1 X207.461 Y203.371 E31.21999
G1 X207.918 Y202.551 E31.26371
G1 X208.3 Y201.694 E31.3074
G1 X208.605 Y200.806 E31.35112
G1 X208.83 Y199.896 E31.39477
G1 X208.974 Y198.969 E31.43845
G1 X209.035 Y198.031 E31.48222
G1 X209.014 Y197.094 E31.52586
G1 X208.908 Y196.16 E31.56963
G1 X208.722 Y195.242 E31.61324
G1 X208.454 Y194.341 E31.65702
G1 X208.109 Y193.469 E31.70068
G1 X207.809 Y192.803 E31.73469
G1 X200.59 Y177.32 E32.53016
G1 X199.024 Y173.772 E32.71075
G1 X198.102 Y171.471 E32.82617
G1 X197.231 Y169.103 E32.94366
G1 X196.427 Y166.713 E33.06108
G1 X195.679 Y164.26 E33.18049
G1 X195.018 Y161.853 E33.29672
G1 X194.41 Y159.366 E33.41594
G1 X193.887 Y156.924 E33.53222
G1 X193.424 Y154.423 E33.65066
G1 X193.031 Y151.897 E33.7697
G1 X192.719 Y149.439 E33.88507
G1 X192.469 Y146.898 E34.00396
G1 X192.293 Y144.382 E34.1214
G1 X192.188 Y141.86 E34.23894
G1 X192.154 Y139.329 E34.3568
G1 X192.192 Y136.793 E34.4749
G1 X192.3 Y134.296 E34.59128
G1 X192.482 Y131.753 E34.71
G1 X192.732 Y129.265 E34.82643
G1 X193.062 Y126.7 E34.94686
G1 X193.458 Y124.186 E35.06536
G1 X193.733 Y122.627 E35.13908
G1 X193.829 Y121.954 E35.17073
G1 X193.891 Y121.023 E35.21418
G1 X193.87 Y120.084 E35.25791
G1 X193.766 Y119.151 E35.30163
G1 X193.581 Y118.231 E35.34532
G1 X193.303 Y117.298 E35.39065
G1 X192.97 Y116.459 E35.43269
G1 X192.643 Y115.731 E35.46985
G1 X176.827 Y81.811 E37.21256
G1 X176.526 Y81.199 E37.24432
G1 X175.997 Y80.255 E37.29471
G1 X175.483 Y79.512 E37.33678
G1 X174.86 Y78.764 E37.38211
G1 X174.224 Y78.123 E37.42415
G1 X173.507 Y77.517 E37.46787
G1 X172.74 Y76.977 E37.51155
G1 X170.443 Y75.48 E37.63921
G1 X168.382 Y74.054 E37.75591
G1 X166.333 Y72.546 E37.87438
G1 X164.315 Y70.972 E37.99355
G1 X162.396 Y69.385 E38.1095
G1 X160.49 Y67.717 E38.22744
G1 X158.628 Y65.991 E38.34566
G1 X156.833 Y64.232 E38.46269
G1 X155.053 Y62.385 E38.58213
G1 X153.355 Y60.52 E38.69957
G1 X151.733 Y58.635 E38.81537
G1 X150.117 Y56.644 E38.93477
G1 X148.592 Y54.655 E39.05148
G1 X147.114 Y52.607 E39.16908
G1 X145.668 Y50.48 E39.28884
G1 X144.926 Y49.32 E39.35296
G1 X144.535 Y48.727 E39.38604
G1 X143.974 Y47.956 E39.43044
G1 X143.357 Y47.249 E39.47413
G1 X142.679 Y46.599 E39.51787
G1 X141.948 Y46.012 E39.56152
G1 X141.136 Y45.473 E39.6069
G1 X140.342 Y45.042 E39.64897
G1 X139.683 Y44.721 E39.6831
G1 X105.676 Y28.861 E41.43036
G1 X105.054 Y28.586 E41.46202
G1 X104.518 Y28.369 E41.48895
G1 X103.625 Y28.08 E41.53265
G1 X102.745 Y27.877 E41.57471
G1 X101.78 Y27.743 E41.62007
G1 X100.878 Y27.698 E41.66213
G1 X99.94 Y27.734 E41.70583
G1 X99.009 Y27.852 E41.74953
G1 X96.23 Y28.335 E41.88087
G1 X93.737 Y28.695 E41.99816
G1 X91.221 Y28.987 E42.11611
G1 X88.678 Y29.208 E42.23496
G1 X86.183 Y29.354 E42.35134
G1 X83.651 Y29.431 E42.4693
G1 X81.14 Y29.437 E42.58622
G1 X78.573 Y29.369 E42.70579
G1 X76.067 Y29.234 E42.82265
G1 X73.552 Y29.024 E42.94017
G1 X71.03 Y28.742 E43.05833
G1 X68.534 Y28.392 E43.17569
G1 X66.032 Y27.97 E43.29384
G1 X63.575 Y27.482 E43.41049
G1 X61.083 Y26.914 E43.5295
G1 X58.643 Y26.285 E43.64683
G1 X56.228 Y25.588 E43.76387
G1 X53.792 Y24.81 E43.88295
G1 X51.442 Y23.987 E43.99889
G1 X49.056 Y23.072 E44.11788
G1 X46.726 Y22.105 E44.23535
G1 X44.348 Y21.037 E44.35673
G1 X28.523 Y13.657 E45.1698
G1 X27.902 Y13.385 E45.20137
G1 X26.847 Y12.999 E45.25368
G1 X25.9 Y12.755 E45.29922
G1 X25.009 Y12.609 E45.34126
G1 X24.073 Y12.538 E45.38497
G1 X23.135 Y12.549 E45.42865
G1 X22.201 Y12.644 E45.47236
G1 X21.279 Y12.821 E45.51608
G1 X20.377 Y13.079 E45.55977
G1 X19.501 Y13.415 E45.60345
G1 X18.657 Y13.828 E45.64721
G1 X17.854 Y14.314 E45.69091
G1 X17.098 Y14.869 E45.73458
G1 X16.393 Y15.488 E45.77827
G1 X15.746 Y16.168 E45.82198
G1 X15.161 Y16.901 E45.86564
G1 X14.643 Y17.684 E45.90936
G1 X14.197 Y18.511 E45.95311
G1 X13.825 Y19.281 E45.99293
G1 X1.835 Y44.997 E47.31413
G1 X1.588 Y45.555 E47.34255
G1 X1.122 Y46.847 E47.4065
G1 X0.898 Y47.769 E47.45068
G1 X0.759 Y48.697 E47.49438
G1 X0.703 Y49.634 E47.53809
G1 X0.729 Y50.571 E47.58173
G1 X0.839 Y51.503 E47.62543
G1 X1.039 Y52.456 E47.67078
G1 X1.302 Y53.32 E47.71283
G1 X1.653 Y54.191 E47.75656
G1 X2.856 Y56.824 E47.89135
G1 X3.827 Y59.125 E48.00764
G1 X4.754 Y61.505 E48.12658
G1 X5.604 Y63.885 E48.24426
G1 X6.374 Y66.253 E48.3602
G1 X7.091 Y68.688 E48.4784
G1 X7.751 Y71.189 E48.59884
G1 X8.315 Y73.602 E48.71423
G1 X8.822 Y76.084 E48.83219
G1 X9.29 Y78.762 E48.95878
G1 X9.411 Y79.353 E48.98687
G1 X9.663 Y80.25 E49.03025
G1 X9.996 Y81.128 E49.07398
G1 X10.404 Y81.972 E49.11763
G1 X10.886 Y82.777 E49.16132
G1 X11.438 Y83.537 E49.20506
G1 X12.078 Y84.27 E49.25037
G1 X12.73 Y84.895 E49.29242
G1 X13.462 Y85.483 E49.33614
G1 X14.243 Y86.004 E49.37986
G1 X15.066 Y86.454 E49.42354
G1 X19.07 Y88.409 E49.63102
G1 X21.27 Y89.578 E49.74702
G1 X23.488 Y90.839 E49.86583
G1 X25.625 Y92.133 E49.98216
G1 X27.756 Y93.51 E50.1003
G1 X29.86 Y94.953 E50.2191
G1 X31.87 Y96.419 E50.33494
G1 X33.899 Y97.987 E50.45434
G1 X35.859 Y99.593 E50.57233
G1 X37.758 Y101.241 E50.68941
G1 X39.625 Y102.956 E50.80746
G1 X41.466 Y104.745 E50.92699
G1 X116.823 Y180.103 E55.88941
G1 X119.229 Y182.601 E56.05091
G1 X120.916 Y184.472 E56.16822
G1 X122.557 Y186.4 E56.28611
G1 X124.15 Y188.384 E56.40458
G1 X125.663 Y190.38 E56.52121
G1 X127.134 Y192.439 E56.63904
G1 X128.542 Y194.533 E56.75654
G1 X129.911 Y196.699 E56.87585
G1 X131.185 Y198.846 E56.9921
G1 X132.411 Y201.052 E57.10962
G1 X133.583 Y203.309 E57.22804
G1 X135.109 Y206.469 E57.39144
G1 X135.429 Y207.079 E57.42352
G1 X135.907 Y207.845 E57.46556
G1 X136.471 Y208.595 E57.50926
G1 X137.098 Y209.293 E57.55295
G1 X137.785 Y209.932 E57.59663
G1 X138.526 Y210.508 E57.64034
G1 X139.315 Y211.016 E57.68403
G1 X140.147 Y211.452 E57.72777
G1 X141.046 Y211.826 E57.77311
G1 X141.907 Y212.097 E57.81514
G1 X142.823 Y212.3 E57.85883
G1 X144.353 Y212.566 E57.93114
G1 X146.848 Y213.039 E58.04939
G1 X149.284 Y213.572 E58.1655
G1 X151.779 Y214.191 E58.2852
G1 X154.22 Y214.872 E58.4032
G1 X156.62 Y215.615 E58.52019
G1 X159.017 Y216.433 E58.63813
G1 X161.403 Y217.324 E58.75672
G1 X163.734 Y218.269 E58.87384
G1 X166.144 Y219.326 E58.99638
G1 X167.362 Y219.883 E59.05875
G1 X167.636 Y220 E59.07262
M204 S2000
G0 F7200 X168.806 Y220
M204 S500
G1 F1500 X168.034 Y219.735 E59.11063
G1 X167.528 Y219.519 E59.13624
G1 X166.31 Y218.962 E59.19861
G1 X163.884 Y217.898 E59.32196
G1 X161.543 Y216.949 E59.43958
G1 X159.146 Y216.054 E59.55872
G1 X156.749 Y215.236 E59.67666
G1 X154.338 Y214.49 E59.79418
G1 X151.875 Y213.803 E59.91324
G1 X149.369 Y213.181 E60.03347
G1 X146.933 Y212.648 E60.14959
G1 X144.422 Y212.172 E60.26859
G1 X142.909 Y211.909 E60.3401
G1 X142.027 Y211.715 E60.38215
G1 X141.166 Y211.444 E60.42418
G1 X140.332 Y211.098 E60.46622
G1 X139.531 Y210.679 E60.50832
G1 X138.771 Y210.192 E60.55035
G1 X138.057 Y209.639 E60.5924
G1 X137.395 Y209.025 E60.63444
G1 X136.79 Y208.354 E60.67651
G1 X136.246 Y207.633 E60.71857
G1 X135.768 Y206.867 E60.76061
G1 X135.469 Y206.295 E60.79067
G1 X133.943 Y203.135 E60.95407
G1 X132.761 Y200.858 E61.07353
G1 X131.535 Y198.652 E61.19105
G1 X130.255 Y196.495 E61.30784
G1 X128.88 Y194.319 E61.4277
G1 X127.466 Y192.216 E61.5457
G1 X125.982 Y190.138 E61.6646
G1 X124.469 Y188.142 E61.78123
G1 X122.862 Y186.141 E61.90073
G1 X121.221 Y184.213 E62.01862
G1 X119.526 Y182.333 E62.13649
G1 X117.106 Y179.82 E62.29894
G1 X41.749 Y104.462 E67.26136
G1 X39.896 Y102.661 E67.38168
G1 X38.029 Y100.946 E67.49973
G1 X36.113 Y99.284 E67.61784
G1 X34.144 Y97.67 E67.73639
G1 X32.115 Y96.102 E67.85579
G1 X30.096 Y94.63 E67.97214
G1 X27.982 Y93.18 E68.0915
G1 X25.842 Y91.797 E68.21015
G1 X23.686 Y90.491 E68.32752
G1 X21.468 Y89.23 E68.44633
G1 X19.258 Y88.056 E68.56285
G1 X15.257 Y86.103 E68.77017
G1 X14.464 Y85.671 E68.81222
G1 X13.712 Y85.171 E68.85427
G1 X13.007 Y84.606 E68.89634
G1 X12.355 Y83.981 E68.93839
G1 X11.761 Y83.301 E68.98043
G1 X11.229 Y82.571 E69.02249
G1 X10.764 Y81.797 E69.06454
G1 X10.37 Y80.985 E69.10657
G1 X10.048 Y80.141 E69.14863
G1 X9.803 Y79.272 E69.19067
G1 X9.684 Y78.693 E69.21819
G1 X9.216 Y76.015 E69.34478
G1 X8.705 Y73.511 E69.46378
G1 X8.141 Y71.098 E69.57917
G1 X7.478 Y68.586 E69.70015
G1 X6.758 Y66.14 E69.81887
G1 X5.981 Y63.75 E69.9359
G1 X5.131 Y61.37 E70.05357
G1 X4.196 Y58.969 E70.17355
G1 X3.225 Y56.668 E70.28985
G1 X2.024 Y54.041 E70.42435
G1 X1.685 Y53.204 E70.4664
G1 X1.422 Y52.34 E70.50845
G1 X1.236 Y51.456 E70.55052
G1 X1.129 Y50.559 E70.59258
G1 X1.102 Y49.657 E70.6346
