;FLAVOR:Marlin
;TIME:8417
;Filament used: 8.57059m
;Layer height: 0.28
;MINX:6.831
;MINY:11.492
;MINZ:0.28
;MAXX:214.315
;MAXY:218.975
;MAXZ:4.2
;TARGET_MACHINE.NAME:Creality Ender-3 S1 Pro
;Generated with Cura_SteamEngine 5.8.0
M82 ;absolute extrusion mode
; Ender 3 S1 Pro Start G-code
; M413 S0 ; Disable power loss recovery
G92 E0 ; Reset Extruder

; Prep surfaces before auto home for better accuracy
M140 S60
M104 S210.0

G28 ; Home all axes
G1 Z10.0 F3000 ; Move Z Axis up little to prevent scratching of Heat Bed
G1 X0 Y0

M190 S60
M109 S210.0

G1 X0.1 Y20 Z0.3 F5000.0 ; Move to start position
G1 X0.1 Y200.0 Z0.3 F1500.0 E15 ; Draw the first line
G1 X0.4 Y200.0 Z0.3 F5000.0 ; Move to side a little
G1 X0.4 Y20 Z0.3 F1500.0 E30 ; Draw the second line
G92 E0 ; Reset Extruder
G1 Z2.0 F3000 ; Move Z Axis up little to prevent scratching of Heat Bed
G1 X5 Y20 Z0.3 F5000.0 ; Move over to prevent blob squish

G92 E0
G92 E0
G1 F2400 E-0.8
;LAYER_COUNT:15
;LAYER:0
M107
M204 S2000
G0 F7500 X21.224 Y15.679 Z0.28
M204 S500
;TYPE:SKIRT
G1 F2400 E0
G1 F1500 X21.787 Y14.973 E0.04205
G1 X22.411 Y14.32 E0.0841
G1 X23.09 Y13.725 E0.12614
G1 X23.819 Y13.192 E0.16819
G1 X24.593 Y12.726 E0.21026
G1 X25.405 Y12.33 E0.25233
G1 X26.248 Y12.007 E0.29437
G1 X27.117 Y11.76 E0.33643
G1 X28.004 Y11.591 E0.37848
G1 X28.903 Y11.502 E0.42054
G1 X29.806 Y11.492 E0.46259
G1 X30.706 Y11.562 E0.50463
G1 X31.597 Y11.711 E0.54669
G1 X32.471 Y11.938 E0.58874
G1 X33.53 Y12.33 E0.64132
G1 X35.532 Y13.199 E0.74295
G1 X37.921 Y14.174 E0.8631
G1 X40.266 Y15.054 E0.97972
G1 X42.679 Y15.883 E1.09853
G1 X45.101 Y16.639 E1.21667
G1 X47.558 Y17.33 E1.33552
G1 X50.003 Y17.944 E1.45291
G1 X52.486 Y18.493 E1.57132
G1 X54.994 Y18.974 E1.69023
G1 X57.495 Y19.38 E1.80821
G1 X60.028 Y19.719 E1.92721
G1 X62.526 Y19.981 E2.04416
G1 X65.067 Y20.176 E2.16283
G1 X67.597 Y20.298 E2.28078
G1 X70.125 Y20.347 E2.39851
G1 X72.698 Y20.325 E2.51833
G1 X75.23 Y20.232 E2.63631
G1 X77.722 Y20.069 E2.75259
G1 X80.292 Y19.829 E2.87278
G1 X82.809 Y19.521 E2.99086
G1 X85.335 Y19.14 E3.10981
G1 X87.486 Y18.758 E3.21154
G1 X88.381 Y18.64 E3.25357
G1 X89.284 Y18.601 E3.29566
G1 X90.186 Y18.642 E3.3377
G1 X91.081 Y18.763 E3.37976
G1 X91.962 Y18.963 E3.42183
G1 X92.821 Y19.24 E3.46385
G1 X93.313 Y19.437 E3.48853
G1 X93.888 Y19.69 E3.51778
G1 X145.17 Y43.603 E6.15254
G1 X145.807 Y43.911 E6.18549
G1 X146.602 Y44.34 E6.22755
G1 X147.356 Y44.837 E6.2696
G1 X148.063 Y45.399 E6.31166
G1 X148.717 Y46.022 E6.35371
G1 X149.314 Y46.7 E6.39578
G1 X149.876 Y47.47 E6.44017
G1 X150.34 Y48.173 E6.47939
G1 X151.041 Y49.268 E6.53993
G1 X152.485 Y51.39 E6.65945
G1 X153.96 Y53.432 E6.77674
G1 X155.503 Y55.446 E6.89488
G1 X157.095 Y57.407 E7.0125
G1 X158.769 Y59.351 E7.13195
G1 X160.458 Y61.205 E7.24874
G1 X162.247 Y63.061 E7.36877
G1 X164.044 Y64.822 E7.48593
G1 X165.931 Y66.57 E7.6057
G1 X167.826 Y68.227 E7.72292
G1 X169.758 Y69.825 E7.83966
G1 X171.789 Y71.408 E7.95957
G1 X173.822 Y72.903 E8.07707
G1 X175.93 Y74.362 E8.19645
G1 X178.282 Y75.895 E8.32718
G1 X179.016 Y76.421 E8.36923
G1 X179.701 Y77.011 E8.41132
G1 X180.331 Y77.658 E8.45337
G1 X180.901 Y78.358 E8.49541
G1 X181.406 Y79.106 E8.53743
G1 X181.818 Y79.844 E8.57679
G1 X182.117 Y80.448 E8.60817
G1 X206.011 Y131.693 E11.24099
G1 X206.306 Y132.348 E11.27444
G1 X206.64 Y133.187 E11.31649
G1 X206.899 Y134.053 E11.35858
G1 X207.08 Y134.937 E11.4006
G1 X207.182 Y135.835 E11.44268
G1 X207.204 Y136.738 E11.48474
G1 X207.146 Y137.639 E11.52678
G1 X207.053 Y138.3 E11.55786
G1 X206.767 Y139.933 E11.63506
G1 X206.364 Y142.488 E11.7555
G1 X206.045 Y144.975 E11.87226
G1 X205.788 Y147.543 E11.99243
G1 X205.609 Y150.047 E12.10933
G1 X205.5 Y152.604 E12.2285
G1 X205.462 Y155.13 E12.34613
G1 X205.496 Y157.67 E12.46442
G1 X205.603 Y160.212 E12.58289
G1 X205.78 Y162.732 E12.70052
G1 X206.034 Y165.305 E12.82091
G1 X206.351 Y167.794 E12.93775
G1 X206.738 Y170.268 E13.05435
G1 X207.211 Y172.825 E13.17543
G1 X207.73 Y175.246 E13.29072
G1 X208.344 Y177.753 E13.41091
G1 X209.013 Y180.191 E13.52863
G1 X209.758 Y182.628 E13.64729
G1 X210.573 Y185.049 E13.76624
G1 X211.446 Y187.418 E13.8838
G1 X212.393 Y189.781 E14.00234
G1 X213.477 Y192.278 E14.12909
G1 X213.8 Y193.121 E14.17113
G1 X214.047 Y193.99 E14.2132
G1 X214.216 Y194.877 E14.25524
G1 X214.305 Y195.776 E14.29731
G1 X214.315 Y196.679 E14.33936
G1 X214.245 Y197.579 E14.38139
G1 X214.096 Y198.47 E14.42346
G1 X213.869 Y199.344 E14.46551
G1 X213.565 Y200.195 E14.50758
G1 X213.187 Y201.015 E14.54963
G1 X212.738 Y201.798 E14.59166
G1 X212.221 Y202.539 E14.63373
G1 X211.641 Y203.231 E14.67577
G1 X211.002 Y203.869 E14.71782
G1 X210.309 Y204.449 E14.7599
G1 X209.568 Y204.964 E14.80192
G1 X208.729 Y205.44 E14.84683
G1 X208.12 Y205.742 E14.87849
G1 X182.337 Y217.764 E16.20315
G1 X181.642 Y218.077 E16.23864
G1 X180.802 Y218.411 E16.28073
G1 X179.937 Y218.67 E16.32278
G1 X179.052 Y218.851 E16.36484
G1 X178.155 Y218.953 E16.40688
G1 X177.252 Y218.975 E16.44894
G1 X176.351 Y218.917 E16.49098
G1 X175.458 Y218.78 E16.53305
G1 X174.581 Y218.564 E16.5751
G1 X173.727 Y218.272 E16.61713
G1 X173.217 Y218.056 E16.64292
G1 X171.513 Y217.278 E16.73014
G1 X169.192 Y216.273 E16.84792
G1 X166.828 Y215.327 E16.96648
G1 X164.433 Y214.447 E17.08529
G1 X162.026 Y213.639 E17.20352
G1 X159.593 Y212.898 E17.32195
G1 X157.136 Y212.225 E17.44057
G1 X154.661 Y211.624 E17.55916
G1 X152.201 Y211.097 E17.67631
G1 X149.803 Y210.653 E17.78987
G1 X148.585 Y210.44 E17.84745
G1 X147.703 Y210.245 E17.88951
G1 X146.842 Y209.974 E17.93154
G1 X146.008 Y209.627 E17.9736
G1 X145.208 Y209.207 E18.01567
G1 X144.448 Y208.719 E18.05773
G1 X143.735 Y208.165 E18.09977
G1 X143.073 Y207.551 E18.14182
G1 X142.468 Y206.88 E18.18389
G1 X141.925 Y206.158 E18.22595
G1 X141.448 Y205.392 E18.26797
G1 X140.985 Y204.492 E18.3151
G1 X139.627 Y201.669 E18.46097
G1 X138.445 Y199.392 E18.58043
G1 X137.219 Y197.186 E18.69795
G1 X135.939 Y195.029 E18.81474
G1 X134.564 Y192.853 E18.9346
G1 X133.15 Y190.75 E19.0526
G1 X131.666 Y188.672 E19.1715
G1 X130.153 Y186.676 E19.28813
G1 X128.546 Y184.675 E19.40763
G1 X126.905 Y182.747 E19.52552
G1 X125.21 Y180.867 E19.64339
G1 X122.79 Y178.354 E19.80584
G1 X47.432 Y102.995 E24.76833
G1 X45.579 Y101.194 E24.88865
G1 X43.712 Y99.479 E25.0067
G1 X41.796 Y97.817 E25.1248
G1 X39.827 Y96.203 E25.24335
G1 X37.798 Y94.635 E25.36275
G1 X35.779 Y93.163 E25.4791
G1 X33.665 Y91.713 E25.59847
G1 X31.525 Y90.33 E25.71711
G1 X29.369 Y89.024 E25.83449
G1 X27.151 Y87.763 E25.95329
G1 X24.941 Y86.589 E26.06982
G1 X20.94 Y84.636 E26.27713
G1 X20.147 Y84.204 E26.31918
G1 X19.395 Y83.704 E26.36123
G1 X18.69 Y83.139 E26.4033
G1 X18.038 Y82.514 E26.44536
G1 X17.444 Y81.834 E26.4874
G1 X16.912 Y81.104 E26.52946
G1 X16.447 Y80.33 E26.5715
G1 X16.053 Y79.518 E26.61353
G1 X15.731 Y78.674 E26.65559
G1 X15.486 Y77.805 E26.69764
G1 X15.366 Y77.22 E26.72544
G1 X14.881 Y74.433 E26.85717
G1 X14.377 Y71.962 E26.9746
G1 X13.792 Y69.465 E27.09402
G1 X13.144 Y67.006 E27.21243
G1 X12.435 Y64.6 E27.32922
G1 X11.637 Y62.147 E27.44934
G1 X10.795 Y59.788 E27.56597
G1 X9.871 Y57.412 E27.68468
G1 X8.886 Y55.079 E27.8026
G1 X7.75 Y52.589 E27.93004
G1 X7.412 Y51.752 E27.97207
G1 X7.149 Y50.888 E28.01412
G1 X6.964 Y50.004 E28.05618
G1 X6.858 Y49.107 E28.09824
G1 X6.831 Y48.204 E28.1403
G1 X6.885 Y47.303 E28.18233
G1 X7.017 Y46.409 E28.22441
G1 X7.229 Y45.531 E28.26647
G1 X7.672 Y44.299 E28.32743
G1 X7.936 Y43.699 E28.35796
G1 X19.993 Y17.844 E29.68635
G1 X20.294 Y17.225 E29.7184
G1 X20.725 Y16.432 E29.76042
G1 X21.224 Y15.679 E29.80249
M204 S2000
G1 F2400 E29.00249
;MESH:cover.stl
G0 F7500 X28.683 Y21.769
G0 X31.534 Y23.31
M204 S500
;TYPE:WALL-INNER
G1 F2400 E29.80249
G1 F888.9 X29.751 Y22.47 E29.89541
G1 F900 X28.968 Y24.15 E29.98172
G1 F897.8 X29.068 Y24.049 E29.98835
G1 F900 X30.086 Y23.437 E30.04366
G1 X30.29 Y23.393 E30.05338
G1 F888.9 X31.534 Y23.31 E30.11216
M204 S2000
G0 F7500 X31.586 Y23.335
M204 S500
G1 F886.7 X32.68 Y23.832 E30.16895
M204 S2000
G1 F2400 E29.36895
G0 F7500 X33.534 Y25.064
G0 X33.771 Y26.363
G0 X33.379 Y27.624
G0 X32.702 Y28.288
G0 X32.704 Y28.808
G0 X33.276 Y32.264
G0 X35.753 Y44.761
M204 S500
G1 F2400 E30.16895
G1 F900 X35.623 Y44.831 E30.17582
G1 X32.71 Y45.744 E30.31797
G1 X32.483 Y45.743 E30.32854
G1 X29.544 Y45.203 E30.46768
G1 X29.378 Y45.121 E30.47631
G1 X26.924 Y43.201 E30.62139
G1 X25.604 Y40.265 E30.77129
G1 X25.789 Y37.199 E30.91431
G1 X25.844 Y36.982 E30.92474
G1 X27.39 Y34.421 E31.06403
G1 X27.593 Y34.218 E31.0774
G1 X30.15 Y32.676 E31.21644
G1 X30.367 Y32.62 E31.22687
G1 X33.432 Y32.437 E31.36985
G1 X36.296 Y33.724 E31.51605
G1 X36.421 Y33.823 E31.52348
G1 X38.307 Y36.232 E31.66594
G1 X38.372 Y36.378 E31.67338
G1 X38.918 Y39.37 E31.815
G1 X38.904 Y39.563 E31.82401
G1 X38.01 Y42.427 E31.96372
G1 X37.873 Y42.641 E31.97555
G1 X35.753 Y44.761 E32.11516
M204 S2000
G1 F2400 E31.31516
G0 F7500 X32.619 Y45.603
G0 X29.493 Y45.379
G0 X24.318 Y46.326
G0 X23.678 Y48.245
G0 X22.742 Y49.181
G0 X21.481 Y49.573
G0 X20.182 Y49.336
G0 X18.537 Y48.142
G0 X18.849 Y48.456
M204 S500
G1 F2400 E32.11516
G1 F647.5 X18.426 Y47.51 E32.18223
G1 X18.35 Y47.106 E32.20883
G1 X17.922 Y48.023 E32.27433
G1 X18.849 Y48.456 E32.34055
M204 S2000
G1 F2400 E31.54055
G0 F7500 X18.537 Y48.142
G0 X20.458 Y49.49
G0 X34.865 Y56.205
G0 X29.448 Y68.652
G0 X32.354 Y68.829
G0 X42.475 Y74.729
M204 S500
G1 F2400 E32.34055
G1 F900 X39.478 Y75.666 E32.48677
G1 X36.408 Y75.104 E32.6321
G1 X36.22 Y75.017 E32.64174
G1 X33.776 Y73.096 E32.78649
G1 X32.455 Y70.161 E32.93636
G1 X32.64 Y67.096 E33.07934
G1 X32.696 Y66.878 E33.08982
G1 X34.238 Y64.321 E33.22886
G1 X34.441 Y64.118 E33.24223
G1 X37.066 Y62.53 E33.38509
G1 X40.198 Y62.344 E33.53118
G1 X40.353 Y62.367 E33.53848
G1 X43.15 Y63.625 E33.68129
G1 X43.266 Y63.71 E33.68798
G1 X45.132 Y66.094 E33.82895
G1 X45.223 Y66.269 E33.83814
G1 X45.763 Y69.211 E33.97742
G1 X45.752 Y69.476 E33.98977
G1 X44.863 Y72.321 E34.12856
G1 X44.776 Y72.486 E34.13725
G1 X42.624 Y74.635 E34.27886
G1 X42.475 Y74.729 E34.28706
M204 S2000
G1 F2400 E33.48706
G0 F7500 X47.196 Y82.441
G0 X50.597 Y87.353
M204 S500
G1 F2400 E34.28706
G1 F900 X49.396 Y87.729 E34.34566
G1 X49.107 Y87.746 E34.35914
G1 X48.022 Y87.546 E34.41052
G1 F873.8 X47.78 Y87.458 E34.42287
G1 F927.8 X46.854 Y86.68 E34.47749
G1 F978.3 X46.72 Y86.516 E34.48657
G1 F918.4 X46.26 Y85.515 E34.53684
G1 F900 X46.209 Y85.233 E34.55018
G1 X46.273 Y84.129 E34.60167
G1 X46.359 Y83.851 E34.61522
G1 X46.935 Y82.907 E34.66672
G1 X47.081 Y82.744 E34.67691
G1 X48.118 Y82.109 E34.73353
G1 X48.277 Y82.054 E34.74136
G1 X49.512 Y81.98 E34.79897
G1 X49.675 Y82.001 E34.80663
G1 X50.823 Y82.525 E34.86539
G1 X50.973 Y82.661 E34.87481
G1 X51.687 Y83.575 E34.92882
G1 X51.759 Y83.73 E34.93678
G1 X51.979 Y84.908 E34.99258
G1 X51.969 Y85.125 E35.00269
G1 X51.606 Y86.281 E35.05911
G1 X51.523 Y86.427 E35.06693
G1 X50.597 Y87.353 E35.12791
M204 S2000
G1 F2400 E34.32791
G0 F7500 X49.072 Y87.904
G0 X47.626 Y87.609
G0 X47.873 Y87.932
G0 X75.019 Y115.068
G0 X76.39 Y115.813
G0 X77.688 Y116.05
G0 X79.037 Y115.797
M204 S500
G1 F2400 E35.12791
G1 F900 X77.84 Y116.173 E35.18634
G1 X77.551 Y116.191 E35.19982
G1 X76.463 Y115.99 E35.25134
G1 F873.8 X76.221 Y115.901 E35.2637
G1 F927.8 X75.297 Y115.124 E35.31823
G1 F989 X75.168 Y114.959 E35.32711
G1 F927.8 X74.701 Y113.956 E35.37708
G1 F900 X74.649 Y113.671 E35.39057
G1 X74.717 Y112.566 E35.44212
G1 X74.802 Y112.293 E35.45544
G1 X75.451 Y111.222 E35.51375
G1 X76.579 Y110.543 E35.57505
G1 X76.723 Y110.497 E35.58209
G1 X77.929 Y110.42 E35.63836
G1 X78.146 Y110.457 E35.64861
G1 X79.235 Y110.95 E35.70428
G1 X79.369 Y111.045 E35.71193
G1 X80.13 Y112.013 E35.76926
G1 X80.219 Y112.235 E35.7804
G1 X80.424 Y113.357 E35.83351
G1 X80.422 Y113.546 E35.84231
G1 X80.025 Y114.809 E35.90396
G1 X79.037 Y115.797 E35.96902
M204 S2000
G1 F2400 E35.16902
G0 F7500 X77.517 Y116.349
G0 X76.067 Y116.052
G0 X76.314 Y116.375
G0 X92.141 Y132.176
G0 X92.773 Y132.597
G0 X92.854 Y131.88
G0 X95.326 Y133.818
G0 X98.692 Y134.571
G0 X98.567 Y134.505
M204 S500
G1 F2400 E35.96902
G1 F900 X98.279 Y134.523 E35.98245
G1 X95.399 Y133.994 E36.1188
G1 X95.163 Y133.896 E36.1307
G1 X93.378 Y132.497 E36.2363
G1 F725.8 X93.005 Y132.326 E36.26
G1 F619.6 X92.724 Y132.085 E36.28503
G1 F728.7 X92.653 Y131.85 E36.29915
G1 F882.4 X91.46 Y129.179 E36.43809
G1 F900 X91.409 Y128.895 E36.45153
G1 X91.594 Y125.83 E36.59451
G1 X93.224 Y123.14 E36.74097
G1 X93.331 Y123.03 E36.74811
G1 X95.952 Y121.453 E36.89054
G1 X96.132 Y121.403 E36.89924
G1 X99.106 Y121.224 E37.03798
G1 X99.334 Y121.264 E37.04875
G1 X102.087 Y122.505 E37.18937
G1 X102.214 Y122.599 E37.19673
G1 X104.081 Y124.984 E37.33776
G1 X104.167 Y125.152 E37.34655
G1 X104.718 Y128.154 E37.48867
G1 X104.709 Y128.299 E37.49543
G1 X103.809 Y131.199 E37.63682
G1 X103.725 Y131.365 E37.64549
G1 X101.565 Y133.525 E37.78773
G1 X101.359 Y133.633 E37.79856
G1 X98.567 Y134.505 E37.93476
M204 S2000
G1 F2400 E37.13476
G0 F7500 X98.692 Y134.571
G0 X95.068 Y134.025
G0 X93.271 Y132.618
G0 X92.524 Y132.293
G0 X92.937 Y132.996
G0 X109.981 Y149.998
G0 X110.384 Y150.204
M204 S500
G1 F2400 E37.93476
G1 F932.6 X110.333 Y150.161 E37.93776
G1 F978.3 X110.2 Y149.996 E37.94683
G1 F918.4 X109.737 Y148.991 E37.99733
G1 F900 X109.685 Y148.707 E38.01077
G1 X109.753 Y147.603 E38.06228
G1 X109.838 Y147.329 E38.07564
G1 X110.487 Y146.259 E38.13391
G1 X111.557 Y145.61 E38.19218
G1 X111.776 Y145.53 E38.20304
G1 X113.085 Y145.448 E38.26411
G1 X114.257 Y145.979 E38.32402
G1 X114.403 Y146.08 E38.33229
G1 X115.229 Y147.129 E38.39446
G1 X115.461 Y148.401 E38.45467
G1 X115.437 Y148.648 E38.46622
G1 X115.061 Y149.845 E38.52464
G1 X114.073 Y150.833 E38.58971
G1 X112.876 Y151.209 E38.64813
G1 X112.587 Y151.227 E38.66161
G1 X111.499 Y151.026 E38.71313
G1 F873.8 X111.256 Y150.938 E38.72553
G1 F853.1 X110.384 Y150.204 E38.78152
M204 S2000
G0 F7500 X110.381 Y150.689
M204 S500
G1 F873.8 X110.986 Y151.26 E38.82142
G1 X111.237 Y151.526 E38.83896
G1 F900 X137.565 Y177.856 E40.57277
G1 F918.4 X138.342 Y178.643 E40.62323
G1 F978.3 X138.525 Y178.851 E40.6351
G1 F927.8 X139.427 Y179.701 E40.69108
G1 F871.7 X139.679 Y179.969 E40.70877
G1 F900 X143.023 Y183.313 E40.92898
G1 X150.619 Y199.602 E41.76588
G1 X169.216 Y190.935 E42.72126
G1 X169.48 Y190.913 E42.73359
G1 X169.78 Y191.046 E42.74887
G1 X169.933 Y191.239 E42.76034
G1 X176.181 Y204.638 E43.44875
G1 X176.228 Y203.813 E43.48723
G1 X176.314 Y203.537 E43.50069
G1 X176.886 Y202.593 E43.55209
G1 X177.09 Y202.39 E43.56549
G1 X178.038 Y201.818 E43.61704
G1 X178.236 Y201.738 E43.62699
G1 X179.48 Y201.661 E43.68502
G1 X179.624 Y201.69 E43.69186
G1 X180.74 Y202.19 E43.74881
G1 X180.903 Y202.318 E43.75846
G1 X181.641 Y203.256 E43.81403
G1 X181.731 Y203.479 E43.82523
G1 X181.931 Y204.567 E43.87674
G1 X181.913 Y204.856 E43.89022
G1 X181.581 Y205.912 E43.94177
G1 X181.433 Y206.157 E43.9551
G1 X181.225 Y206.364 E43.96876
G1 X199.723 Y197.738 E44.91915
G1 X198.599 Y197.531 E44.97237
G1 X198.339 Y197.414 E44.98565
G1 X197.466 Y196.734 E45.03718
G1 X197.288 Y196.506 E45.05064
G1 X196.836 Y195.498 E45.10208
G1 X196.785 Y195.217 E45.11538
G1 X196.861 Y193.956 E45.17421
G1 X197.511 Y192.891 E45.2323
G1 X197.645 Y192.738 E45.24177
G1 X198.779 Y192.042 E45.30373
G1 X200.034 Y191.965 E45.36228
G1 X200.319 Y192.016 E45.37576
G1 X201.323 Y192.468 E45.42703
G1 X201.549 Y192.645 E45.4404
G1 X202.032 Y193.263 E45.47692
G1 X179.4 Y144.73 E47.97046
G1 X179.355 Y144.561 E47.9786
G1 X179.37 Y144.342 E47.98882
G1 X179.438 Y144.181 E47.99696
G1 X179.672 Y143.961 E48.01192
G1 F891.1 X186.286 Y140.874 E48.35518
G1 F878 X192.9 Y137.787 E48.70355
G1 F882.4 X192.611 Y137.8 E48.71729
G1 F895.5 X191.523 Y137.598 E48.76907
G1 F900 X191.263 Y137.481 E48.78235
G1 X190.39 Y136.802 E48.83385
G1 X190.212 Y136.574 E48.84732
G1 X189.76 Y135.566 E48.89876
G1 X189.709 Y135.283 E48.91215
G1 X189.77 Y134.282 E48.95884
G1 X189.408 Y134.645 E48.98272
G1 X189.163 Y134.794 E48.99607
G1 X186.228 Y135.71 E49.13924
G1 X183.208 Y135.159 E49.28218
G1 X182.993 Y135.079 E49.29286
G1 X180.599 Y133.196 E49.43469
G1 X180.473 Y133.026 E49.44454
G1 X179.252 Y130.303 E49.5835
