;FLAVOR:Marlin
;TIME:7092
;Filament used: 7.29687m
;Layer height: 0.28
;MINX:7.611
;MINY:11.402
;MINZ:0.28
;MAXX:215.095
;MAXY:218.886
;MAXZ:2.52
;TARGET_MACHINE.NAME:Creality Ender-3 S1 Pro
;Generated with Cura_SteamEngine 5.8.0
M82 ;absolute extrusion mode
; Ender 3 S1 Pro Start G-code
; M413 S0 ; Disable power loss recovery
G92 E0 ; Reset Extruder

; Prep surfaces before auto home for better accuracy
M140 S60
M104 S210.0

G28 ; Home all axes
G1 Z10.0 F3000 ; Move Z Axis up little to prevent scratching of Heat Bed
G1 X0 Y0

M190 S60
M109 S210.0

G1 X0.1 Y20 Z0.3 F5000.0 ; Move to start position
G1 X0.1 Y200.0 Z0.3 F1500.0 E15 ; Draw the first line
G1 X0.4 Y200.0 Z0.3 F5000.0 ; Move to side a little
G1 X0.4 Y20 Z0.3 F1500.0 E30 ; Draw the second line
G92 E0 ; Reset Extruder
G1 Z2.0 F3000 ; Move Z Axis up little to prevent scratching of Heat Bed
G1 X5 Y20 Z0.3 F5000.0 ; Move over to prevent blob squish

G92 E0
G92 E0
G1 F2400 E-0.8
;LAYER_COUNT:9
;LAYER:0
M107
M204 S2000
G0 F7500 X21.991 Y15.605 Z0.28
M204 S500
;TYPE:SKIRT
G1 F2400 E0
G1 F1500 X22.553 Y14.898 E0.04205
G1 X23.176 Y14.244 E0.08411
G1 X23.854 Y13.647 E0.12618
G1 X24.582 Y13.113 E0.16822
G1 X25.355 Y12.646 E0.21027
G1 X26.166 Y12.248 E0.25234
G1 X27.009 Y11.924 E0.29439
G1 X27.877 Y11.676 E0.33643
G1 X28.764 Y11.505 E0.37849
G1 X29.662 Y11.414 E0.42052
G1 X30.565 Y11.402 E0.46257
G1 X31.466 Y11.47 E0.50464
G1 X32.357 Y11.618 E0.5467
G1 X33.231 Y11.844 E0.58874
G1 X34.303 Y12.239 E0.64193
G1 X36.372 Y13.136 E0.74694
G1 X38.804 Y14.125 E0.86919
G1 X41.119 Y14.991 E0.98428
G1 X43.537 Y15.819 E1.10329
G1 X45.98 Y16.579 E1.22242
G1 X48.424 Y17.264 E1.34061
G1 X50.861 Y17.874 E1.45759
G1 X53.383 Y18.429 E1.57784
G1 X55.845 Y18.898 E1.69454
G1 X58.388 Y19.308 E1.81448
G1 X60.849 Y19.635 E1.93008
G1 X63.421 Y19.902 E2.05049
G1 X65.928 Y20.091 E2.16756
G1 X68.492 Y20.212 E2.28708
G1 X70.989 Y20.259 E2.40337
G1 X73.557 Y20.234 E2.52295
G1 X76.089 Y20.139 E2.64094
G1 X78.655 Y19.968 E2.76069
G1 X81.147 Y19.732 E2.87724
G1 X83.672 Y19.421 E2.99571
G1 X86.176 Y19.04 E3.11364
G1 X88.266 Y18.669 E3.21248
G1 X89.162 Y18.551 E3.25457
G1 X90.064 Y18.512 E3.29661
G1 X90.966 Y18.553 E3.33865
G1 X91.861 Y18.674 E3.38071
G1 X92.742 Y18.873 E3.42276
G1 X93.602 Y19.15 E3.46483
G1 X94.095 Y19.348 E3.48957
G1 X94.67 Y19.601 E3.51882
G1 X145.988 Y43.533 E6.15547
G1 X146.618 Y43.84 E6.18811
G1 X147.412 Y44.271 E6.23017
G1 X148.164 Y44.771 E6.27222
G1 X148.869 Y45.335 E6.31426
G1 X149.522 Y45.959 E6.35632
G1 X150.116 Y46.639 E6.39836
G1 X150.671 Y47.402 E6.4423
G1 X151.803 Y49.154 E6.53943
G1 X153.223 Y51.245 E6.65712
G1 X154.716 Y53.312 E6.77585
G1 X156.262 Y55.332 E6.8943
G1 X157.849 Y57.288 E7.01158
G1 X159.511 Y59.221 E7.13029
G1 X161.228 Y61.108 E7.24909
G1 X162.98 Y62.927 E7.36668
G1 X164.796 Y64.708 E7.48512
G1 X166.663 Y66.44 E7.60371
G1 X168.577 Y68.114 E7.72211
G1 X170.508 Y69.713 E7.83885
G1 X172.548 Y71.305 E7.95934
G1 X174.551 Y72.779 E8.07514
G1 X176.704 Y74.271 E8.19712
G1 X178.972 Y75.749 E8.32317
G1 X179.711 Y76.267 E8.36519
G1 X180.402 Y76.849 E8.40726
G1 X181.038 Y77.49 E8.44931
G1 X181.616 Y78.184 E8.49136
G1 X182.13 Y78.927 E8.53343
G1 X182.625 Y79.81 E8.58057
G1 X182.918 Y80.407 E8.61153
G1 X206.721 Y131.45 E11.23404
G1 X207.097 Y132.288 E11.27681
G1 X207.429 Y133.128 E11.31887
G1 X207.685 Y133.994 E11.36092
G1 X207.864 Y134.879 E11.40296
G1 X207.964 Y135.777 E11.44503
G1 X207.983 Y136.68 E11.48709
G1 X207.923 Y137.581 E11.52914
G1 X207.83 Y138.228 E11.55957
G1 X207.581 Y139.636 E11.62615
G1 X207.177 Y142.166 E11.74545
G1 X206.844 Y144.711 E11.86497
G1 X206.587 Y147.223 E11.98255
G1 X206.398 Y149.793 E12.10254
G1 X206.285 Y152.274 E12.21819
G1 X206.241 Y154.872 E12.33918
G1 X206.269 Y157.37 E12.4555
G1 X206.371 Y159.936 E12.57508
G1 X206.542 Y162.443 E12.69209
G1 X206.786 Y164.984 E12.81095
G1 X207.099 Y167.488 E12.92846
G1 X207.487 Y170.004 E13.047
G1 X207.946 Y172.512 E13.16572
G1 X208.47 Y174.985 E13.28343
G1 X209.068 Y177.453 E13.40168
G1 X209.744 Y179.935 E13.52146
G1 X210.475 Y182.35 E13.63895
G1 X211.277 Y184.748 E13.75669
G1 X212.148 Y187.13 E13.87479
G1 X213.088 Y189.491 E13.99312
G1 X214.26 Y192.196 E14.13039
G1 X214.582 Y193.04 E14.17245
G1 X214.828 Y193.909 E14.21451
G1 X214.997 Y194.796 E14.25655
G1 X215.086 Y195.695 E14.29862
G1 X215.095 Y196.598 E14.34067
G1 X215.025 Y197.498 E14.3827
G1 X214.875 Y198.389 E14.42478
G1 X214.647 Y199.262 E14.46679
G1 X214.342 Y200.113 E14.50888
G1 X213.964 Y200.933 E14.55093
G1 X213.514 Y201.716 E14.59298
G1 X212.997 Y202.456 E14.63501
G1 X212.417 Y203.148 E14.67706
G1 X211.777 Y203.786 E14.71914
G1 X211.084 Y204.365 E14.76119
G1 X210.342 Y204.88 E14.80324
G1 X209.488 Y205.363 E14.84893
G1 X208.92 Y205.643 E14.87842
G1 X183.076 Y217.693 E16.2062
G1 X182.421 Y217.988 E16.23965
G1 X181.582 Y218.322 E16.2817
G1 X180.716 Y218.581 E16.32379
G1 X179.832 Y218.762 E16.36581
G1 X178.934 Y218.864 E16.40789
G1 X178.031 Y218.886 E16.44995
G1 X177.13 Y218.828 E16.49199
G1 X176.237 Y218.691 E16.53406
G1 X175.36 Y218.475 E16.57612
G1 X174.506 Y218.183 E16.61814
G1 X173.987 Y217.963 E16.64439
G1 X172.528 Y217.295 E16.71911
G1 X170.147 Y216.258 E16.84004
G1 X167.767 Y215.299 E16.95952
G1 X165.415 Y214.43 E17.07628
G1 X163.001 Y213.613 E17.19495
G1 X160.567 Y212.865 E17.31351
G1 X158.118 Y212.189 E17.43181
G1 X155.669 Y211.586 E17.54926
G1 X153.17 Y211.047 E17.6683
G1 X150.582 Y210.562 E17.7909
G1 X149.376 Y210.353 E17.8479
G1 X148.494 Y210.16 E17.88994
G1 X147.632 Y209.889 E17.93201
G1 X146.798 Y209.543 E17.97406
G1 X145.998 Y209.125 E18.01609
G1 X145.237 Y208.637 E18.05818
G1 X144.523 Y208.084 E18.10023
G1 X143.861 Y207.47 E18.14228
G1 X143.255 Y206.8 E18.18434
G1 X142.711 Y206.08 E18.22636
G1 X142.233 Y205.313 E18.26844
G1 X141.934 Y204.741 E18.2985
G1 X140.417 Y201.601 E18.46088
G1 X139.247 Y199.347 E18.57913
G1 X138.007 Y197.112 E18.69815
G1 X136.712 Y194.93 E18.8163
G1 X135.36 Y192.788 E18.93424
G1 X133.939 Y190.676 E19.05278
G1 X132.467 Y188.614 E19.17075
G1 X130.926 Y186.58 E19.28957
G1 X129.35 Y184.616 E19.40683
G1 X127.687 Y182.662 E19.5263
G1 X126.012 Y180.803 E19.64282
G1 X123.541 Y178.235 E19.80876
G1 X48.282 Y102.976 E24.7647
G1 X46.337 Y101.087 E24.89095
G1 X44.476 Y99.377 E25.00863
G1 X42.572 Y97.726 E25.12598
G1 X40.617 Y96.123 E25.2437
G1 X38.563 Y94.535 E25.3646
G1 X36.573 Y93.085 E25.47925
G1 X34.441 Y91.623 E25.59962
G1 X32.306 Y90.243 E25.718
G1 X30.127 Y88.923 E25.83663
G1 X27.939 Y87.679 E25.95382
G1 X25.717 Y86.498 E26.071
G1 X21.721 Y84.548 E26.27804
G1 X20.928 Y84.116 E26.32009
G1 X20.176 Y83.616 E26.36214
G1 X19.471 Y83.052 E26.40418
G1 X18.819 Y82.427 E26.44623
G1 X18.224 Y81.747 E26.48831
G1 X17.692 Y81.017 E26.53037
G1 X17.227 Y80.243 E26.57241
G1 X16.832 Y79.431 E26.61446
G1 X16.511 Y78.587 E26.65651
G1 X16.265 Y77.718 E26.69856
G1 X16.145 Y77.128 E26.7266
G1 X15.666 Y74.37 E26.85694
G1 X15.165 Y71.909 E26.97389
G1 X14.587 Y69.436 E27.09214
G1 X13.934 Y66.957 E27.21151
G1 X13.219 Y64.526 E27.32951
G1 X12.427 Y62.087 E27.44891
G1 X11.581 Y59.715 E27.56618
G1 X10.679 Y57.391 E27.68226
G1 X9.665 Y54.989 E27.80366
G1 X8.529 Y52.496 E27.93123
G1 X8.191 Y51.659 E27.97326
G1 X7.928 Y50.795 E28.01532
G1 X7.743 Y49.911 E28.05737
G1 X7.637 Y49.014 E28.09943
G1 X7.611 Y48.111 E28.1415
G1 X7.665 Y47.21 E28.18353
G1 X7.798 Y46.316 E28.22561
G1 X8.01 Y45.438 E28.26767
G1 X8.446 Y44.222 E28.32782
G1 X8.698 Y43.648 E28.35701
G1 X20.696 Y17.915 E29.67909
G1 X21.064 Y17.153 E29.71849
G1 X21.493 Y16.358 E29.76056
G1 X21.991 Y15.605 E29.8026
M204 S2000
G1 F2400 E29.0026
;MESH:cover.stl
G0 F7500 X29.462 Y21.68
G0 X32.315 Y23.223
M204 S500
;TYPE:WALL-INNER
G1 F2400 E29.8026
G1 F888.9 X30.531 Y22.383 E29.89556
G1 F900 X29.744 Y24.067 E29.98212
G1 X29.848 Y23.963 E29.98896
G1 X30.861 Y23.347 E30.04417
G1 X31.072 Y23.301 E30.05423
G1 F888.9 X32.315 Y23.223 E30.11294
M204 S2000
G0 F7500 X32.366 Y23.247
M204 S500
G1 F886.7 X33.46 Y23.744 E30.16974
M204 S2000
G1 F2400 E29.36974
G0 F7500 X34.313 Y24.975
G0 X34.551 Y26.274
G0 X34.157 Y27.535
G0 X33.478 Y28.202
G0 X33.481 Y28.719
G0 X34.051 Y32.176
G0 X36.425 Y44.739
M204 S500
G1 F2400 E30.16974
G1 F900 X33.489 Y45.656 E30.31296
G1 X33.263 Y45.655 E30.32348
G1 X30.387 Y45.127 E30.45964
G1 X30.157 Y45.032 E30.47123
G1 X27.704 Y43.113 E30.61625
G1 X26.384 Y40.177 E30.76614
G1 X26.569 Y37.107 E30.90936
G1 X26.624 Y36.89 E30.91978
G1 X28.166 Y34.333 E31.05882
G1 X28.369 Y34.13 E31.07219
G1 X30.93 Y32.588 E31.21139
G1 X31.147 Y32.532 E31.22182
G1 X34.063 Y32.357 E31.35785
G1 X34.299 Y32.389 E31.36894
G1 X37.088 Y33.642 E31.51131
G1 X37.241 Y33.785 E31.52106
G1 X39.086 Y36.137 E31.66025
G1 X39.152 Y36.286 E31.66784
G1 X39.698 Y39.278 E31.80946
G1 X39.684 Y39.471 E31.81847
G1 X38.79 Y42.335 E31.95818
G1 X38.706 Y42.494 E31.96655
G1 X36.564 Y44.64 E32.10774
G1 X36.425 Y44.739 E32.11568
M204 S2000
G1 F2400 E31.31568
G0 F7500 X36.682 Y44.667
G0 X33.398 Y45.514
G0 X30.273 Y45.291
G0 X25.093 Y46.224
G0 X24.457 Y48.156
G0 X23.522 Y49.092
G0 X22.26 Y49.484
G0 X20.962 Y49.247
G0 X19.316 Y48.053
G0 X19.63 Y48.369
M204 S500
G1 F2400 E32.11568
G1 F647.5 X19.202 Y47.424 E32.18283
G1 X19.127 Y47.023 E32.20923
G1 X18.7 Y47.936 E32.27447
G1 X19.63 Y48.369 E32.34087
M204 S2000
G1 F2400 E31.54087
G0 F7500 X19.316 Y48.053
G0 X21.237 Y49.401
G0 X35.645 Y56.116
G0 X30.229 Y68.56
G0 X33.135 Y68.737
G0 X43.255 Y74.637
M204 S500
G1 F2400 E32.34087
G1 F900 X40.257 Y75.578 E32.48718
G1 X37.188 Y75.012 E32.6325
G1 X37 Y74.925 E32.64215
G1 X34.553 Y73.009 E32.78686
G1 X33.235 Y70.074 E32.93667
G1 X33.42 Y67.008 E33.0797
G1 X33.476 Y66.79 E33.09018
G1 X35.018 Y64.233 E33.22922
G1 X35.22 Y64.031 E33.24252
G1 X37.845 Y62.438 E33.3855
G1 X40.978 Y62.252 E33.53164
G1 X41.199 Y62.304 E33.54221
G1 X43.93 Y63.537 E33.68174
G1 X44.046 Y63.622 E33.68844
G1 X45.937 Y66.045 E33.83155
G1 X46 Y66.182 E33.83858
G1 X46.539 Y69.123 E33.9778
G1 X46.528 Y69.388 E33.99015
G1 X45.631 Y72.264 E34.13043
G1 X45.555 Y72.398 E34.13761
G1 X43.406 Y74.541 E34.27892
G1 X43.255 Y74.637 E34.28726
M204 S2000
G1 F2400 E33.48726
G0 F7500 X43.525 Y74.677
G0 X48.12 Y82.261
G0 X51.373 Y87.265
M204 S500
G1 F2400 E34.28726
G1 F900 X50.176 Y87.641 E34.34568
G1 X49.887 Y87.658 E34.35916
G1 X48.803 Y87.458 E34.41049
G1 F871.7 X48.561 Y87.37 E34.42287
G1 F925.4 X47.633 Y86.592 E34.4777
G1 F975.6 X47.499 Y86.426 E34.48687
G1 F918.4 X47.04 Y85.422 E34.53724
G1 F900 X46.989 Y85.141 E34.55054
G1 X47.053 Y84.041 E34.60185
G1 X47.138 Y83.766 E34.61525
G1 X47.788 Y82.689 E34.67383
G1 X48.898 Y82.022 E34.73413
G1 X49.057 Y81.966 E34.74198
G1 X50.288 Y81.892 E34.7994
G1 X50.448 Y81.912 E34.80691
G1 X51.583 Y82.425 E34.86491
G1 X51.746 Y82.564 E34.87488
G1 X52.467 Y83.487 E34.92942
G1 X52.539 Y83.642 E34.93738
G1 X52.759 Y84.82 E34.99318
G1 X52.749 Y85.038 E35.00334
G1 X52.386 Y86.189 E35.05954
G1 X52.302 Y86.336 E35.06742
G1 X51.373 Y87.265 E35.1286
M204 S2000
G1 F2400 E34.3286
G0 F7500 X49.852 Y87.816
G0 X48.406 Y87.522
G0 X48.652 Y87.846
G0 X75.718 Y114.867
G0 X77.169 Y115.724
G0 X78.338 Y115.937
G0 X79.699 Y115.852
G0 X79.816 Y115.71
M204 S500
G1 F2400 E35.1286
G1 F900 X78.618 Y116.081 E35.187
G1 X78.333 Y116.099 E35.20029
G1 X77.245 Y115.903 E35.25177
G1 F882.4 X77.003 Y115.811 E35.26407
G1 F937.5 X76.073 Y115.036 E35.31818
G1 F980.9 X75.939 Y114.87 E35.3273
G1 F918.4 X75.48 Y113.866 E35.37767
G1 F900 X75.429 Y113.583 E35.39106
G1 X75.497 Y112.479 E35.44257
G1 X75.582 Y112.204 E35.45597
G1 X76.231 Y111.133 E35.51428
G1 X77.359 Y110.455 E35.57556
G1 X77.503 Y110.409 E35.5826
G1 X78.83 Y110.324 E35.64452
G1 X79.992 Y110.846 E35.70384
G1 X80.16 Y110.971 E35.71359
G1 X80.926 Y111.944 E35.77125
G1 X80.988 Y112.098 E35.77898
G1 X81.2 Y113.27 E35.83444
G1 X81.189 Y113.481 E35.84428
G1 X80.83 Y114.632 E35.90042
G1 X80.747 Y114.779 E35.90828
G1 X79.816 Y115.71 E35.96959
M204 S2000
G1 F2400 E35.16959
G0 F7500 X79.699 Y115.852
G0 X77.22 Y116.062
G0 X76.822 Y115.926
G0 X77.097 Y116.29
G0 X92.921 Y132.088
G0 X93.553 Y132.509
G0 X93.634 Y131.791
G0 X96.106 Y133.729
G0 X99.468 Y134.483
G0 X99.343 Y134.417
M204 S500
G1 F2400 E35.96959
G1 F900 X99.055 Y134.435 E35.98302
G1 X96.179 Y133.906 E36.11919
G1 X95.943 Y133.808 E36.13109
G1 X94.158 Y132.409 E36.23669
G1 F725.8 X93.785 Y132.238 E36.26038
G1 F619.6 X93.504 Y131.997 E36.28542
G1 F728.7 X93.433 Y131.762 E36.29954
G1 F882.4 X92.24 Y129.091 E36.43848
G1 F900 X92.189 Y128.807 E36.45191
G1 X92.374 Y125.738 E36.59508
G1 X94.004 Y123.052 E36.74138
G1 X94.147 Y122.921 E36.75041
G1 X96.696 Y121.38 E36.88911
G1 X96.907 Y121.315 E36.89939
G1 X99.886 Y121.136 E37.03835
G1 X100.114 Y121.176 E37.04913
G1 X102.867 Y122.417 E37.18974
G1 X103.037 Y122.565 E37.20024
G1 X104.879 Y124.92 E37.33946
G1 X104.947 Y125.062 E37.34679
G1 X105.498 Y128.062 E37.48882
G1 X105.489 Y128.209 E37.49568
G1 X104.58 Y131.132 E37.63821
G1 X104.502 Y131.276 E37.64584
G1 X102.341 Y133.437 E37.78814
G1 X102.135 Y133.545 E37.79897
G1 X99.343 Y134.417 E37.93517
M204 S2000
G1 F2400 E37.13517
G0 F7500 X99.468 Y134.483
G0 X96.106 Y133.729
G0 X94.051 Y132.53
G0 X93.304 Y132.205
G0 X93.584 Y132.716
G0 X110.908 Y149.76
M204 S500
G1 F2400 E37.93517
G1 F904.5 X110.516 Y148.902 E37.97888
G1 F900 X110.465 Y148.619 E37.99227
G1 X110.533 Y147.514 E38.04382
G1 X110.618 Y147.241 E38.05713
G1 X111.267 Y146.171 E38.11541
G1 X112.337 Y145.522 E38.17368
G1 X112.556 Y145.442 E38.18454
G1 X113.745 Y145.368 E38.24001
G1 X113.957 Y145.403 E38.25001
G1 X115.022 Y145.879 E38.30433
G1 X115.185 Y145.995 E38.31365
G1 X115.952 Y146.971 E38.37145
G1 X116.017 Y147.111 E38.37864
G1 X116.237 Y148.314 E38.43558
G1 X116.226 Y148.513 E38.44486
G1 X115.843 Y149.755 E38.50538
G1 X114.852 Y150.746 E38.57064
G1 X113.654 Y151.117 E38.62904
G1 X113.369 Y151.135 E38.64234
G1 X112.281 Y150.94 E38.6938
G1 F873.8 X112.037 Y150.849 E38.70629
G1 F932.6 X111.11 Y150.072 E38.76065
G1 F980.9 X110.975 Y149.906 E38.76979
G1 F923.1 X110.908 Y149.76 E38.77708
M204 S2000
G0 F7500 X110.901 Y150.354
M204 S500
G1 F855.1 X111.766 Y151.171 E38.83539
G1 F873.8 X112.02 Y151.438 E38.85307
G1 F900 X138.345 Y177.764 E40.58665
G1 F918.4 X139.122 Y178.551 E40.63711
G1 F980.9 X139.306 Y178.758 E40.64895
G1 F930.2 X140.21 Y179.612 E40.70497
G1 F873.8 X140.459 Y179.879 E40.72248
G1 F900 X143.803 Y183.221 E40.94262
G1 X151.399 Y199.51 E41.77952
G1 X169.997 Y190.847 E42.73486
G1 X170.26 Y190.825 E42.74715
G1 X170.56 Y190.958 E42.76243
G1 X170.713 Y191.151 E42.7739
G1 X176.958 Y204.545 E43.46204
G1 X177.009 Y203.722 E43.50044
G1 X177.094 Y203.449 E43.51375
G1 X177.666 Y202.505 E43.56515
G1 X177.868 Y202.302 E43.57849
G1 X178.813 Y201.73 E43.62992
G1 X179.012 Y201.65 E43.63991
G1 X180.259 Y201.573 E43.69808
G1 X180.403 Y201.601 E43.70492
G1 X181.52 Y202.099 E43.76186
G1 X181.683 Y202.226 E43.77148
G1 X182.484 Y203.245 E43.83184
G1 X182.711 Y204.479 E43.89026
G1 X182.693 Y204.768 E43.90375
G1 X182.361 Y205.824 E43.95529
G1 X182.213 Y206.069 E43.96862
G1 X182.005 Y206.276 E43.98228
G1 X200.503 Y197.65 E44.93268
G1 X199.379 Y197.443 E44.98589
G1 X199.117 Y197.325 E44.99927
G1 X198.245 Y196.641 E45.05088
G1 X198.068 Y196.415 E45.06425
G1 X197.616 Y195.411 E45.11552
G1 X197.565 Y195.129 E45.12886
G1 X197.641 Y193.87 E45.18759
G1 X198.286 Y192.804 E45.24561
G1 X198.421 Y192.65 E45.25514
G1 X199.561 Y191.95 E45.31744
G1 X200.813 Y191.877 E45.37583
G1 X201.094 Y191.928 E45.38913
G1 X202.102 Y192.38 E45.44057
G1 X202.329 Y192.557 E45.45397
G1 X202.812 Y193.175 E45.4905
G1 X180.18 Y144.642 E47.98403
G1 X180.135 Y144.473 E47.99218
G1 X180.15 Y144.254 E48.0024
G1 X180.218 Y144.093 E48.01054
G1 X180.452 Y143.872 E48.02552
G1 F886.7 X193.682 Y137.698 E48.71554
G1 F884.5 X193.391 Y137.712 E48.72935
G1 F897.8 X192.303 Y137.51 E48.781
G1 F900 X192.041 Y137.393 E48.79437
G1 X191.169 Y136.709 E48.84597
G1 X190.99 Y136.479 E48.85954
G1 X190.54 Y135.479 E48.9106
G1 X190.489 Y135.197 E48.92395
G1 X190.546 Y134.199 E48.97049
G1 X190.189 Y134.557 E48.99404
G1 X189.943 Y134.706 E49.00743
G1 X187.008 Y135.622 E49.1506
G1 X183.987 Y135.067 E49.29362
G1 X183.775 Y134.988 E49.30415
G1 X181.379 Y133.108 E49.44597
