;FLAVOR:Marlin
;TIME:1985
;Filament used: 0.798847m
;Layer height: 0.28
;MINX:77.275
;MINY:79.579
;MINZ:0.28
;MAXX:141.976
;MAXY:147.004
;MAXZ:10.64
;TARGET_MACHINE.NAME:Creality Ender-3 S1 Pro
;Generated with Cura_SteamEngine 5.8.0
M82 ;absolute extrusion mode
; Ender 3 S1 Pro Start G-code
; M413 S0 ; Disable power loss recovery
G92 E0 ; Reset Extruder

; Prep surfaces before auto home for better accuracy
M140 S60
M104 S210.0

G28 ; Home all axes
G1 Z10.0 F3000 ; Move Z Axis up little to prevent scratching of Heat Bed
G1 X0 Y0

M190 S60
M109 S210.0

G1 X0.1 Y20 Z0.3 F5000.0 ; Move to start position
G1 X0.1 Y200.0 Z0.3 F1500.0 E15 ; Draw the first line
G1 X0.4 Y200.0 Z0.3 F5000.0 ; Move to side a little
G1 X0.4 Y20 Z0.3 F1500.0 E30 ; Draw the second line
G92 E0 ; Reset Extruder
G1 Z2.0 F3000 ; Move Z Axis up little to prevent scratching of Heat Bed
G1 X5 Y20 Z0.3 F5000.0 ; Move over to prevent blob squish

G92 E0
G92 E0
G1 F2400 E-0.8
;LAYER_COUNT:38
;LAYER:0
M107
M204 S2000
G0 F7200 X89.623 Y83.163 Z0.28
M204 S500
;TYPE:SKIRT
G1 F2400 E0
G1 F1500 X90.334 Y82.486 E0.04571
G1 X91.4 Y81.671 E0.1082
G1 X91.743 Y81.443 E0.12738
G1 X92.547 Y80.958 E0.1711
G1 X93.39 Y80.547 E0.21477
G1 X94.274 Y80.208 E0.25885
G1 X95.58 Y79.864 E0.32174
G1 X95.997 Y79.783 E0.34152
G1 X96.89 Y79.65 E0.38356
G1 X97.864 Y79.591 E0.429
G1 X98.719 Y79.58 E0.46881
G1 X121.296 Y79.579 E1.52009
G1 X122.157 Y79.591 E1.56019
G1 X123.095 Y79.647 E1.60394
G1 X124.018 Y79.785 E1.6474
G1 X124.45 Y79.87 E1.6679
G1 X125.361 Y80.094 E1.71159
G1 X126.25 Y80.397 E1.75532
G1 X127.076 Y80.762 E1.79737
G1 X128.258 Y81.443 E1.86089
G1 X128.604 Y81.674 E1.88026
G1 X129.361 Y82.229 E1.92397
G1 X130.04 Y82.825 E1.96604
G1 X130.717 Y83.536 E2.01175
G1 X131.536 Y84.608 E2.07457
G1 X131.761 Y84.947 E2.09352
G1 X132.245 Y85.751 E2.13721
G1 X132.656 Y86.594 E2.18088
G1 X132.994 Y87.48 E2.22504
G1 X133.34 Y88.802 E2.28867
G1 X133.422 Y89.229 E2.30892
G1 X133.554 Y90.122 E2.35095
G1 X133.606 Y90.904 E2.38744
G1 X133.676 Y93.255 E2.49697
G1 X133.819 Y95.789 E2.61515
G1 X134.035 Y98.342 E2.73445
G1 X134.317 Y100.826 E2.85086
G1 X134.674 Y103.339 E2.96905
G1 X135.102 Y105.841 E3.08725
G1 X135.592 Y108.285 E3.20331
G1 X136.16 Y110.763 E3.32169
G1 X136.801 Y113.223 E3.44006
G1 X137.505 Y115.649 E3.55769
G1 X138.273 Y118.041 E3.67467
G1 X139.124 Y120.452 E3.79373
G1 X140.035 Y122.819 E3.91182
G1 X140.808 Y124.688 E4.006
G1 X141.145 Y125.626 E4.05241
G1 X141.416 Y126.525 E4.09613
G1 X141.606 Y127.223 E4.12982
G1 X141.811 Y128.138 E4.17348
G1 X141.935 Y129.068 E4.21717
G1 X141.976 Y130.006 E4.26089
G1 X141.934 Y130.944 E4.30461
G1 X141.809 Y131.872 E4.34821
G1 X141.622 Y132.715 E4.38842
G1 X141.378 Y133.622 E4.43215
G1 X141.175 Y134.309 E4.46551
G1 X140.869 Y135.197 E4.50925
G1 X140.487 Y136.053 E4.55289
G1 X140.029 Y136.873 E4.59663
G1 X139.496 Y137.654 E4.64066
G1 X138.645 Y138.655 E4.70184
G1 X138.107 Y139.211 E4.73786
G1 X137.435 Y139.871 E4.78172
G1 X136.761 Y140.472 E4.82377
G1 X135.979 Y141.052 E4.86911
G1 X135.178 Y141.541 E4.9128
G1 X134.329 Y141.961 E4.95691
G1 X133.062 Y142.426 E5.01975
G1 X132.065 Y142.717 E5.06812
G1 X131.426 Y142.886 E5.09889
G1 X130.557 Y143.076 E5.14031
G1 X130.05 Y143.165 E5.16428
G1 X127.472 Y143.656 E5.28648
G1 X124.953 Y144.21 E5.40658
G1 X122.548 Y144.809 E5.52199
G1 X120.122 Y145.489 E5.63931
G1 X118.763 Y145.912 E5.70558
G1 X117.133 Y146.398 E5.78479
G1 X116.194 Y146.652 E5.83008
G1 X115.276 Y146.852 E5.87383
G1 X114.345 Y146.969 E5.91752
G1 X113.413 Y147.004 E5.96095
G1 X111 Y146.987 E6.07331
G1 X109.193 Y146.995 E6.15745
G1 X108.01 Y146.984 E6.21254
G1 X106.623 Y146.997 E6.27713
G1 X105.686 Y146.962 E6.32079
G1 X104.752 Y146.846 E6.36462
G1 X103.75 Y146.624 E6.4124
G1 X102.267 Y146.218 E6.484
G1 X100.629 Y145.737 E6.56349
G1 X98.181 Y145.095 E6.68134
G1 X95.729 Y144.525 E6.79856
G1 X93.236 Y144.018 E6.91702
G1 X90.742 Y143.586 E7.03488
G1 X88.966 Y143.321 E7.11849
G1 X87.73 Y143.06 E7.17731
G1 X86.836 Y142.81 E7.22054
G1 X86.114 Y142.588 E7.25571
G1 X85.264 Y142.284 E7.29775
G1 X84.379 Y141.876 E7.34312
G1 X83.566 Y141.409 E7.38678
G1 X82.825 Y140.892 E7.42885
G1 X81.861 Y140.062 E7.48809
G1 X81.109 Y139.326 E7.53708
G1 X80.628 Y138.83 E7.56926
G1 X80.005 Y138.127 E7.613
G1 X79.449 Y137.372 E7.65666
G1 X78.96 Y136.571 E7.70035
G1 X78.559 Y135.762 E7.7424
G1 X78.125 Y134.613 E7.79959
G1 X77.856 Y133.729 E7.84262
G1 X77.657 Y133.013 E7.87722
G1 X77.448 Y132.098 E7.92092
G1 X77.32 Y131.168 E7.96464
G1 X77.275 Y130.23 E8.00836
G1 X77.314 Y129.293 E8.05203
G1 X77.429 Y128.397 E8.0941
G1 X77.656 Y127.379 E8.14266
G1 X77.941 Y126.364 E8.19175
G1 X78.131 Y125.75 E8.22168
G1 X78.534 Y124.668 E8.27545
G1 X78.94 Y123.742 E8.32253
G1 X79.952 Y121.332 E8.44424
G1 X80.864 Y118.977 E8.56183
G1 X81.699 Y116.619 E8.67831
G1 X82.49 Y114.171 E8.7981
G1 X83.19 Y111.781 E8.91407
G1 X83.835 Y109.319 E9.03258
G1 X84.401 Y106.874 E9.14944
G1 X84.91 Y104.359 E9.26892
G1 X85.336 Y101.892 E9.38549
G1 X85.697 Y99.386 E9.50339
G1 X85.985 Y96.885 E9.62062
G1 X86.205 Y94.358 E9.73873
G1 X86.36 Y91.643 E9.86536
G1 X86.398 Y90.76 E9.90651
G1 X86.482 Y89.814 E9.95073
G1 X86.589 Y89.164 E9.98141
G1 X86.67 Y88.75 E10.00105
G1 X86.894 Y87.839 E10.04473
G1 X87.197 Y86.95 E10.08847
G1 X87.562 Y86.124 E10.13052
G1 X88.243 Y84.942 E10.19404
G1 X88.472 Y84.599 E10.21324
G1 X89.027 Y83.842 E10.25695
G1 X89.623 Y83.163 E10.29902
M204 S2000
G0 F7200 X89.924 Y83.427
M204 S500
G1 F1500 X90.577 Y82.804 E10.34104
G1 X91.622 Y82.004 E10.40233
G1 X91.95 Y81.785 E10.42069
G1 X92.723 Y81.317 E10.46277
G1 X93.534 Y80.92 E10.50481
G1 X94.376 Y80.595 E10.54684
G1 X95.657 Y80.257 E10.60853
G1 X96.056 Y80.179 E10.62746
G1 X96.949 Y80.046 E10.6695
G1 X97.869 Y79.991 E10.71242
G1 X98.719 Y79.98 E10.752
G1 X121.291 Y79.979 E11.80305
G1 X122.134 Y79.99 E11.8423
G1 X123.036 Y80.043 E11.88438
G1 X123.959 Y80.181 E11.92783
G1 X124.355 Y80.259 E11.94663
G1 X125.233 Y80.473 E11.98871
G1 X126.088 Y80.763 E12.03075
G1 X126.914 Y81.128 E12.0728
G1 X128.036 Y81.776 E12.13313
G1 X128.368 Y81.997 E12.1517
G1 X129.097 Y82.53 E12.19375
G1 X129.776 Y83.126 E12.23582
G1 X130.399 Y83.779 E12.27784
G1 X131.203 Y84.83 E12.33946
G1 X131.419 Y85.154 E12.35759
G1 X131.886 Y85.927 E12.39965
G1 X132.283 Y86.738 E12.44169
G1 X132.607 Y87.581 E12.48374
G1 X132.947 Y88.878 E12.54618
G1 X133.026 Y89.287 E12.56558
G1 X133.158 Y90.18 E12.60761
G1 X133.206 Y90.916 E12.64195
G1 X133.276 Y93.267 E12.75147
G1 X133.42 Y95.823 E12.87068
G1 X133.637 Y98.376 E12.98999
G1 X133.921 Y100.882 E13.10742
G1 X134.28 Y103.406 E13.22614
G1 X134.71 Y105.92 E13.3449
G1 X135.202 Y108.374 E13.46144
G1 X135.773 Y110.864 E13.58039
G1 X136.417 Y113.334 E13.69925
G1 X137.124 Y115.771 E13.81741
G1 X137.896 Y118.174 E13.93494
G1 X138.751 Y120.596 E14.05453
G1 X139.665 Y122.972 E14.17308
G1 X140.438 Y124.841 E14.26725
G1 X140.762 Y125.741 E14.31179
G1 X141.03 Y126.63 E14.35503
G1 X141.216 Y127.311 E14.3879
G1 X141.415 Y128.191 E14.42991
G1 X141.535 Y129.086 E14.47196
G1 X141.576 Y129.989 E14.51405
G1 X141.537 Y130.891 E14.55609
G1 X141.418 Y131.786 E14.59813
G1 X141.236 Y132.611 E14.63747
G1 X140.994 Y133.509 E14.68078
G1 X140.797 Y134.179 E14.7133
G1 X140.504 Y135.034 E14.75538
G1 X140.137 Y135.859 E14.79743
G1 X139.698 Y136.648 E14.83947
G1 X139.191 Y137.395 E14.88151
G1 X138.34 Y138.396 E14.94269
G1 X137.827 Y138.926 E14.97703
G1 X137.169 Y139.572 E15.01997
G1 X136.495 Y140.173 E15.06202
G1 X135.77 Y140.711 E15.10406
G1 X135 Y141.183 E15.14611
G1 X134.191 Y141.586 E15.1882
G1 X132.95 Y142.042 E15.24976
G1 X131.962 Y142.33 E15.29768
G1 X131.34 Y142.495 E15.32765
G1 X130.488 Y142.682 E15.36826
G1 X129.975 Y142.772 E15.39252
G1 X127.386 Y143.265 E15.51524
G1 X124.867 Y143.819 E15.63534
G1 X122.451 Y144.421 E15.75127
G1 X120.003 Y145.107 E15.86965
G1 X118.649 Y145.529 E15.93569
G1 X117.028 Y146.012 E16.01445
G1 X116.108 Y146.261 E16.05883
G1 X115.226 Y146.455 E16.10089
G1 X114.33 Y146.569 E16.14294
G1 X113.416 Y146.604 E16.18553
G1 X111.001 Y146.587 E16.29799
G1 X109.197 Y146.595 E16.38199
G1 X108.01 Y146.584 E16.43727
G1 X106.637 Y146.597 E16.5012
G1 X105.735 Y146.565 E16.54323
G1 X104.838 Y146.455 E16.58531
G1 X103.856 Y146.238 E16.63214
G1 X102.38 Y145.834 E16.7034
G1 X100.742 Y145.353 E16.78289
G1 X98.272 Y144.705 E16.90179
G1 X95.82 Y144.135 E17.01901
G1 X93.316 Y143.626 E17.138
G1 X90.801 Y143.19 E17.25685
G1 X89.025 Y142.925 E17.34046
G1 X87.838 Y142.675 E17.39695
G1 X86.954 Y142.428 E17.43969
G1 X86.249 Y142.211 E17.47404
G1 X85.399 Y141.907 E17.51607
G1 X84.578 Y141.529 E17.55816
G1 X83.795 Y141.081 E17.60016
G1 X83.054 Y140.564 E17.64224
G1 X82.141 Y139.776 E17.69839
G1 X81.396 Y139.047 E17.74693
G1 X80.927 Y138.564 E17.77828
G1 X80.327 Y137.889 E17.82033
G1 X79.79 Y137.163 E17.86238
G1 X79.318 Y136.393 E17.90443
G1 X78.917 Y135.584 E17.94648
G1 X78.508 Y134.496 E18.0006
G1 X78.241 Y133.622 E18.04315
G1 X78.047 Y132.923 E18.07693
G1 X77.844 Y132.043 E18.11899
G1 X77.72 Y131.148 E18.16106
G1 X77.675 Y130.246 E18.20311
G1 X77.711 Y129.344 E18.24515
G1 X77.826 Y128.448 E18.28721
G1 X78.041 Y127.487 E18.33306
G1 X78.323 Y126.482 E18.38167
G1 X78.506 Y125.89 E18.41052
G1 X78.909 Y124.808 E18.46429
G1 X79.306 Y123.903 E18.5103
G1 X80.321 Y121.487 E18.63233
G1 X81.237 Y119.121 E18.75047
G1 X82.076 Y116.753 E18.86745
G1 X82.871 Y114.294 E18.98778
G1 X83.574 Y111.893 E19.10428
G1 X84.222 Y109.42 E19.22332
G1 X84.791 Y106.964 E19.34071
G1 X85.302 Y104.438 E19.46071
G1 X85.73 Y101.96 E19.57781
G1 X86.093 Y99.443 E19.69622
G1 X86.384 Y96.92 E19.81448
G1 X86.603 Y94.393 E19.93259
G1 X86.76 Y91.66 E20.06006
G1 X86.798 Y90.777 E20.10121
G1 X86.877 Y89.878 E20.14324
G1 X86.981 Y89.241 E20.17329
G1 X87.059 Y88.845 E20.19209
G1 X87.273 Y87.967 E20.23417
G1 X87.563 Y87.112 E20.27621
G1 X87.928 Y86.286 E20.31826
G1 X88.576 Y85.164 E20.37859
G1 X88.795 Y84.835 E20.39699
G1 X89.328 Y84.106 E20.43904
G1 X89.924 Y83.427 E20.48111
M204 S2000
G1 F2400 E19.68111
G0 F7200 X89.297 Y128.085
M204 S500
G1 F2400 E20.48111
G1 F1500 X90.517 Y127.743 E20.54011
G1 X91.737 Y128.085 E20.59911
G1 X92.62 Y129.019 E20.65896
G1 X92.963 Y130.191 E20.71582
G1 X92.622 Y131.411 E20.77481
G1 X91.738 Y132.295 E20.83302
G1 X90.519 Y132.636 E20.89196
G1 X89.348 Y132.293 E20.94878
G1 X88.414 Y131.359 E21.01028
G1 X88.071 Y130.19 E21.06701
G1 X88.414 Y129.019 E21.12383
G1 X89.297 Y128.085 E21.18368
M204 S2000
G0 F7200 X89.512 Y128.44
M204 S500
G1 F1500 X90.517 Y128.158 E21.23228
G1 X91.522 Y128.44 E21.28089
G1 X92.264 Y129.225 E21.33118
G1 X92.547 Y130.194 E21.37819
G1 X92.265 Y131.202 E21.42693
G1 X91.529 Y131.938 E21.4754
G1 X90.522 Y132.22 E21.52409
G1 X89.559 Y131.938 E21.57081
G1 X88.769 Y131.148 E21.62284
G1 X88.488 Y130.189 E21.66937
G1 X88.77 Y129.225 E21.71614
G1 X89.512 Y128.44 E21.76644
M204 S2000
G0 F7200 X89.728 Y128.795
M204 S500
G1 F1500 X90.517 Y128.574 E21.80459
G1 X91.306 Y128.795 E21.84274
G1 X91.907 Y129.43 E21.88345
G1 X92.131 Y130.197 E21.92066
G1 X91.909 Y130.992 E21.9591
G1 X91.319 Y131.582 E21.99795
G1 X90.525 Y131.804 E22.03634
G1 X89.77 Y131.583 E22.07297
G1 X89.124 Y130.937 E22.11551
G1 X88.905 Y130.19 E22.15176
G1 X89.127 Y129.43 E22.18862
G1 X89.728 Y128.795 E22.22934
M204 S2000
G0 F7200 X89.942 Y129.15
M204 S500
G1 F1500 X90.517 Y128.989 E22.25714
G1 X91.092 Y129.15 E22.28494
G1 X91.549 Y129.634 E22.31594
G1 X91.715 Y130.2 E22.34341
G1 X91.552 Y130.783 E22.37159
G1 X91.11 Y131.225 E22.4007
G1 X90.528 Y131.388 E22.42884
G1 X89.981 Y131.228 E22.45538
G1 X89.48 Y130.727 E22.48837
G1 X89.322 Y130.189 E22.51448
G1 X89.485 Y129.634 E22.54142
G1 X89.942 Y129.15 E22.57241
M204 S2000
G0 F7200 X90.157 Y129.505
M204 S500
G1 F1500 X90.517 Y129.404 E22.58982
G1 X90.877 Y129.505 E22.60723
G1 X91.193 Y129.84 E22.62868
G1 X91.299 Y130.203 E22.64629
G1 X91.195 Y130.574 E22.66423
G1 X90.901 Y130.868 E22.68359
G1 X90.529 Y130.972 E22.70157
G1 X90.193 Y130.874 E22.71787
G1 X89.833 Y130.514 E22.74158
G1 X89.738 Y130.191 E22.75726
G1 X89.841 Y129.84 E22.77429
G1 X90.157 Y129.505 E22.79573
M204 S2000
G0 F7200 X90.373 Y129.86
M204 S500
G1 F1500 X90.517 Y129.82 E22.80269
G1 X90.661 Y129.86 E22.80965
G1 X90.836 Y130.045 E22.82151
G1 X90.883 Y130.204 E22.82923
G1 X90.837 Y130.366 E22.83707
G1 X90.693 Y130.51 E22.84655
G1 X90.53 Y130.556 E22.85444
G1 X90.404 Y130.519 E22.86055
G1 X90.189 Y130.304 E22.87471
G1 X90.156 Y130.191 E22.88019
G1 X90.198 Y130.045 E22.88727
G1 X90.373 Y129.86 E22.89913
M204 S2000
G1 F2400 E22.09913
G0 F7200 X104.135 Y133.85
M204 S500
G1 F2400 E22.89913
G1 F1500 X104.463 Y132.727 E22.9536
G1 X105.31 Y131.832 E23.01098
G1 X105.428 Y131.8 E23.01667
G1 X107.556 Y131.8 E23.11576
G1 X107.681 Y131.834 E23.12179
G1 X108.069 Y132.241 E23.14798
G1 X108.179 Y132.3 E23.15379
G1 X108.303 Y132.282 E23.15963
G1 X108.359 Y132.241 E23.16286
G1 X108.747 Y131.832 E23.18911
G1 X108.864 Y131.8 E23.19476
G1 X110.966 Y131.8 E23.29263
G1 X111.083 Y131.832 E23.29828
G1 X111.573 Y132.348 E23.33142
G1 X111.683 Y132.407 E23.33723
G1 X111.807 Y132.389 E23.34306
G1 X111.863 Y132.348 E23.3463
G1 X112.353 Y131.832 E23.37943
G1 X112.47 Y131.8 E23.38508
G1 X114.572 Y131.8 E23.48296
G1 X114.69 Y131.832 E23.48865
G1 X115.537 Y132.727 E23.54603
G1 X115.865 Y133.852 E23.60059
G1 X115.538 Y135.021 E23.65712
G1 X114.692 Y135.867 E23.71283
G1 X113.522 Y136.194 E23.76939
G1 X112.401 Y135.866 E23.82378
G1 X111.885 Y135.351 E23.85773
G1 X111.774 Y135.295 E23.86352
G1 X111.603 Y135.351 E23.8719
G1 X111.086 Y135.866 E23.90588
G1 X109.916 Y136.194 E23.96246
G1 X108.795 Y135.866 E24.01684
G1 X108.382 Y135.454 E24.04401
G1 X108.271 Y135.398 E24.0498
G1 X108.1 Y135.454 E24.05817
G1 X107.685 Y135.867 E24.08544
G1 X106.495 Y136.199 E24.14296
G1 X105.358 Y135.866 E24.19813
G1 X104.463 Y134.971 E24.25707
G1 X104.135 Y133.85 E24.31146
M204 S2000
G0 F7200 X104.552 Y133.85
M204 S500
G1 F1500 X104.819 Y132.933 E24.35593
G1 X105.513 Y132.2 E24.40293
G1 X107.478 Y132.2 E24.49443
G1 X107.78 Y132.517 E24.51482
G1 X107.956 Y132.645 E24.52495
G1 X108.167 Y132.701 E24.53512
G1 X108.384 Y132.678 E24.54528
G1 X108.649 Y132.516 E24.55974
G1 X108.949 Y132.2 E24.58003
G1 X110.881 Y132.2 E24.66999
G1 X111.283 Y132.623 E24.69716
G1 X111.459 Y132.751 E24.7073
G1 X111.67 Y132.808 E24.71747
G1 X111.887 Y132.786 E24.72763
G1 X112.153 Y132.623 E24.74216
G1 X112.555 Y132.2 E24.76933
G1 X114.487 Y132.2 E24.85929
G1 X115.18 Y132.933 E24.90626
G1 X115.449 Y133.855 E24.95098
G1 X115.181 Y134.812 E24.99726
G1 X114.483 Y135.51 E25.04323
G1 X113.525 Y135.778 E25.08955
G1 X112.612 Y135.511 E25.13384
G1 X112.168 Y135.068 E25.16305
G1 X111.988 Y134.945 E25.1732
G1 X111.776 Y134.894 E25.18335
G1 X111.56 Y134.922 E25.19349
G1 X111.321 Y135.068 E25.20653
G1 X110.879 Y135.509 E25.23561
G1 X109.919 Y135.778 E25.28203
G1 X109.006 Y135.511 E25.32632
G1 X108.665 Y135.171 E25.34875
G1 X108.485 Y135.048 E25.3589
G1 X108.273 Y134.997 E25.36905
G1 X108.056 Y135.025 E25.37924
G1 X107.818 Y135.171 E25.39224
G1 X107.478 Y135.51 E25.4146
G1 X106.499 Y135.783 E25.46192
G1 X105.569 Y135.511 E25.50704
G1 X104.818 Y134.76 E25.5565
G1 X104.552 Y133.85 E25.60064
M204 S2000
G0 F7200 X104.969 Y133.849
M204 S500
G1 F1500 X105.177 Y133.137 E25.63518
G1 X105.685 Y132.6 E25.6696
G1 X107.306 Y132.6 E25.74508
G1 X107.49 Y132.793 E25.7575
G1 X107.712 Y132.968 E25.77066
G1 X107.973 Y133.074 E25.78378
G1 X108.254 Y133.102 E25.79693
G1 X108.531 Y133.051 E25.81004
G1 X108.784 Y132.925 E25.82321
G1 X108.939 Y132.791 E25.83275
G1 X109.12 Y132.6 E25.845
G1 X110.709 Y132.6 E25.91899
G1 X110.993 Y132.899 E25.93819
G1 X111.214 Y133.074 E25.95132
G1 X111.475 Y133.18 E25.96444
G1 X111.756 Y133.209 E25.97759
G1 X112.034 Y133.159 E25.99074
G1 X112.286 Y133.033 E26.00386
G1 X112.443 Y132.899 E26.01347
G1 X112.727 Y132.6 E26.03267
G1 X114.315 Y132.6 E26.10662
G1 X114.823 Y133.137 E26.14104
G1 X115.033 Y133.857 E26.17596
G1 X114.824 Y134.603 E26.21204
G1 X114.273 Y135.154 E26.24832
G1 X113.528 Y135.362 E26.28434
G1 X112.821 Y135.156 E26.31863
G1 X112.45 Y134.785 E26.34306
G1 X112.225 Y134.616 E26.35616
G1 X111.961 Y134.517 E26.36929
G1 X111.679 Y134.495 E26.38246
