;FLAVOR:Marlin
;TIME:4104
;Filament used: 2.56776m
;Layer height: 0.28
;MINX:67.55
;MINY:62.251
;MINZ:0.28
;MAXX:152.45
;MAXY:157.749
;MAXZ:3.92
;TARGET_MACHINE.NAME:Creality Ender-3 S1 Pro
;Generated with Cura_SteamEngine 5.8.0
M82 ;absolute extrusion mode
; Ender 3 S1 Pro Start G-code
; M413 S0 ; Disable power loss recovery
G92 E0 ; Reset Extruder

; Prep surfaces before auto home for better accuracy
M140 S60
M104 S200

G28 ; Home all axes
G1 Z10.0 F3000 ; Move Z Axis up little to prevent scratching of Heat Bed
G1 X0 Y0

M190 S60
M109 S200

G1 X0.1 Y20 Z0.3 F5000.0 ; Move to start position
G1 X0.1 Y200.0 Z0.3 F1500.0 E15 ; Draw the first line
G1 X0.4 Y200.0 Z0.3 F5000.0 ; Move to side a little
G1 X0.4 Y20 Z0.3 F1500.0 E30 ; Draw the second line
G92 E0 ; Reset Extruder
G1 Z2.0 F3000 ; Move Z Axis up little to prevent scratching of Heat Bed
G1 X5 Y20 Z0.3 F5000.0 ; Move over to prevent blob squish

G92 E0
G92 E0
G1 F2400 E-0.8
;LAYER_COUNT:14
;LAYER:0
M107
M204 S2000
G0 F7200 X70.281 Y66.016 Z0.28
M204 S500
;TYPE:SKIRT
G1 F2400 E0
G1 F1500 X71.006 Y65.264 E0.04864
G1 X71.742 Y64.627 E0.09396
G1 X72.474 Y64.097 E0.13605
G1 X73.371 Y63.562 E0.18468
G1 X74.249 Y63.141 E0.23002
G1 X75.162 Y62.799 E0.27542
G1 X76.099 Y62.54 E0.32068
G1 X77.066 Y62.362 E0.36647
G1 X78.205 Y62.266 E0.41969
G1 X78.862 Y62.251 E0.45029
G1 X140.754 Y62.251 E3.33224
G1 X141.634 Y62.264 E3.37322
G1 X142.606 Y62.323 E3.41857
G1 X143.569 Y62.469 E3.46392
G1 X144.516 Y62.7 E3.50931
G1 X145.404 Y63 E3.55296
G1 X146.296 Y63.39 E3.59829
G1 X147.179 Y63.877 E3.64524
G1 X147.93 Y64.379 E3.68731
G1 X148.745 Y65.037 E3.73608
G1 X149.443 Y65.715 E3.78139
G1 X150.079 Y66.452 E3.82672
G1 X150.649 Y67.242 E3.87208
G1 X151.111 Y68.018 E3.91413
G1 X151.565 Y68.96 E3.96283
G1 X151.894 Y69.838 E4.00649
G1 X152.163 Y70.81 E4.05345
G1 X152.34 Y71.776 E4.09918
G1 X152.435 Y72.906 E4.15198
G1 X152.45 Y73.581 E4.18342
G1 X152.449 Y146.149 E7.56249
G1 X152.438 Y146.912 E7.59802
G1 X152.381 Y147.885 E7.64341
G1 X152.236 Y148.848 E7.68875
G1 X152.007 Y149.794 E7.73407
G1 X151.696 Y150.718 E7.77947
G1 X151.304 Y151.609 E7.8248
G1 X150.836 Y152.461 E7.87006
G1 X150.314 Y153.242 E7.9138
G1 X149.681 Y154.027 E7.96076
G1 X149.056 Y154.678 E8.00278
G1 X148.267 Y155.366 E8.05153
G1 X147.507 Y155.916 E8.09521
G1 X146.64 Y156.433 E8.14221
G1 X145.762 Y156.855 E8.18758
G1 X144.851 Y157.197 E8.23289
G1 X143.912 Y157.458 E8.27827
G1 X142.946 Y157.636 E8.32401
G1 X141.795 Y157.734 E8.3778
G1 X141.12 Y157.749 E8.40923
G1 X79.114 Y157.748 E11.29649
G1 X78.381 Y157.737 E11.33063
G1 X77.409 Y157.68 E11.37597
G1 X76.446 Y157.534 E11.42132
G1 X75.5 Y157.305 E11.46664
G1 X74.576 Y156.993 E11.51205
G1 X73.686 Y156.601 E11.55734
G1 X72.863 Y156.15 E11.60104
G1 X72.024 Y155.589 E11.64803
G1 X71.32 Y155.023 E11.6901
G1 X70.567 Y154.298 E11.73877
G1 X69.93 Y153.562 E11.78409
G1 X69.4 Y152.831 E11.82614
G1 X68.864 Y151.934 E11.87479
G1 X68.442 Y151.056 E11.92015
G1 X68.1 Y150.144 E11.96551
G1 X67.84 Y149.206 E12.01083
G1 X67.662 Y148.237 E12.05671
G1 X67.564 Y147.058 E12.1118
G1 X67.55 Y146.407 E12.14212
G1 X67.551 Y73.776 E15.52412
G1 X67.562 Y73.076 E15.55672
G1 X67.62 Y72.103 E15.60211
G1 X67.766 Y71.14 E15.64746
G1 X67.996 Y70.194 E15.69279
G1 X68.309 Y69.271 E15.73818
G1 X68.701 Y68.381 E15.78346
G1 X69.171 Y67.528 E15.82881
G1 X69.714 Y66.72 E15.87414
G1 X70.281 Y66.016 E15.91623
M204 S2000
G0 F7200 X70.593 Y66.267
M204 S500
G1 F1500 X71.268 Y65.566 E15.96155
G1 X71.977 Y64.951 E16.00525
G1 X72.709 Y64.421 E16.04733
G1 X73.545 Y63.922 E16.09266
G1 X74.39 Y63.515 E16.13634
G1 X75.269 Y63.184 E16.18007
G1 X76.172 Y62.933 E16.22372
G1 X77.1 Y62.761 E16.26766
G1 X78.239 Y62.665 E16.32089
G1 X78.871 Y62.651 E16.35032
G1 X140.748 Y62.651 E19.23158
G1 X141.61 Y62.663 E19.27172
G1 X142.547 Y62.719 E19.31543
G1 X143.475 Y62.858 E19.35912
G1 X144.388 Y63.079 E19.40286
G1 X145.244 Y63.367 E19.44492
G1 X146.136 Y63.757 E19.49025
G1 X146.957 Y64.21 E19.53391
G1 X147.708 Y64.712 E19.57597
G1 X148.467 Y65.324 E19.62137
G1 X149.141 Y65.977 E19.66507
G1 X149.755 Y66.686 E19.70874
G1 X150.305 Y67.447 E19.75246
G1 X150.767 Y68.223 E19.79452
G1 X151.19 Y69.1 E19.83986
G1 X151.519 Y69.978 E19.88352
G1 X151.77 Y70.883 E19.92725
G1 X151.941 Y71.81 E19.97114
G1 X152.036 Y72.94 E20.02394
G1 X152.05 Y73.581 E20.0538
G1 X152.049 Y146.144 E23.43264
G1 X152.039 Y146.889 E23.46733
G1 X151.985 Y147.826 E23.51103
G1 X151.847 Y148.755 E23.55476
G1 X151.628 Y149.667 E23.59844
G1 X151.33 Y150.557 E23.64214
G1 X150.953 Y151.417 E23.68587
G1 X150.503 Y152.239 E23.7295
G1 X149.981 Y153.02 E23.77324
G1 X149.392 Y153.75 E23.81692
G1 X148.767 Y154.401 E23.85894
G1 X148.032 Y155.042 E23.90435
G1 X147.272 Y155.592 E23.94804
G1 X146.466 Y156.073 E23.99174
G1 X145.621 Y156.481 E24.03544
G1 X144.743 Y156.812 E24.07913
G1 X143.839 Y157.065 E24.12284
G1 X142.912 Y157.237 E24.16674
G1 X141.761 Y157.335 E24.22053
G1 X141.12 Y157.349 E24.25039
G1 X79.12 Y157.348 E27.13737
G1 X78.404 Y157.338 E27.17071
G1 X77.468 Y157.284 E27.21437
G1 X76.539 Y157.145 E27.25811
G1 X75.627 Y156.926 E27.30178
G1 X74.737 Y156.627 E27.3455
G1 X73.878 Y156.25 E27.38918
G1 X73.055 Y155.799 E27.43288
G1 X72.275 Y155.277 E27.47658
G1 X71.571 Y154.711 E27.51864
G1 X70.869 Y154.036 E27.56399
G1 X70.254 Y153.327 E27.60769
G1 X69.724 Y152.596 E27.64974
G1 X69.224 Y151.76 E27.6951
G1 X68.816 Y150.915 E27.73879
G1 X68.485 Y150.037 E27.78248
G1 X68.233 Y149.133 E27.82618
G1 X68.061 Y148.204 E27.87017
G1 X67.963 Y147.025 E27.92526
G1 X67.95 Y146.407 E27.95405
G1 X67.951 Y73.782 E31.33577
G1 X67.961 Y73.099 E31.36758
G1 X68.016 Y72.162 E31.41128
G1 X68.155 Y71.234 E31.45498
G1 X68.375 Y70.322 E31.49866
G1 X68.675 Y69.432 E31.54239
G1 X69.052 Y68.573 E31.58608
G1 X69.503 Y67.751 E31.62973
G1 X70.026 Y66.971 E31.67346
G1 X70.593 Y66.267 E31.71555
M204 S2000
G0 F7200 X70.905 Y66.518
M204 S500
G1 F1500 X71.531 Y65.868 E31.75757
G1 X72.212 Y65.275 E31.79962
G1 X72.944 Y64.745 E31.8417
G1 X73.719 Y64.282 E31.88374
G1 X74.532 Y63.889 E31.92579
G1 X75.377 Y63.569 E31.96786
G1 X76.246 Y63.326 E32.00988
G1 X77.134 Y63.16 E32.05194
G1 X78.273 Y63.064 E32.10517
G1 X78.88 Y63.051 E32.13344
G1 X140.743 Y63.051 E35.01404
G1 X141.587 Y63.062 E35.05334
G1 X142.489 Y63.115 E35.09542
G1 X143.382 Y63.247 E35.13745
G1 X144.26 Y63.458 E35.1795
G1 X145.116 Y63.746 E35.22155
G1 X145.943 Y64.108 E35.26359
G1 X146.735 Y64.543 E35.30566
G1 X147.486 Y65.045 E35.34773
G1 X148.189 Y65.612 E35.38978
G1 X148.839 Y66.239 E35.43183
G1 X149.431 Y66.921 E35.47389
G1 X149.961 Y67.652 E35.51593
G1 X150.423 Y68.428 E35.55798
G1 X150.816 Y69.241 E35.60003
G1 X151.134 Y70.086 E35.64207
G1 X151.377 Y70.956 E35.68413
G1 X151.542 Y71.844 E35.72619
G1 X151.637 Y72.974 E35.77899
G1 X151.65 Y73.581 E35.80726
G1 X151.649 Y146.139 E39.18587
G1 X151.64 Y146.866 E39.21972
G1 X151.589 Y147.768 E39.26179
G1 X151.458 Y148.662 E39.30386
G1 X151.249 Y149.54 E39.34589
G1 X150.963 Y150.397 E39.38796
G1 X150.602 Y151.225 E39.43002
G1 X150.17 Y152.017 E39.47203
G1 X149.669 Y152.769 E39.5141
G1 X149.103 Y153.473 E39.55616
G1 X148.478 Y154.124 E39.59819
G1 X147.797 Y154.718 E39.64026
G1 X147.066 Y155.249 E39.68234
G1 X146.292 Y155.713 E39.72436
G1 X145.479 Y156.107 E39.76642
G1 X144.635 Y156.427 E39.80845
G1 X143.765 Y156.672 E39.85054
G1 X142.878 Y156.838 E39.89256
G1 X141.727 Y156.936 E39.94635
G1 X141.12 Y156.949 E39.97462
G1 X79.125 Y156.948 E42.86137
G1 X78.427 Y156.939 E42.89387
G1 X77.526 Y156.888 E42.93589
G1 X76.632 Y156.756 E42.97797
G1 X75.754 Y156.547 E43.02
G1 X74.897 Y156.26 E43.06208
G1 X74.07 Y155.899 E43.1041
G1 X73.277 Y155.466 E43.14617
G1 X72.526 Y154.965 E43.18821
G1 X71.822 Y154.399 E43.23027
G1 X71.171 Y153.773 E43.27232
G1 X70.578 Y153.092 E43.31437
G1 X70.048 Y152.361 E43.35642
G1 X69.584 Y151.586 E43.39848
G1 X69.19 Y150.773 E43.44054
G1 X68.87 Y149.929 E43.48257
G1 X68.626 Y149.059 E43.52465
G1 X68.46 Y148.171 E43.56671
G1 X68.363 Y147.016 E43.62068
G1 X68.35 Y146.407 E43.64905
G1 X68.351 Y73.787 E47.03054
G1 X68.36 Y73.122 E47.06151
G1 X68.412 Y72.22 E47.10358
G1 X68.544 Y71.327 E47.14561
G1 X68.754 Y70.449 E47.18765
G1 X69.041 Y69.592 E47.22973
G1 X69.403 Y68.765 E47.27177
G1 X69.836 Y67.973 E47.3138
G1 X70.338 Y67.222 E47.35586
G1 X70.905 Y66.518 E47.39795
M204 S2000
G1 F2400 E46.59795
;MESH:lid.stl
G0 F7200 X77.885 Y73.665
G0 X95.722 Y80.007
M204 S500
;TYPE:WALL-INNER
G1 F2400 E47.39795
G1 F420 X95.499 Y79.982 E47.4084
G1 X94.391 Y79.561 E47.46359
G1 X94.231 Y79.452 E47.47261
G1 X93.422 Y78.535 E47.52955
G1 X93.344 Y78.393 E47.53709
G1 X93.025 Y77.116 E47.59838
G1 X93.329 Y75.895 E47.65697
G1 X93.463 Y75.641 E47.67035
G1 X94.195 Y74.817 E47.72167
G1 X94.431 Y74.654 E47.73502
G1 F422.1 X95.463 Y74.264 E47.78614
G1 F428.6 X95.676 Y74.23 E47.79598
G1 F398.1 X96.847 Y74.332 E47.85373
G1 F392.5 X97.113 Y74.461 E47.86845
G1 F420 X98.025 Y75.089 E47.92002
G1 X98.216 Y75.306 E47.93348
G1 X98.796 Y76.417 E47.99183
G1 X98.79 Y77.758 E48.05428
G1 X98.752 Y77.895 E48.0609
G1 X98.193 Y78.967 E48.11719
G1 X98.07 Y79.109 E48.12594
G1 X97.071 Y79.797 E48.18242
G1 X96.919 Y79.863 E48.19014
G1 X95.722 Y80.007 E48.24628
M204 S2000
G1 F2400 E47.44628
G0 F7200 X97.134 Y79.947
G0 X98.87 Y78.024
G0 X98.869 Y76.209
G0 X97.206 Y74.331
G0 X96.835 Y74.098
G0 X97.301 Y74.01
G0 X123.525 Y73.988
G0 X124.914 Y74.085
G0 X123.676 Y74.075
G0 X121.345 Y75.53
G0 X120.877 Y77.195
G0 X122.015 Y79.219
G0 X123.6 Y80.021
M204 S500
G1 F2400 E48.24628
G1 F420 X122.384 Y79.558 E48.30687
G1 X122.22 Y79.442 E48.31622
G1 X121.364 Y78.474 E48.37639
G1 X121.025 Y77.116 E48.44156
G1 X121.329 Y75.895 E48.50016
G1 X121.463 Y75.641 E48.51353
G1 X122.195 Y74.817 E48.56485
G1 X122.431 Y74.654 E48.5782
G1 F422.1 X123.463 Y74.264 E48.62932
G1 F428.6 X123.676 Y74.23 E48.63916
G1 F398.1 X124.847 Y74.332 E48.69691
G1 F392.5 X125.113 Y74.461 E48.71163
G1 F420 X126.025 Y75.089 E48.7632
G1 X126.216 Y75.306 E48.77666
G1 X126.796 Y76.416 E48.83497
G1 X126.796 Y77.668 E48.89327
G1 X126.762 Y77.87 E48.90281
G1 X126.19 Y78.972 E48.96062
G1 X126.08 Y79.105 E48.96866
G1 X124.989 Y79.854 E49.03028
G1 X123.6 Y80.021 E49.09543
M204 S2000
G1 F2400 E48.29543
G0 F7200 X124.909 Y80.065
G0 X136.473 Y137.955
G0 X136.438 Y143.861
M204 S500
G1 F2400 E49.09543
G1 F420 X135.406 Y143.469 E49.14683
G1 X135.172 Y143.308 E49.16006
G1 X134.336 Y142.372 E49.21849
G1 X134.022 Y141.067 E49.28099
G1 X134.037 Y140.864 E49.29047
G1 X134.315 Y139.743 E49.34425
G1 X134.419 Y139.556 E49.35422
G1 X135.269 Y138.598 E49.41385
G1 X136.515 Y138.131 E49.47581
G1 X136.726 Y138.12 E49.48565
G1 X137.969 Y138.274 E49.54397
G1 X138.998 Y138.986 E49.60224
G1 X139.188 Y139.2 E49.61556
G1 X139.703 Y140.18 E49.66711
G1 X139.772 Y140.46 E49.68054
G1 X139.772 Y141.641 E49.73553
G1 X139.703 Y141.84 E49.74534
G1 X139.188 Y142.82 E49.79689
G1 X138.998 Y143.034 E49.81022
G1 X138.09 Y143.662 E49.86163
G1 X137.852 Y143.76 E49.87361
G1 X136.652 Y143.9 E49.92987
G1 X136.438 Y143.861 E49.94
M204 S2000
G1 F2400 E49.14
G0 F7200 X136.133 Y143.697
G0 X134.302 Y142.605
G0 X134.3 Y145.967
G0 X110 Y146.148
M204 S500
G1 F2400 E49.94
G1 F420 X140.848 Y146.148 E51.37641
G1 X140.848 Y73.848 E54.743
G1 X125.303 Y73.849 E55.46684
G1 F392.5 X124.874 Y73.876 E55.48826
G1 F398.1 X123.676 Y73.842 E55.54713
G1 F429.7 X110.489 Y73.845 E56.14736
G1 F423.2 X97.302 Y73.849 E56.75679
G1 F392.5 X96.874 Y73.876 E56.77816
G1 F398.1 X95.676 Y73.842 E56.83704
G1 F426.4 X79.148 Y73.848 E57.5951
G1 F420 X79.149 Y146.147 E60.96165
G1 X110 Y146.148 E62.3982
M204 S2000
G1 F2400 E61.5982
G0 F7200 X109.999 Y146.047
G0 X83.85 Y145.967
G0 X83.621 Y143.987
G0 X83.852 Y143.76
M204 S500
G1 F2400 E62.3982
G1 F420 X82.652 Y143.9 E62.45446
G1 X82.438 Y143.861 E62.46459
G1 X81.338 Y143.443 E62.51938
G1 X81.172 Y143.308 E62.52934
G1 X80.436 Y142.484 E62.58079
G1 X80.301 Y142.227 E62.59431
G1 X80.029 Y141.112 E62.64775
G1 X80.037 Y140.864 E62.6593
G1 X80.301 Y139.792 E62.71071
G1 X80.435 Y139.537 E62.72412
G1 X81.171 Y138.709 E62.77571
G1 X81.406 Y138.547 E62.789
G1 X82.578 Y138.102 E62.84737
G1 X83.897 Y138.27 E62.90929
G1 X84.038 Y138.322 E62.91629
G1 X85.023 Y139.004 E62.97207
G1 X85.156 Y139.146 E62.98113
G1 X85.723 Y140.22 E63.03768
G1 X85.768 Y140.386 E63.04569
G1 X85.767 Y141.645 E63.10432
G1 X85.703 Y141.84 E63.11387
G1 X85.119 Y142.95 E63.17228
G1 X84.09 Y143.662 E63.23054
G1 X83.852 Y143.76 E63.24253
M204 S2000
G0 F7200 X83.821 Y143.362
M204 S500
;TYPE:WALL-OUTER
G1 F420 X82.623 Y143.503 E63.2987
G1 X81.498 Y143.074 E63.35476
G1 X80.701 Y142.181 E63.4105
G1 X80.413 Y141.008 E63.46674
G1 X80.701 Y139.84 E63.52275
G1 X81.503 Y138.938 E63.57896
G1 X82.619 Y138.514 E63.63455
G1 X83.821 Y138.659 E63.69092
G1 X84.806 Y139.341 E63.74671
G1 X85.371 Y140.412 E63.80309
G1 X85.371 Y141.613 E63.85902
G1 X84.802 Y142.683 E63.91545
G1 X83.821 Y143.362 E63.971
M204 S2000
G1 F2400 E63.171
G0 F7200 X83.991 Y143.61
G0 X85.099 Y143.183
G0 X85.097 Y145.967
G0 X110 Y146.548
M204 S500
G1 F2400 E63.971
G1 F420 X141.248 Y146.548 E65.42604
G1 X141.248 Y73.448 E68.82988
G1 X78.748 Y73.448 E71.74014
G1 X78.749 Y146.547 E75.14394
G1 X110 Y146.548 E76.59912
M204 S2000
G1 F2400 E75.79912
G0 F7200 X109.999 Y146.047
G0 X136.514 Y145.967
G0 X136.652 Y144.081
G0 X136.623 Y143.503
M204 S500
G1 F2400 E76.59912
G1 F420 X135.502 Y143.077 E76.65496
G1 X134.701 Y142.181 E76.71092
G1 X134.414 Y141.004 E76.76733
G1 X134.7 Y139.846 E76.82287
G1 X135.501 Y138.941 E76.87915
G1 X136.632 Y138.511 E76.93549
G1 X137.83 Y138.665 E76.99173
G1 X138.812 Y139.344 E77.04733
G1 X139.372 Y140.41 E77.1034
G1 X139.37 Y141.614 E77.15946
G1 X138.812 Y142.676 E77.21532
G1 X137.821 Y143.362 E77.27144
G1 X136.623 Y143.503 E77.32761
M204 S2000
G1 F2400 E76.52761
G0 F7200 X136.516 Y143.785
G0 X135.363 Y143.282
G0 X134.486 Y142.294
G0 X134.169 Y141.011
G0 X134.486 Y139.73
G0 X135.275 Y138.839
G0 X136.473 Y137.955
G0 X124.909 Y80.065
G0 X123.657 Y79.612
M204 S500
G1 F2400 E77.32761
G1 F420 X122.521 Y79.18 E77.3842
G1 X121.727 Y78.276 E77.44023
G1 X121.437 Y77.116 E77.49591
G1 X121.729 Y75.945 E77.5521
G1 X122.528 Y75.045 E77.60814
G1 X123.66 Y74.62 E77.66445
G1 X124.845 Y74.763 E77.72002
G1 X125.839 Y75.447 E77.77621
G1 X126.392 Y76.505 E77.8318
G1 X126.393 Y77.721 E77.88842
G1 X125.844 Y78.775 E77.94376
G1 X124.844 Y79.47 E78.00046
G1 X123.657 Y79.612 E78.05613
M204 S2000
G1 F2400 E77.25613
G0 F7200 X123.693 Y79.911
G0 X122.106 Y79.555
G0 X120.877 Y77.195
G0 X122.071 Y74.713
G0 X123.676 Y74.075
G0 X124.914 Y74.085
G0 X123.387 Y74.006
G0 X97.301 Y74.01
G0 X96.835 Y74.098
G0 X97.206 Y74.331
G0 X98.957 Y76.447
G0 X98.325 Y79.066
G0 X97.71 Y79.535
G0 X95.545 Y79.892
G0 X95.651 Y79.613
M204 S500
G1 F2400 E78.05613
G1 F420 X94.527 Y79.186 E78.11212
G1 X93.728 Y78.282 E78.1683
G1 X93.437 Y77.116 E78.22425
G1 X93.729 Y75.945 E78.28045
G1 X94.528 Y75.045 E78.33649
G1 X95.66 Y74.62 E78.39279
G1 X96.845 Y74.763 E78.44837
G1 X97.839 Y75.447 E78.50456
G1 X98.392 Y76.505 E78.56015
G1 X98.394 Y77.721 E78.61677
G1 X97.841 Y78.78 E78.6724
G1 X96.84 Y79.469 E78.72898
G1 X95.651 Y79.613 E78.78475
M204 S2000
G1 F2400 E77.98475
G0 F7200 X95.545 Y79.892
G0 X96.898 Y80.067
G0 X135.055 Y138.568
G0 X136.338 Y144.206
M204 S500
;TYPE:SKIN
G1 F2400 E78.78475
G1 F900 X136.652 Y144.256 E78.79956
G1 X137.928 Y144.112 E78.85935
G1 X138.256 Y143.978 E78.87585
G1 X139.219 Y143.318 E78.93021
G1 X139.505 Y142.982 E78.95076
G1 X140.017 Y142.01 E79.00191
G1 F923.1 X140.12 Y141.693 E79.01704
G1 F942.4 X140.118 Y140.417 E79.07379
G1 F918.4 X140.017 Y140.006 E79.0931
G1 F900 X139.479 Y138.995 E79.14643
G1 X139.199 Y138.687 E79.16581
G1 X138.295 Y138.059 E79.21706
G1 X138.017 Y137.913 E79.23169
G1 X136.773 Y137.761 E79.29004
G1 X136.433 Y137.776 E79.30589
G1 X135.182 Y138.248 E79.36815
G1 X134.928 Y138.44 E79.38298
G1 X134.1 Y139.38 E79.44131
G1 X133.975 Y139.622 E79.45399
G1 X133.686 Y140.771 E79.50916
G1 X133.664 Y141.137 E79.52623
G1 X133.986 Y142.463 E79.58977
G1 X134.166 Y142.722 E79.60446
G1 X134.898 Y143.542 E79.65564
G1 X135.242 Y143.785 E79.67525
G1 X136.338 Y144.206 E79.72992
M204 S2000
G1 F2400 E78.92992
G0 F7200 X136.393 Y143.952
