;FLAVOR:Marlin
;TIME:17545
;Filament used: 8.49867m
;Layer height: 0.28
;MINX:14.135
;MINY:20.513
;MINZ:0.336
;MAXX:198.221
;MAXY:204.551
;MAXZ:4.966
;TARGET_MACHINE.NAME:Creality Ender-3 S1 Pro
;Generated with Cura_SteamEngine 5.8.0
M82 ;absolute extrusion mode
; Ender 3 S1 Pro Start G-code
; M413 S0 ; Disable power loss recovery
G92 E0 ; Reset Extruder

; Prep surfaces before auto home for better accuracy
M140 S60
M104 S200

G28 ; Home all axes
G1 Z10.0 F3000 ; Move Z Axis up little to prevent scratching of Heat Bed
G1 X0 Y0

M190 S60
M109 S200

G1 X0.1 Y20 Z0.3 F5000.0 ; Move to start position
G1 X0.1 Y200.0 Z0.3 F1500.0 E15 ; Draw the first line
G1 X0.4 Y200.0 Z0.3 F5000.0 ; Move to side a little
G1 X0.4 Y20 Z0.3 F1500.0 E30 ; Draw the second line
G92 E0 ; Reset Extruder
G1 Z2.0 F3000 ; Move Z Axis up little to prevent scratching of Heat Bed
G1 X5 Y20 Z0.3 F5000.0 ; Move over to prevent blob squish

G92 E0
G92 E0
G1 F2400 E-0.8
;LAYER_COUNT:15
;LAYER:-3
M107
M204 S2000
G0 F7200 X22.139 Y24.402 Z0.336
M204 S500
;TYPE:SUPPORT-INTERFACE
G1 F2400 E0
G1 F675 X93.394 Y95.657 E11.26143
M204 S2000
G1 F2400 E10.46143
G0 F7200 X92.263 Y96.788
M204 S500
G1 F2400 E11.26143
G1 F675 X21.375 Y25.901 E22.46478
M204 S2000
G1 F2400 E21.66478
G0 F7200 X20.656 Y27.444
M204 S500
G1 F2400 E22.46478
G1 F675 X91.131 Y97.919 E33.60294
M204 S2000
G1 F2400 E32.80294
G0 F7200 X90 Y99.051
M204 S500
G1 F2400 E33.60294
G1 F675 X19.936 Y28.987 E44.67614
M204 S2000
G1 F2400 E43.87614
G0 F7200 X19.217 Y30.531
M204 S500
G1 F2400 E44.67614
G1 F675 X88.868 Y100.182 E55.68407
M204 S2000
G1 F2400 E54.88407
G0 F7200 X87.737 Y101.314
M204 S500
G1 F2400 E55.68407
G1 F675 X18.497 Y32.074 E66.62705
M204 S2000
G1 F2400 E65.82705
G0 F7200 X17.777 Y33.617
M204 S500
G1 F2400 E66.62705
G1 F675 X86.606 Y102.445 E77.50498
M204 S2000
G1 F2400 E76.70498
G0 F7200 X85.474 Y103.576
M204 S500
G1 F2400 E77.50498
G1 F675 X17.058 Y35.16 E88.31773
M204 S2000
G1 F2400 E87.51773
G0 F7200 X16.338 Y36.703
M204 S500
G1 F2400 E88.31773
G1 F675 X84.343 Y104.708 E99.06552
M204 S2000
G1 F2400 E98.26552
G0 F7200 X83.212 Y105.839
M204 S500
G1 F2400 E99.06552
G1 F675 X15.619 Y38.247 E109.74811
M204 S2000
G1 F2400 E108.94811
G0 F7200 X14.916 Y39.807
M204 S500
G1 F2400 E109.74811
G1 F675 X82.08 Y106.97 E120.36291
M204 S2000
G1 F2400 E119.56291
G0 F7200 X80.949 Y108.102
M204 S500
G1 F2400 E120.36291
G1 F675 X27.451 Y54.604 E128.81795
M204 S2000
G1 F2400 E128.01795
G0 F7200 X27.694 Y57.109
M204 S500
G1 F2400 E128.81795
G1 F675 X79.75 Y109.165 E137.0451
M204 S2000
G1 F2400 E136.2451
G0 F7200 X80.22 Y109.663
G0 X87.833 Y117.25
G0 X88.303 Y117.719
M204 S500
G1 F2400 E137.0451
G1 F675 X101.03 Y130.446 E139.05652
M204 S2000
G1 F2400 E138.25652
G0 F7200 X99.899 Y131.577
M204 S500
G1 F2400 E139.05652
G1 F675 X87.172 Y118.851 E141.06787
M204 S2000
G1 F2400 E140.26787
G0 F7200 X86.041 Y119.982
M204 S500
G1 F2400 E141.06787
G1 F675 X98.767 Y132.708 E143.07914
M204 S2000
G1 F2400 E142.27914
G0 F7200 X97.636 Y133.84
M204 S500
G1 F2400 E143.07914
G1 F675 X84.909 Y121.113 E145.09057
M204 S2000
G1 F2400 E144.29057
G0 F7200 X83.778 Y122.245
M204 S500
G1 F2400 E145.09057
G1 F675 X96.505 Y134.971 E147.10192
M204 S2000
G1 F2400 E146.30192
G0 F7200 X95.373 Y136.102
M204 S500
G1 F2400 E147.10192
G1 F675 X82.647 Y123.376 E149.11318
M204 S2000
G1 F2400 E148.31318
G0 F7200 X81.797 Y124.789
M204 S500
G1 F2400 E149.11318
G1 F675 X93.963 Y136.955 E151.03595
M204 S2000
G1 F2400 E150.23595
G0 F7200 X94.624 Y137.463
G0 X95.299 Y137.075
G0 X102.632 Y129.784
G0 X102.161 Y129.314
M204 S500
G1 F2400 E151.03595
G1 F675 X89.435 Y116.588 E153.04722
M204 S2000
G1 F2400 E152.24722
G0 F7200 X90.566 Y115.456
M204 S500
G1 F2400 E153.04722
G1 F675 X103.293 Y128.183 E155.05865
M204 S2000
G1 F2400 E154.25865
G0 F7200 X104.424 Y127.052
M204 S500
G1 F2400 E155.05865
G1 F675 X91.698 Y114.325 E157.06999
M204 S2000
G1 F2400 E156.26999
G0 F7200 X92.829 Y113.194
M204 S500
G1 F2400 E157.06999
G1 F675 X105.555 Y125.92 E159.08126
M204 S2000
G1 F2400 E158.28126
G0 F7200 X106.687 Y124.789
M204 S500
G1 F2400 E159.08126
G1 F675 X93.96 Y112.062 E161.09269
M204 S2000
G1 F2400 E160.29269
G0 F7200 X95.092 Y110.931
M204 S500
G1 F2400 E161.09269
G1 F675 X107.818 Y123.657 E163.10396
M204 S2000
G1 F2400 E162.30396
G0 F7200 X108.95 Y122.526
M204 S500
G1 F2400 E163.10396
G1 F675 X96.223 Y109.8 E165.11531
M204 S2000
G1 F2400 E164.31531
G0 F7200 X97.354 Y108.668
M204 S500
G1 F2400 E165.11531
G1 F675 X110.081 Y121.395 E167.12673
M204 S2000
G1 F2400 E166.32673
G0 F7200 X111.212 Y120.263
M204 S500
G1 F2400 E167.12673
G1 F675 X98.486 Y107.537 E169.138
M204 S2000
G1 F2400 E168.338
G0 F7200 X99.617 Y106.405
M204 S500
G1 F2400 E169.138
G1 F675 X112.344 Y119.132 E171.14943
M204 S2000
G1 F2400 E170.34943
G0 F7200 X113.475 Y118.001
M204 S500
G1 F2400 E171.14943
G1 F675 X100.749 Y105.274 E173.16078
M204 S2000
G1 F2400 E172.36078
G0 F7200 X101.88 Y104.143
M204 S500
G1 F2400 E173.16078
G1 F675 X114.606 Y116.869 E175.17205
M204 S2000
G1 F2400 E174.37205
G0 F7200 X115.738 Y115.738
M204 S500
G1 F2400 E175.17205
G1 F675 X103.011 Y103.011 E177.18348
M204 S2000
G1 F2400 E176.38348
G0 F7200 X104.011 Y101.748
M204 S500
G1 F2400 E177.18348
G1 F675 X117.002 Y114.739 E179.23663
M204 S2000
G1 F2400 E178.43663
G0 F7200 X118.68 Y114.155
M204 S500
G1 F2400 E179.23663
G1 F675 X104.599 Y100.074 E181.46205
M204 S2000
G1 F2400 E180.66205
G0 F7200 X104.36 Y97.572
M204 S500
G1 F2400 E181.46205
G1 F675 X121.19 Y114.401 E184.12185
M204 S2000
G1 F2400 E183.32185
G0 F7200 X121.178 Y115.103
G0 X124.723 Y118.5
G0 X125.572 Y118.784
M204 S500
G1 F2400 E184.12185
G1 F675 X196.799 Y190.011 E195.37886
M204 S2000
G1 F2400 E194.57886
G0 F7200 X195.757 Y191.231
M204 S500
G1 F2400 E195.37886
G1 F675 X125.812 Y121.286 E206.43325
M204 S2000
G1 F2400 E205.63325
G0 F7200 X125.224 Y122.961
M204 S500
G1 F2400 E206.43325
G1 F675 X195.113 Y192.85 E217.47879
M204 S2000
G1 F2400 E216.67879
G0 F7200 X195.092 Y195.092
M204 S500
G1 F2400 E217.47879
G1 F675 X124.224 Y124.224 E228.67906
M204 S2000
G1 F2400 E227.87906
G0 F7200 X123.092 Y125.355
M204 S500
G1 F2400 E228.67906
G1 F675 X194.303 Y196.566 E239.93354
M204 S2000
G1 F2400 E239.13354
G0 F7200 X192.809 Y197.334
M204 S500
G1 F2400 E239.93354
G1 F675 X121.961 Y126.487 E251.13057
M204 S2000
G1 F2400 E250.33057
G0 F7200 X120.83 Y127.618
M204 S500
G1 F2400 E251.13057
G1 F675 X191.266 Y198.054 E262.26257
M204 S2000
G1 F2400 E261.46257
G0 F7200 X189.723 Y198.774
M204 S500
G1 F2400 E262.26257
G1 F675 X119.698 Y128.749 E273.3296
M204 S2000
G1 F2400 E272.5296
G0 F7200 X118.567 Y129.881
M204 S500
G1 F2400 E273.3296
G1 F675 X188.18 Y199.494 E284.33153
M204 S2000
G1 F2400 E283.53153
G0 F7200 X186.637 Y200.214
M204 S500
G1 F2400 E284.33153
G1 F675 X117.436 Y131.012 E295.26842
M204 S2000
G1 F2400 E294.46842
G0 F7200 X116.304 Y132.143
M204 S500
G1 F2400 E295.26842
G1 F675 X185.094 Y200.933 E306.14027
M204 S2000
G1 F2400 E305.34027
G0 F7200 X183.551 Y201.653
M204 S500
G1 F2400 E306.14027
G1 F675 X115.173 Y133.275 E316.94701
M204 S2000
G1 F2400 E316.14701
G0 F7200 X114.041 Y134.406
M204 S500
G1 F2400 E316.94701
G1 F675 X182.008 Y202.373 E327.68879
M204 S2000
G1 F2400 E326.88879
G0 F7200 X180.465 Y203.092
M204 S500
G1 F2400 E327.68879
G1 F675 X112.91 Y135.538 E338.36538
M204 S2000
G1 F2400 E337.56538
G0 F7200 X111.779 Y136.669
M204 S500
G1 F2400 E338.36538
G1 F675 X123.317 Y148.207 E340.18889
M204 S2000
G1 F2400 E339.38889
G0 F7200 X120.81 Y147.963
M204 S500
G1 F2400 E340.18889
G1 F675 X110.647 Y137.8 E341.7951
M204 S2000
G1 F2400 E340.9951
G0 F7200 X109.584 Y139
M204 S500
G1 F2400 E341.7951
G1 F675 X119.127 Y148.543 E343.30331
M204 S2000
G1 F2400 E342.50331
G0 F7200 X119.551 Y149.072
G0 X125.636 Y151.322
G0 X126.287 Y151.177
M204 S500
G1 F2400 E343.30331
G1 F675 X178.907 Y203.797 E351.61959
M204 S2000
G1 F2400 E350.81959
G0 F7200 X178.59 Y204.551
G0 X177.768 Y204.53
G0 X176.941 Y204.266
G0 X174.995 Y202.663
G0 X174.63 Y201.783
M204 S500
G1 F2400 E351.61959
G1 F675 X167.168 Y194.321 E352.79892
M204 S2000
G1 F2400 E351.99892
G0 F7200 X164.142 Y191.295
M204 S500
G1 F2400 E352.79892
G1 F675 X126.528 Y153.681 E358.74359
M204 S2000
G1 F2400 E357.94359
G0 F7200 X125.946 Y155.361
M204 S500
G1 F2400 E358.74359
G1 F675 X161.64 Y191.055 E364.38481
M204 S2000
G1 F2400 E363.58481
G0 F7200 X159.947 Y191.625
M204 S500
G1 F2400 E364.38481
G1 F675 X125.86 Y157.538 E369.77206
M204 S2000
G1 F2400 E368.97206
G0 F7200 X125.717 Y159.658
M204 S500
G1 F2400 E369.77206
G1 F675 X158.403 Y192.344 E374.93789
M204 S2000
G1 F2400 E374.13789
G0 F7200 X156.86 Y193.064
M204 S500
G1 F2400 E374.93789
G1 F675 X124.968 Y161.172 E379.97823
M204 S2000
G1 F2400 E379.17823
G0 F7200 X123.887 Y162.353
M204 S500
G1 F2400 E379.97823
G1 F675 X155.317 Y193.784 E384.94564
M204 S2000
G1 F2400 E384.14564
G0 F7200 X153.774 Y194.503
M204 S500
G1 F2400 E384.94564
G1 F675 X122.824 Y163.553 E389.8371
M204 S2000
G1 F2400 E389.0371
G0 F7200 X122.082 Y163.591
G0 X121.924 Y164.397
G0 X122.016 Y165.176
G0 X122.34 Y165.919
G0 X122.581 Y166.214
G0 X137.708 Y181.536
G0 X138.368 Y181.36
M204 S500
G1 F2400 E389.8371
G1 F675 X152.231 Y195.223 E392.02807
M204 S2000
G1 F2400 E391.22807
G0 F7200 X150.688 Y195.943
M204 S500
G1 F2400 E392.02807
G1 F675 X140.402 Y185.657 E393.65371
M204 S2000
G1 F2400 E392.85371
G0 F7200 X139.8 Y185.938
G0 X141.778 Y190.177
G0 X142.379 Y189.897
M204 S500
G1 F2400 E393.65371
G1 F675 X149.144 Y196.662 E394.72288
M204 S2000
G1 F2400 E393.92288
G0 F7200 X147.556 Y197.336
M204 S500
G1 F2400 E394.72288
G1 F675 X144.358 Y194.138 E395.22831
M204 S2000
G1 F2400 E394.42831
G0 F7200 X143.756 Y194.419
G0 X144.848 Y196.711
G0 X145.271 Y197.267
G0 X145.745 Y197.706
G0 X146.664 Y197.999
G0 X168.543 Y198.84
G0 X169.144 Y198.56
M204 S500
G1 F2400 E395.22831
G1 F675 X172.142 Y201.558 E395.70212
M204 S2000
G1 F2400 E394.90212
G0 F7200 X172.348 Y202.2
G0 X176.849 Y204.237
G0 X177.768 Y204.53
G0 X178.59 Y204.551
G0 X179.478 Y204.285
G0 X194.434 Y197.286
G0 X194.984 Y196.868
G0 X195.455 Y196.226
G0 X197.657 Y190.39
G0 X198.194 Y188.92
G0 X197.571 Y188.52
M204 S500
G1 F2400 E395.70212
G1 F675 X30.23 Y21.179 E422.14938
M204 S2000
G1 F2400 E421.34938
G0 F7200 X28.736 Y21.948
M204 S500
G1 F2400 E422.14938
G1 F675 X99.978 Y93.19 E433.40876
M204 S2000
G1 F2400 E432.60876
G0 F7200 X97.468 Y92.943
M204 S500
G1 F2400 E433.40876
G1 F675 X27.516 Y22.99 E444.46434
M204 S2000
G1 F2400 E443.66434
G0 F7200 X25.896 Y23.633
M204 S500
G1 F2400 E444.46434
G1 F675 X95.79 Y93.527 E455.51067
M204 S2000
G1 F2400 E454.71067
G0 F7200 X94.525 Y94.525
M204 S500
G1 F2400 E455.51067
G1 F675 X23.636 Y23.636 E466.71426
M204 S2000
G1 F2400 E465.91426
G0 F7200 X24.152 Y23.007
G0 X29.584 Y20.613
G0 X30.309 Y20.513
G0 X30.786 Y20.558
G0 X31.379 Y20.744
G0 X34.266 Y22.069
G0 X33.986 Y22.673
M204 S500
G1 F2400 E466.71426
G1 F675 X196.077 Y184.763 E492.33171
M204 S2000
G1 F2400 E491.53171
G0 F7200 X196.678 Y184.483
G0 X194.702 Y180.243
G0 X194.1 Y180.524
M204 S500
G1 F2400 E492.33171
G1 F675 X38.225 Y24.649 E516.96683
M204 S2000
G1 F2400 E516.16683
G0 F7200 X38.505 Y24.046
G0 X42.745 Y26.023
G0 X42.465 Y26.626
M204 S500
G1 F2400 E516.96683
G1 F675 X192.123 Y176.284 E540.61939
M204 S2000
G1 F2400 E539.81939
G0 F7200 X192.725 Y176.003
G0 X190.748 Y171.765
G0 X190.147 Y172.045
M204 S500
G1 F2400 E540.61939
G1 F675 X132.257 Y114.155 E549.76857
M204 S2000
G1 F2400 E548.96857
G0 F7200 X134.309 Y113.945
M204 S500
G1 F2400 E549.76857
G1 F675 X188.17 Y167.805 E558.2809
M204 S2000
G1 F2400 E557.4809
G0 F7200 X188.772 Y167.525
G0 X186.795 Y163.285
G0 X186.193 Y163.565
M204 S500
G1 F2400 E558.2809
G1 F675 X135.793 Y113.166 E566.24624
M204 S2000
G1 F2400 E565.44624
G0 F7200 X136.968 Y112.078
M204 S500
G1 F2400 E566.24624
G1 F675 X184.215 Y159.325 E573.71335
M204 S2000
G1 F2400 E572.91335
G0 F7200 X184.817 Y159.044
G0 X182.841 Y154.805
G0 X182.239 Y155.086
M204 S500
G1 F2400 E573.71335
G1 F675 X138.099 Y110.946 E580.68942
M204 S2000
G1 F2400 E579.88942
G0 F7200 X139.231 Y109.815
M204 S500
G1 F2400 E580.68942
G1 F675 X180.262 Y150.846 E587.17413
M204 S2000
G1 F2400 E586.37413
G0 F7200 X180.864 Y150.565
G0 X178.888 Y146.326
G0 X178.285 Y146.607
M204 S500
G1 F2400 E587.17413
G1 F675 X140.362 Y108.684 E593.16763
M204 S2000
G1 F2400 E592.36763
G0 F7200 X141.493 Y107.552
M204 S500
G1 F2400 E593.16763
G1 F675 X174.865 Y140.924 E598.44188
M204 S2000
G1 F2400 E597.64188
G0 F7200 X174.332 Y138.128
M204 S500
G1 F2400 E598.44188
G1 F675 X142.625 Y106.421 E603.45299
M204 S2000
G1 F2400 E602.65299
G0 F7200 X143.756 Y105.29
M204 S500
G1 F2400 E603.45299
G1 F675 X172.356 Y133.889 E607.97297
M204 S2000
G1 F2400 E607.17297
G0 F7200 X172.957 Y133.609
G0 X170.98 Y129.369
G0 X170.379 Y129.649
M204 S500
G1 F2400 E607.97297
G1 F675 X144.792 Y104.063 E612.01676
M204 S2000
G1 F2400 E611.21676
G0 F7200 X145.441 Y102.449
M204 S500
G1 F2400 E612.01676
G1 F675 X169.771 Y126.779 E615.86198
M204 S2000
G1 F2400 E615.06198
G0 F7200 X170.257 Y125.002
M204 S500
G1 F2400 E615.86198
G1 F675 X145.383 Y100.128 E619.79316
M204 S2000
G1 F2400 E618.99316
G0 F7200 X154.104 Y86.222
M204 S500
G1 F2400 E619.79316
G1 F675 X181.076 Y113.194 E624.05593
M204 S2000
G1 F2400 E623.25593
G0 F7200 X182.121 Y111.976
M204 S500
G1 F2400 E624.05593
G1 F675 X156.657 Y86.512 E628.08036
M204 S2000
G1 F2400 E627.28036
G0 F7200 X158.363 Y85.955
M204 S500
G1 F2400 E628.08036
G1 F675 X181.621 Y109.213 E631.75615
M204 S2000
G1 F2400 E630.95615
G0 F7200 X182.222 Y108.933
G0 X180.245 Y104.694
G0 X179.644 Y104.974
M204 S500
G1 F2400 E631.75615
G1 F675 X159.907 Y85.236 E634.87555
M204 S2000
G1 F2400 E634.07555
G0 F7200 X161.449 Y84.516
M204 S500
G1 F2400 E634.87555
G1 F675 X177.666 Y100.733 E637.43855
M204 S2000
G1 F2400 E636.63855
G0 F7200 X178.268 Y100.452
G0 X176.29 Y96.211
G0 X175.688 Y96.492
M204 S500
G1 F2400 E637.43855
G1 F675 X163.132 Y83.936 E639.42295
M204 S2000
G1 F2400 E638.62295
G0 F7200 X163.638 Y83.315
G0 X164.357 Y83.574
G0 X167.655 Y85.78
G0 X167.961 Y86.502
M204 S500
G1 F2400 E639.42295
G1 F675 X173.711 Y92.252 E640.33171
M204 S2000
G1 F2400 E639.53171
G0 F7200 X174.313 Y91.971
G0 X172.336 Y87.731
G0 X171.734 Y88.012
M204 S500
G1 F2400 E640.33171
G1 F675 X170.256 Y86.535 E640.56522
M204 S2000
G1 F2400 E639.76522
G0 F7200 X170.8 Y86.021
G0 X171.428 Y86.411
G0 X171.769 Y86.755
G0 X172.195 Y87.428
G0 X182.845 Y110.343
G0 X182.97 Y111.171
G0 X182.851 Y111.921
G0 X182.55 Y112.535
G0 X181.026 Y114.431
G0 X180.222 Y114.602
M204 S500
G1 F2400 E640.56522
G1 F675 X104.154 Y38.534 E652.58732
M204 S2000
G1 F2400 E651.78732
G0 F7200 X105.554 Y37.672
M204 S500
G1 F2400 E652.58732
G1 F675 X132.534 Y64.652 E656.85134
M204 S2000
G1 F2400 E656.05134
G0 F7200 X132.24 Y62.095
M204 S500
G1 F2400 E656.85134
G1 F675 X106.775 Y36.63 E660.87594
M204 S2000
G1 F2400 E660.07594
G0 F7200 X109.536 Y37.128
M204 S500
G1 F2400 E660.87594
G1 F675 X132.796 Y60.388 E664.55204
M204 S2000
G1 F2400 E663.75204
G0 F7200 X133.515 Y58.845
M204 S500
G1 F2400 E664.55204
G1 F675 X113.776 Y39.106 E667.67168
M204 S2000
G1 F2400 E666.87168
G0 F7200 X114.056 Y38.503
G0 X118.296 Y40.48
G0 X118.016 Y41.083
M204 S500
G1 F2400 E667.67168
G1 F675 X134.235 Y57.302 E670.23499
M204 S2000
G1 F2400 E669.43499
G0 F7200 X134.812 Y55.616
M204 S500
G1 F2400 E670.23499
G1 F675 X122.257 Y43.061 E672.21924
M204 S2000
G1 F2400 E671.41924
G0 F7200 X122.537 Y42.458
G0 X126.776 Y44.435
G0 X126.496 Y45.038
M204 S500
G1 F2400 E672.21924
G1 F675 X132.247 Y50.789 E673.12815
M204 S2000
G1 F2400 E672.32815
G0 F7200 X132.216 Y48.495
M204 S500
G1 F2400 E673.12815
G1 F675 X130.737 Y47.016 E673.3619
M204 S2000
G1 F2400 E672.5619
G0 F7200 X117.091 Y71.836
M204 S500
G1 F2400 E673.3619
G1 F675 X93.753 Y48.498 E677.05033
M204 S2000
G1 F2400 E676.25033
G0 F7200 X95.072 Y47.554
M204 S500
G1 F2400 E677.05033
G1 F675 X171.192 Y123.674 E689.08065
M204 S2000
G1 F2400 E688.28065
G0 F7200 X172.502 Y122.722
M204 S500
G1 F2400 E689.08065
G1 F675 X96.023 Y46.243 E701.1677
M204 S2000
G1 F2400 E700.3677
G0 F7200 X96.752 Y44.709
M204 S500
G1 F2400 E701.1677
G1 F675 X174.038 Y121.995 E713.3823
M204 S2000
