;FLAVOR:Marlin
;TIME:11881
;Filament used: 9.91663m
;Layer height: 0.28
;MINX:18.363
;MINY:17.934
;MINZ:0.336
;MAXX:204.431
;MAXY:204.003
;MAXZ:4.826
;TARGET_MACHINE.NAME:Creality Ender-3 S1 Pro
;Generated with Cura_SteamEngine 5.8.0
M82 ;absolute extrusion mode
; Ender 3 S1 Pro Start G-code
; M413 S0 ; Disable power loss recovery
G92 E0 ; Reset Extruder

; Prep surfaces before auto home for better accuracy
M140 S60
M104 S210.0

G28 ; Home all axes
G1 Z10.0 F3000 ; Move Z Axis up little to prevent scratching of Heat Bed
G1 X0 Y0

M190 S60
M109 S210.0

G1 X0.1 Y20 Z0.3 F5000.0 ; Move to start position
G1 X0.1 Y200.0 Z0.3 F1500.0 E15 ; Draw the first line
G1 X0.4 Y200.0 Z0.3 F5000.0 ; Move to side a little
G1 X0.4 Y20 Z0.3 F1500.0 E30 ; Draw the second line
G92 E0 ; Reset Extruder
G1 Z2.0 F3000 ; Move Z Axis up little to prevent scratching of Heat Bed
G1 X5 Y20 Z0.3 F5000.0 ; Move over to prevent blob squish

G92 E0
G92 E0
G1 F2400 E-0.8
;LAYER_COUNT:14
;LAYER:-3
M107
M204 S2000
G0 F9000 X117.982 Y76.846 Z0.336
M204 S500
;TYPE:SUPPORT-INTERFACE
G1 F2400 E0
G1 F1350 X117.724 Y77.242 E0.05282
G1 X117.432 Y77.832 E0.12639
G1 X117.173 Y78.589 E0.2158
G1 X117.009 Y79.024 E0.26775
G1 X116.992 Y79.034 E0.26996
G1 X116.791 Y79.37 E0.31371
G1 X116.553 Y79.664 E0.35598
G1 X116.183 Y80.038 E0.41478
G1 X115.732 Y80.547 E0.49078
G1 X115.349 Y81.11 E0.56687
G1 X115.024 Y81.744 E0.64649
G1 X114.809 Y82.361 E0.71951
G1 X114.661 Y83.017 E0.79466
G1 X114.597 Y83.696 E0.87088
G1 X114.621 Y84.403 E0.94994
G1 X114.729 Y85.061 E1.02445
G1 X114.927 Y85.736 E1.10307
G1 X115.192 Y86.332 E1.17596
G1 X115.551 Y86.933 E1.25419
G1 X116.135 Y87.643 E1.35693
G1 X139.501 Y111.011 E5.04995
G1 X140.034 Y111.479 E5.12922
G1 X140.579 Y111.846 E5.20264
G1 X141.226 Y112.176 E5.28381
G1 X141.854 Y112.396 E5.35817
G1 X142.536 Y112.542 E5.43612
G1 X143.185 Y112.596 E5.5089
G1 X143.865 Y112.575 E5.58492
G1 X144.524 Y112.465 E5.65959
G1 X145.212 Y112.26 E5.73982
G1 X145.827 Y111.986 E5.81506
G1 X146.387 Y111.652 E5.88793
G1 X147.031 Y111.119 E5.98135
G1 X147.051 Y111.115 E5.98363
G1 X153.499 Y104.667 E7.0027
G1 X153.952 Y104.152 E7.07935
G1 X154.344 Y103.576 E7.15721
G1 X154.652 Y102.979 E7.23228
G1 X154.888 Y102.309 E7.31167
G1 X155.028 Y101.656 E7.3863
G1 X155.087 Y100.999 E7.46002
G1 X155.064 Y100.305 E7.53762
G1 X154.956 Y99.635 E7.61346
G1 X154.754 Y98.952 E7.69306
G1 X154.481 Y98.338 E7.76815
G1 X154.108 Y97.728 E7.84805
G1 X153.532 Y97.034 E7.94884
G1 X130.187 Y73.689 E11.63838
G1 X129.661 Y73.231 E11.71633
G1 X129.103 Y72.85 E11.79184
G1 X128.483 Y72.535 E11.86955
G1 X127.846 Y72.308 E11.94512
G1 X127.167 Y72.164 E12.02269
G1 X126.495 Y72.104 E12.09809
G1 X125.824 Y72.129 E12.17313
G1 X125.145 Y72.24 E12.25002
G1 X124.484 Y72.438 E12.32713
G1 X123.845 Y72.721 E12.40523
G1 X123.301 Y73.048 E12.47616
G1 X122.559 Y73.664 E12.58394
G1 X122.058 Y74.148 E12.66178
G1 X121.681 Y74.419 E12.71367
G1 X121.338 Y74.587 E12.75635
G1 X120.838 Y74.746 E12.81499
G1 X120.196 Y74.99 E12.89174
G1 X119.583 Y75.314 E12.96923
G1 X119.036 Y75.696 E13.04379
G1 X118.539 Y76.154 E13.11932
G1 X118.092 Y76.677 E13.1962
G1 X117.982 Y76.846 E13.21874
M204 S2000
G1 F2400 E12.41874
G0 F9000 X26.905 Y22.469
M204 S500
G1 F2400 E13.21874
G1 F1350 X27.227 Y22.132 E13.27083
G1 X27.555 Y21.884 E13.31678
G1 X28.055 Y21.624 E13.37976
G1 X28.078 Y21.641 E13.38296
G1 X28.347 Y21.555 E13.41452
G1 X28.615 Y21.516 E13.44478
G1 X28.637 Y21.491 E13.4485
G1 X29.835 Y21.515 E13.58241
G1 X30.455 Y21.455 E13.65202
G1 X31.172 Y21.296 E13.7341
G1 X31.861 Y21.04 E13.81624
G1 X32.393 Y20.764 E13.88322
G1 X32.952 Y20.382 E13.95888
G1 X33.534 Y19.856 E14.04655
G1 X33.727 Y19.66 E14.07729
G1 X34.077 Y19.391 E14.12662
G1 X34.577 Y19.129 E14.18971
G1 X34.601 Y19.146 E14.19299
G1 X34.875 Y19.059 E14.22512
G1 X35.139 Y19.02 E14.25494
G1 X35.15 Y19.007 E14.25685
G1 X35.544 Y19.001 E14.30088
G1 X35.567 Y18.977 E14.3046
G1 X36.087 Y19.07 E14.36363
G1 X36.416 Y19.175 E14.40222
G1 X36.433 Y19.163 E14.40455
G1 X76.758 Y37.971 E19.3771
G1 X77.411 Y38.225 E19.4554
G1 X78.082 Y38.388 E19.53257
G1 X78.733 Y38.468 E19.60587
G1 X79.392 Y38.464 E19.67951
G1 X80.113 Y38.367 E19.76082
G1 X80.752 Y38.196 E19.83474
G1 X81.372 Y37.946 E19.90945
G1 X81.982 Y37.603 E19.98766
G1 X82.494 Y37.227 E20.05864
G1 X83.036 Y36.706 E20.14266
G1 X83.468 Y36.163 E20.22021
G1 X83.919 Y35.385 E20.3207
G1 X86.35 Y30.18 E20.9627
G1 X86.518 Y29.87 E21.0021
G1 X86.72 Y29.578 E21.04178
G1 X87.04 Y29.243 E21.09355
G1 X87.368 Y28.991 E21.13978
G1 X87.863 Y28.734 E21.20211
G1 X87.886 Y28.751 E21.20531
G1 X88.159 Y28.667 E21.23723
G1 X88.432 Y28.624 E21.26811
G1 X88.442 Y28.611 E21.26994
G1 X88.832 Y28.604 E21.31353
G1 X88.844 Y28.593 E21.31535
G1 X89.43 Y28.647 E21.38112
G1 X90.186 Y28.637 E21.46561
G1 X90.833 Y28.547 E21.53861
G1 X91.453 Y28.379 E21.6104
G1 X92.102 Y28.117 E21.68862
G1 X92.745 Y27.744 E21.77169
G1 X93.267 Y27.348 E21.84491
G1 X93.754 Y26.876 E21.9207
G1 X94.096 Y26.615 E21.96878
G1 X94.608 Y26.346 E22.03342
G1 X94.626 Y26.36 E22.03596
G1 X94.897 Y26.28 E22.06754
G1 X95.297 Y26.217 E22.11279
G1 X95.797 Y26.224 E22.16868
G1 X96.383 Y26.342 E22.23548
G1 X96.594 Y26.449 E22.26192
G1 X136.811 Y45.198 E27.22074
G1 X137.25 Y45.512 E27.28106
G1 X137.539 Y45.794 E27.32618
G1 X137.77 Y46.097 E27.36876
G1 X138.047 Y46.616 E27.43451
G1 X138.023 Y46.649 E27.43907
G1 X138.1 Y46.85 E27.46312
G1 X138.157 Y47.191 E27.50176
G1 X138.181 Y47.212 E27.50532
G1 X138.176 Y47.585 E27.54701
G1 X138.189 Y47.598 E27.54907
G1 X138.157 Y47.948 E27.58834
G1 X138.14 Y48.626 E27.66414
G1 X138.206 Y49.283 E27.73793
G1 X138.361 Y49.969 E27.81652
G1 X138.596 Y50.602 E27.89198
G1 X138.896 Y51.188 E27.96555
G1 X139.275 Y51.74 E28.04038
G1 X139.92 Y52.449 E28.1475
G1 X140.126 Y52.721 E28.18563
G1 X140.406 Y53.247 E28.25222
G1 X140.385 Y53.277 E28.25631
G1 X140.467 Y53.512 E28.28413
G1 X140.517 Y53.814 E28.31834
G1 X140.538 Y53.833 E28.3215
G1 X140.532 Y54.375 E28.38208
G1 X140.47 Y54.785 E28.42842
G1 X140.436 Y54.855 E28.43711
G1 X140.335 Y55.155 E28.47249
G1 X138.653 Y58.779 E28.91898
G1 X138.418 Y59.384 E28.99151
G1 X138.244 Y60.065 E29.07006
G1 X138.164 Y60.736 E29.14558
G1 X138.168 Y61.399 E29.21967
G1 X138.265 Y62.121 E29.30109
G1 X138.444 Y62.78 E29.3774
G1 X138.696 Y63.392 E29.45136
G1 X139.029 Y63.984 E29.52727
G1 X139.423 Y64.512 E29.60089
G1 X139.647 Y64.769 E29.63899
G1 X157.489 Y82.611 E32.45882
G1 X158.026 Y83.084 E32.53879
G1 X158.553 Y83.437 E32.60967
G1 X159.182 Y83.761 E32.68875
G1 X159.811 Y83.986 E32.7634
G1 X160.526 Y84.142 E32.84518
G1 X161.186 Y84.196 E32.91919
G1 X161.863 Y84.174 E32.99489
G1 X162.528 Y84.061 E33.07027
G1 X163.151 Y83.876 E33.1429
G1 X163.588 Y83.699 E33.19559
G1 X167.232 Y82.001 E33.64486
G1 X167.776 Y81.856 E33.70777
G1 X168.295 Y81.807 E33.76603
G1 X168.688 Y81.852 E33.81024
G1 X168.696 Y81.862 E33.81167
G1 X169.007 Y81.935 E33.84737
G1 X169.385 Y82.086 E33.89286
G1 X169.793 Y82.343 E33.94675
G1 X170.653 Y83.107 E34.0753
G1 X171.161 Y83.454 E34.14405
G1 X171.812 Y83.788 E34.22582
G1 X172.456 Y84.017 E34.30221
G1 X173.145 Y84.167 E34.38101
G1 X173.765 Y84.227 E34.45062
G1 X174.513 Y84.2 E34.53427
G1 X174.807 Y84.174 E34.56725
G1 X175.219 Y84.198 E34.61337
G1 X175.854 Y84.349 E34.68631
G1 X176.375 Y84.661 E34.75418
G1 X176.671 Y84.92 E34.79813
G1 X176.969 Y85.263 E34.84891
G1 X177.28 Y85.758 E34.91424
G1 X177.264 Y85.782 E34.91747
G1 X195.867 Y125.669 E39.83597
G1 X195.999 Y126.008 E39.87663
G1 X196.105 Y126.409 E39.92298
G1 X196.146 Y126.813 E39.96836
G1 X196.122 Y127.228 E40.01481
G1 X196.032 Y127.637 E40.06161
G1 X195.869 Y128.038 E40.10999
G1 X195.651 Y128.391 E40.15635
G1 X195.389 Y128.7 E40.20163
G1 X195.285 Y128.805 E40.21814
G1 X194.809 Y129.346 E40.29867
G1 X194.465 Y129.85 E40.36687
G1 X194.123 Y130.524 E40.45133
G1 X193.911 Y131.112 E40.52118
G1 X193.765 Y131.752 E40.59454
G1 X193.697 Y132.451 E40.67303
G1 X193.724 Y133.197 E40.75645
G1 X193.769 Y133.652 E40.80755
G1 X193.719 Y134.077 E40.85537
G1 X193.652 Y134.361 E40.88798
G1 X193.486 Y134.769 E40.9372
G1 X193.244 Y135.155 E40.98812
G1 X192.996 Y135.447 E41.03093
G1 X192.647 Y135.74 E41.08186
G1 X192.288 Y135.953 E41.12851
G1 X187.006 Y138.417 E41.77986
G1 X186.409 Y138.746 E41.85604
G1 X185.853 Y139.145 E41.93252
G1 X185.322 Y139.647 E42.01418
G1 X184.91 Y140.152 E42.08701
G1 X184.541 Y140.731 E42.16374
G1 X184.246 Y141.363 E42.24169
G1 X184.058 Y141.96 E42.31163
G1 X183.923 Y142.665 E42.39185
G1 X183.884 Y143.333 E42.46663
G1 X183.929 Y144.04 E42.5458
G1 X184.067 Y144.715 E42.62279
G1 X184.378 Y145.581 E42.72562
G1 X203.084 Y185.699 E47.67239
G1 X203.219 Y186.038 E47.71317
G1 X203.324 Y186.435 E47.75906
G1 X203.363 Y186.841 E47.80464
G1 X203.342 Y187.257 E47.85119
G1 X203.26 Y187.62 E47.89278
G1 X203.103 Y188.034 E47.94226
G1 X202.855 Y188.436 E47.99505
G1 X202.617 Y188.716 E48.03611
G1 X202.401 Y188.933 E48.07033
G1 X202.009 Y189.373 E48.13619
G1 X201.611 Y189.944 E48.21397
G1 X201.271 Y190.607 E48.29724
G1 X201.055 Y191.208 E48.36861
G1 X200.897 Y191.927 E48.45088
G1 X200.841 Y192.543 E48.52
G1 X200.875 Y193.452 E48.62166
G1 X200.831 Y193.889 E48.67074
G1 X200.821 Y193.897 E48.67217
G1 X200.76 Y194.173 E48.70376
G1 X200.593 Y194.586 E48.75354
G1 X200.356 Y194.97 E48.80397
G1 X200.109 Y195.255 E48.84612
G1 X199.767 Y195.547 E48.89637
G1 X199.43 Y195.755 E48.94063
G1 X184.615 Y202.663 E50.76741
G1 X184.285 Y202.79 E50.80692
G1 X183.876 Y202.897 E50.85417
G1 X183.359 Y202.949 E50.91224
G1 X182.805 Y202.887 E50.97454
G1 X182.248 Y202.655 E51.04197
G1 X181.879 Y202.425 E51.09056
G1 X181.123 Y201.766 E51.20264
G1 X180.56 Y201.374 E51.2793
G1 X179.942 Y201.056 E51.35697
G1 X179.244 Y200.805 E51.43987
G1 X178.652 Y200.673 E51.50765
G1 X177.955 Y200.609 E51.58587
G1 X177.084 Y200.643 E51.68328
G1 X176.661 Y200.618 E51.73064
G1 X176.301 Y200.537 E51.77188
G1 X175.95 Y200.427 E51.81298
G1 X175.486 Y200.132 E51.87443
G1 X175.215 Y199.903 E51.91408
G1 X174.903 Y199.541 E51.96749
G1 X174.675 Y199.157 E52.01739
G1 X172.015 Y193.462 E52.71983
G1 X171.692 Y192.869 E52.7953
G1 X171.295 Y192.32 E52.87101
G1 X170.833 Y191.822 E52.94693
G1 X170.273 Y191.359 E53.02813
G1 X169.711 Y191.005 E53.10235
G1 X169.099 Y190.718 E53.1779
G1 X168.464 Y190.514 E53.25243
G1 X167.811 Y190.388 E53.32675
G1 X167.104 Y190.344 E53.40592
G1 X166.426 Y190.389 E53.48185
G1 X165.759 Y190.519 E53.55779
G1 X164.884 Y190.829 E53.66153
G1 X153.496 Y196.136 E55.0656
G1 X153.142 Y196.279 E55.10826
G1 X152.741 Y196.384 E55.15459
G1 X152.224 Y196.433 E55.21262
G1 X151.667 Y196.371 E55.27526
G1 X151.129 Y196.153 E55.34013
G1 X150.803 Y195.954 E55.38281
G1 X150.47 Y195.674 E55.43143
G1 X150.171 Y195.329 E55.48245
G1 X149.977 Y195.017 E55.52351
G1 X143.255 Y180.618 E57.29937
G1 X142.935 Y180.029 E57.37428
G1 X142.55 Y179.487 E57.44857
G1 X142.185 Y179.079 E57.50975
G1 X141.041 Y177.934 E57.69063
G1 X140.816 Y177.677 E57.72881
G1 X140.573 Y177.327 E57.77642
G1 X140.409 Y176.999 E57.81741
G1 X140.105 Y176.34 E57.89851
G1 X139.731 Y175.75 E57.97658
G1 X139.291 Y175.22 E58.05356
G1 X138.768 Y174.74 E58.13289
G1 X138.252 Y174.373 E58.20365
G1 X137.66 Y174.048 E58.27912
G1 X137.212 Y173.859 E58.33346
G1 X136.837 Y173.649 E58.38149
G1 X136.541 Y173.422 E58.42318
G1 X125.108 Y161.997 E60.22947
G1 X124.879 Y161.739 E60.26802
G1 X124.655 Y161.42 E60.31158
G1 X124.466 Y161.029 E60.36011
G1 X124.357 Y160.671 E60.40193
G1 X124.298 Y160.214 E60.45343
G1 X124.344 Y159.13 E60.57468
G1 X124.292 Y158.44 E60.65201
G1 X124.147 Y157.749 E60.73091
G1 X124.044 Y157.444 E60.76689
G1 X124.073 Y157.409 E60.77197
G1 X123.626 Y156.497 E60.88547
G1 X123.262 Y155.947 E60.95918
G1 X122.827 Y155.432 E61.03451
G1 X122.329 Y154.98 E61.10967
G1 X121.733 Y154.566 E61.19077
G1 X121.185 Y154.274 E61.26016
G1 X120.511 Y154.021 E61.34062
G1 X119.813 Y153.856 E61.42077
G1 X119.18 Y153.793 E61.49186
G1 X118.145 Y153.839 E61.60764
G1 X117.733 Y153.825 E61.65371
G1 X117.284 Y153.73 E61.705
G1 X116.928 Y153.598 E61.74743
G1 X116.521 Y153.35 E61.80069
G1 X116.278 Y153.159 E61.83523
G1 X112.608 Y149.501 E62.41431
G1 X112.39 Y149.254 E62.45113
G1 X112.164 Y148.94 E62.49436
G1 X111.972 Y148.557 E62.54224
G1 X111.839 Y148.136 E62.59158
G1 X111.786 Y147.688 E62.64199
G1 X111.803 Y147.297 E62.68573
G1 X111.894 Y146.848 E62.73693
G1 X112.026 Y146.499 E62.77863
G1 X112.101 Y146.335 E62.79878
G1 X112.337 Y145.735 E62.87083
G1 X112.517 Y145.029 E62.95226
G1 X112.592 Y144.366 E63.02682
G1 X112.588 Y143.721 E63.0989
G1 X112.505 Y143.049 E63.17457
G1 X112.339 Y142.402 E63.24922
G1 X112.05 Y141.691 E63.33499
G1 X111.919 Y141.405 E63.37015
G1 X111.816 Y141.063 E63.41006
G1 X111.754 Y140.657 E63.45596
G1 X111.771 Y140.2 E63.50707
G1 X111.862 Y139.751 E63.55826
G1 X112.025 Y139.319 E63.60986
G1 X112.049 Y139.305 E63.61297
G1 X112.213 Y139.013 E63.6504
G1 X112.431 Y138.739 E63.68953
G1 X128.423 Y122.74 E66.21752
G1 X128.865 Y122.236 E66.29244
G1 X129.247 Y121.682 E66.36764
G1 X129.561 Y121.07 E66.44451
G1 X129.799 Y120.406 E66.52334
G1 X129.947 Y119.721 E66.60165
G1 X130.004 Y119.061 E66.67569
G1 X129.979 Y118.36 E66.75408
G1 X129.872 Y117.716 E66.82703
G1 X129.663 Y117.019 E66.90835
G1 X129.4 Y116.426 E66.98085
G1 X129.068 Y115.87 E67.05322
G1 X128.431 Y115.101 E67.16481
G1 X127.89 Y114.628 E67.24512
G1 X127.33 Y114.251 E67.32056
G1 X126.766 Y113.963 E67.39133
G1 X126.115 Y113.727 E67.46872
G1 X125.435 Y113.58 E67.54646
G1 X124.764 Y113.517 E67.62178
G1 X124.092 Y113.54 E67.69692
G1 X123.377 Y113.656 E67.77787
G1 X122.749 Y113.844 E67.85113
G1 X122.082 Y114.139 E67.93264
G1 X121.535 Y114.47 E68.00409
G1 X120.807 Y115.076 E68.10994
G1 X100.693 Y135.192 E71.289
G1 X100.465 Y135.395 E71.32312
G1 X100.14 Y135.628 E71.3678
G1 X99.762 Y135.819 E71.41513
G1 X99.311 Y135.955 E71.46778
G1 X98.927 Y136.007 E71.51108
G1 X98.478 Y135.993 E71.56128
G1 X98.101 Y135.917 E71.60426
G1 X97.712 Y135.776 E71.6505
G1 X97.271 Y135.516 E71.70771
G1 X97.03 Y135.328 E71.74187
G1 X87.117 Y125.422 E73.30801
G1 X86.892 Y125.164 E73.34627
G1 X86.665 Y124.842 E73.3903
G1 X86.474 Y124.456 E73.43842
G1 X86.364 Y124.091 E73.48103
G1 X86.302 Y123.685 E73.52692
G1 X86.319 Y123.228 E73.57803
G1 X86.41 Y122.779 E73.62923
G1 X86.572 Y122.349 E73.68058
G1 X86.596 Y122.335 E73.68369
G1 X86.742 Y122.079 E73.71662
G1 X87.014 Y121.725 E73.76651
G1 X107.209 Y101.529 E76.95829
G1 X107.674 Y100.997 E77.03725
G1 X108.036 Y100.465 E77.10917
G1 X108.349 Y99.858 E77.18549
G1 X108.581 Y99.224 E77.26093
G1 X108.732 Y98.527 E77.34063
G1 X108.795 Y97.873 E77.41406
G1 X108.768 Y97.162 E77.49357
G1 X108.663 Y96.514 E77.56693
G1 X108.462 Y95.829 E77.64671
G1 X108.188 Y95.218 E77.72155
G1 X107.831 Y94.625 E77.7989
G1 X107.222 Y93.892 E77.9054
G1 X106.697 Y93.427 E77.98377
G1 X106.117 Y93.038 E78.06182
G1 X105.529 Y92.743 E78.13534
G1 X104.879 Y92.511 E78.21247
G1 X104.178 Y92.361 E78.29258
G1 X103.537 Y92.308 E78.36446
G1 X102.868 Y92.328 E78.43925
G1 X102.197 Y92.437 E78.51522
G1 X101.526 Y92.637 E78.59347
G1 X100.87 Y92.933 E78.6739
G1 X100.335 Y93.256 E78.74374
G1 X99.588 Y93.876 E78.85223
G1 X85.899 Y107.563 E81.01554
G1 X85.624 Y107.8 E81.05611
G1 X85.321 Y108.015 E81.09763
G1 X84.938 Y108.207 E81.14551
G1 X84.597 Y108.313 E81.18541
G1 X84.156 Y108.382 E81.2353
G1 X83.686 Y108.365 E81.28785
G1 X83.236 Y108.27 E81.33925
G1 X82.878 Y108.137 E81.38193
G1 X82.479 Y107.899 E81.43385
G1 X82.169 Y107.646 E81.47857
G1 X75.487 Y100.969 E82.53422
G1 X74.945 Y100.492 E82.61491
G1 X74.41 Y100.131 E82.68704
G1 X73.793 Y99.815 E82.76451
G1 X73.147 Y99.588 E82.84103
G1 X72.46 Y99.439 E82.91959
G1 X71.783 Y99.38 E82.99553
G1 X70.815 Y99.435 E83.10388
G1 X70.403 Y99.421 E83.14995
G1 X70.14 Y99.367 E83.17996
G1 X70.118 Y99.386 E83.18321
G1 X69.65 Y99.211 E83.23904
G1 X69.06 Y98.924 E83.31237
G1 X68.401 Y98.694 E83.39037
G1 X67.733 Y98.553 E83.46667
G1 X67.065 Y98.497 E83.54158
G1 X66.372 Y98.528 E83.6191
G1 X65.673 Y98.65 E83.6984
G1 X65.06 Y98.838 E83.77005
G1 X64.563 Y99.049 E83.83039
G1 X64.544 Y99.079 E83.83436
G1 X64.092 Y99.217 E83.88718
G1 X63.65 Y99.29 E83.93724
G1 X63.182 Y99.273 E83.98958
G1 X62.732 Y99.178 E84.04097
