;FLAVOR:Marlin
;TIME:18035
;Filament used: 9.06928m
;Layer height: 0.28
;MINX:23.35
;MINY:18.577
;MINZ:0.336
;MAXX:207.482
;MAXY:202.65
;MAXZ:4.686
;TARGET_MACHINE.NAME:Creality Ender-3 S1 Pro
;Generated with Cura_SteamEngine 5.8.0
M82 ;absolute extrusion mode
; Ender 3 S1 Pro Start G-code
; M413 S0 ; Disable power loss recovery
G92 E0 ; Reset Extruder

; Prep surfaces before auto home for better accuracy
M140 S60
M104 S210.0

G28 ; Home all axes
G1 Z10.0 F3000 ; Move Z Axis up little to prevent scratching of Heat Bed
G1 X0 Y0

M190 S60
M109 S210.0

G1 X0.1 Y20 Z0.3 F5000.0 ; Move to start position
G1 X0.1 Y200.0 Z0.3 F1500.0 E15 ; Draw the first line
G1 X0.4 Y200.0 Z0.3 F5000.0 ; Move to side a little
G1 X0.4 Y20 Z0.3 F1500.0 E30 ; Draw the second line
G92 E0 ; Reset Extruder
G1 Z2.0 F3000 ; Move Z Axis up little to prevent scratching of Heat Bed
G1 X5 Y20 Z0.3 F5000.0 ; Move over to prevent blob squish

G92 E0
G92 E0
G1 F2400 E-0.8
;LAYER_COUNT:14
;LAYER:-3
M107
M204 S2000
G0 F7200 X121.152 Y75.726 Z0.336
M204 S500
;TYPE:SUPPORT-INTERFACE
G1 F2400 E0
G1 F675 X120.812 Y76.308 E0.07533
G1 X120.542 Y76.939 E0.15203
G1 X120.33 Y77.741 E0.24473
G1 X120.3 Y77.916 E0.26457
G1 X120.181 Y78.217 E0.30075
G1 X119.9 Y78.617 E0.35538
G1 X118.819 Y79.698 E0.52622
G1 X118.395 Y80.179 E0.59788
G1 X118.008 Y80.748 E0.67478
G1 X117.7 Y81.348 E0.75015
G1 X117.453 Y82.025 E0.83069
G1 X117.303 Y82.719 E0.91003
G1 X117.248 Y83.412 E0.98772
G1 X117.275 Y84.064 E1.06065
G1 X117.388 Y84.727 E1.13581
G1 X117.581 Y85.387 E1.21266
G1 X117.846 Y85.988 E1.28606
G1 X118.197 Y86.571 E1.36211
G1 X118.797 Y87.294 E1.46711
G1 X143.577 Y112.083 E5.38415
G1 X144.065 Y112.51 E5.45662
G1 X144.667 Y112.921 E5.53808
G1 X145.284 Y113.228 E5.61509
G1 X145.917 Y113.455 E5.69024
G1 X146.568 Y113.597 E5.76471
G1 X147.253 Y113.656 E5.84154
G1 X147.951 Y113.634 E5.91959
G1 X148.578 Y113.53 E5.99061
G1 X149.268 Y113.328 E6.07096
G1 X149.891 Y113.049 E6.14724
G1 X150.464 Y112.703 E6.22205
G1 X151.184 Y112.106 E6.32657
G1 X158.995 Y104.299 E7.56074
G1 X159.423 Y103.812 E7.6332
G1 X159.829 Y103.218 E7.7136
G1 X160.135 Y102.616 E7.78907
G1 X160.369 Y101.963 E7.86659
G1 X160.516 Y101.284 E7.94423
G1 X160.572 Y100.606 E8.02026
G1 X160.543 Y99.896 E8.09967
G1 X160.439 Y99.286 E8.16882
G1 X160.227 Y98.578 E8.25141
G1 X159.984 Y98.027 E8.31871
G1 X159.599 Y97.392 E8.4017
G1 X159.024 Y96.7 E8.50225
G1 X134.225 Y71.895 E12.42206
G1 X133.757 Y71.483 E12.49174
G1 X133.165 Y71.081 E12.57171
G1 X132.522 Y70.758 E12.65212
G1 X131.907 Y70.542 E12.72497
G1 X131.231 Y70.396 E12.80225
G1 X130.576 Y70.337 E12.87575
G1 X129.871 Y70.362 E12.95459
G1 X129.202 Y70.476 E13.03043
G1 X128.549 Y70.669 E13.10652
G1 X127.962 Y70.929 E13.17827
G1 X127.325 Y71.314 E13.26145
G1 X126.643 Y71.885 E13.36085
G1 X125.619 Y72.898 E13.52182
G1 X125.266 Y73.203 E13.57396
G1 X124.906 Y73.362 E13.61794
G1 X124.444 Y73.465 E13.67083
G1 X123.798 Y73.657 E13.74615
G1 X123.161 Y73.934 E13.82378
G1 X122.579 Y74.283 E13.89961
G1 X122.058 Y74.692 E13.97364
G1 X121.562 Y75.188 E14.05203
G1 X121.152 Y75.726 E14.12762
M204 S2000
G1 F2400 E13.32762
G0 F7200 X31.719 Y22.767
M204 S500
G1 F2400 E14.12762
G1 F675 X31.96 Y22.523 E14.16594
G1 X32.276 Y22.301 E14.2091
G1 X32.633 Y22.179 E14.25126
G1 X32.918 Y22.134 E14.28351
G1 X33.207 Y22.148 E14.31584
G1 X33.888 Y22.215 E14.39232
G1 X34.571 Y22.2 E14.46866
G1 X35.274 Y22.087 E14.54823
G1 X35.923 Y21.902 E14.62365
G1 X36.572 Y21.621 E14.70269
G1 X37.112 Y21.301 E14.77283
G1 X37.641 Y20.897 E14.84722
G1 X38.214 Y20.32 E14.9381
G1 X38.363 Y20.149 E14.96344
G1 X38.731 Y19.833 E15.01765
G1 X39.076 Y19.703 E15.05885
G1 X39.397 Y19.644 E15.09532
G1 X39.704 Y19.644 E15.12963
G1 X40.187 Y19.77 E15.18542
G1 X81.306 Y38.947 E20.25581
G1 X81.963 Y39.198 E20.33441
G1 X82.604 Y39.361 E20.40832
G1 X83.293 Y39.444 E20.48588
G1 X84.001 Y39.435 E20.56501
G1 X84.677 Y39.342 E20.64127
G1 X85.281 Y39.179 E20.71118
G1 X85.914 Y38.926 E20.78736
G1 X86.555 Y38.563 E20.86968
G1 X87.083 Y38.168 E20.94337
G1 X87.583 Y37.687 E21.02091
G1 X87.99 Y37.177 E21.09383
G1 X88.475 Y36.354 E21.20058
G1 X91.309 Y30.274 E21.95024
G1 X91.531 Y29.875 E22.00126
G1 X91.772 Y29.631 E22.03959
G1 X92.077 Y29.417 E22.08123
G1 X92.407 Y29.293 E22.12062
G1 X92.688 Y29.248 E22.15243
G1 X92.957 Y29.249 E22.18249
G1 X93.607 Y29.343 E22.25589
G1 X94.28 Y29.372 E22.33117
G1 X94.961 Y29.319 E22.4075
G1 X95.677 Y29.164 E22.48937
G1 X96.325 Y28.933 E22.56625
G1 X96.937 Y28.62 E22.64307
G1 X97.469 Y28.26 E22.71486
G1 X98.003 Y27.788 E22.7945
G1 X98.494 Y27.255 E22.87549
G1 X98.81 Y27.043 E22.91801
G1 X99.145 Y26.905 E22.9585
G1 X99.425 Y26.861 E22.99018
G1 X99.727 Y26.864 E23.02393
G1 X100.216 Y26.991 E23.08039
G1 X140.222 Y45.645 E28.01336
G1 X140.607 Y45.857 E28.06247
G1 X140.898 Y46.149 E28.10854
G1 X141.045 Y46.364 E28.13765
G1 X141.2 Y46.715 E28.18053
G1 X141.248 Y47.016 E28.21459
G1 X141.248 Y47.298 E28.24611
G1 X141.208 Y47.56 E28.27573
G1 X141.138 Y48.213 E28.34912
G1 X141.156 Y48.946 E28.43106
G1 X141.252 Y49.562 E28.50073
G1 X141.405 Y50.137 E28.56723
G1 X141.69 Y50.83 E28.65097
G1 X142.075 Y51.485 E28.73587
G1 X142.463 Y51.989 E28.80695
G1 X143.188 Y52.699 E28.92036
G1 X143.406 Y53 E28.96189
G1 X143.532 Y53.29 E28.99723
G1 X143.603 Y53.639 E29.03703
G1 X143.6 Y53.955 E29.07234
G1 X143.477 Y54.436 E29.12783
G1 X141.525 Y58.618 E29.64359
G1 X141.267 Y59.282 E29.7232
G1 X141.112 Y59.903 E29.79472
G1 X141.028 Y60.602 E29.8734
G1 X141.039 Y61.328 E29.95455
G1 X141.131 Y61.971 E30.02713
G1 X141.3 Y62.616 E30.10165
G1 X141.563 Y63.257 E30.17908
G1 X141.893 Y63.84 E30.25394
G1 X142.302 Y64.391 E30.33063
G1 X142.589 Y64.703 E30.37801
G1 X161.371 Y83.489 E33.34671
G1 X161.839 Y83.901 E33.41639
G1 X162.408 Y84.288 E33.49329
G1 X163.074 Y84.626 E33.57675
G1 X163.662 Y84.834 E33.64646
G1 X164.388 Y84.991 E33.72946
G1 X165.02 Y85.047 E33.80037
G1 X165.724 Y85.022 E33.87909
G1 X166.364 Y84.916 E33.95159
G1 X167.011 Y84.727 E34.02692
G1 X167.435 Y84.549 E34.07831
G1 X171.478 Y82.668 E34.57664
G1 X171.896 Y82.504 E34.62682
G1 X172.312 Y82.462 E34.67354
G1 X172.592 Y82.491 E34.705
G1 X172.931 Y82.597 E34.74469
G1 X173.231 Y82.765 E34.78312
G1 X173.422 Y82.934 E34.81162
G1 X173.997 Y83.532 E34.90433
G1 X174.505 Y83.944 E34.97743
G1 X175.093 Y84.303 E35.05442
G1 X175.753 Y84.603 E35.13544
G1 X176.399 Y84.795 E35.21075
G1 X177.019 Y84.903 E35.28108
G1 X177.759 Y84.935 E35.36386
G1 X178.969 Y84.814 E35.49975
G1 X179.264 Y84.856 E35.53305
G1 X179.555 Y84.953 E35.56733
G1 X179.818 Y85.097 E35.60084
G1 X180.075 Y85.311 E35.63822
G1 X180.368 Y85.726 E35.69499
G1 X199.004 Y125.687 E40.62255
G1 X199.12 Y125.977 E40.65745
G1 X199.199 Y126.259 E40.69018
G1 X199.218 Y126.566 E40.72455
G1 X199.18 Y126.854 E40.75702
G1 X199.083 Y127.148 E40.79161
G1 X198.919 Y127.446 E40.82963
G1 X198.709 Y127.68 E40.86476
G1 X198.579 Y127.79 E40.8838
G1 X198.135 Y128.214 E40.9524
G1 X197.682 Y128.779 E41.03333
G1 X197.306 Y129.4 E41.11446
G1 X197.034 Y130.01 E41.1891
G1 X196.849 Y130.605 E41.25874
G1 X196.733 Y131.268 E41.33396
G1 X196.7 Y131.958 E41.41115
G1 X196.773 Y132.789 E41.50438
G1 X196.84 Y133.231 E41.55434
G1 X196.792 Y133.59 E41.59482
G1 X196.681 Y133.928 E41.63457
G1 X196.533 Y134.174 E41.66666
G1 X196.332 Y134.413 E41.70156
G1 X195.915 Y134.704 E41.75838
G1 X189.738 Y137.585 E42.52008
G1 X189.156 Y137.901 E42.59409
G1 X188.578 Y138.323 E42.67407
G1 X188.063 Y138.802 E42.75267
G1 X187.667 Y139.283 E42.82229
G1 X187.277 Y139.894 E42.9033
G1 X186.99 Y140.515 E42.97975
G1 X186.78 Y141.171 E43.05673
G1 X186.66 Y141.817 E43.13015
G1 X186.62 Y142.497 E43.20628
G1 X186.661 Y143.164 E43.28096
G1 X186.804 Y143.879 E43.36245
G1 X187.107 Y144.724 E43.46277
G1 X206.224 Y185.715 E48.51736
G1 X206.339 Y186.003 E48.55202
G1 X206.415 Y186.285 E48.58466
G1 X206.434 Y186.594 E48.61926
G1 X206.396 Y186.882 E48.65172
G1 X206.282 Y187.226 E48.69222
G1 X206.111 Y187.505 E48.72879
G1 X205.925 Y187.708 E48.75956
G1 X205.724 Y187.881 E48.78919
G1 X205.252 Y188.341 E48.86285
G1 X204.846 Y188.847 E48.93535
G1 X204.483 Y189.429 E49.012
G1 X204.185 Y190.091 E49.09314
G1 X203.989 Y190.745 E49.16943
G1 X203.885 Y191.361 E49.23925
G1 X203.852 Y192.054 E49.31678
G1 X203.941 Y193.109 E49.4351
G1 X203.9 Y193.405 E49.4685
G1 X203.786 Y193.754 E49.50953
G1 X203.613 Y194.036 E49.5465
G1 X203.444 Y194.226 E49.57492
G1 X203.028 Y194.515 E49.63152
G1 X188.323 Y201.377 E51.44499
G1 X187.908 Y201.547 E51.4951
G1 X187.478 Y201.586 E51.54336
G1 X187.139 Y201.546 E51.5815
G1 X186.827 Y201.449 E51.61802
G1 X186.455 Y201.212 E51.66731
G1 X185.871 Y200.612 E51.76088
G1 X185.342 Y200.187 E51.83671
G1 X184.763 Y199.833 E51.91255
G1 X184.115 Y199.539 E51.99208
G1 X183.473 Y199.345 E52.06703
G1 X182.825 Y199.233 E52.14052
G1 X182.156 Y199.204 E52.21535
G1 X181.496 Y199.251 E52.28929
G1 X181.049 Y199.298 E52.33952
G1 X180.61 Y199.231 E52.38915
G1 X180.211 Y199.024 E52.43939
G1 X179.934 Y198.794 E52.47962
G1 X179.644 Y198.379 E52.5362
G1 X176.563 Y191.778 E53.35029
G1 X176.252 Y191.204 E53.42324
G1 X175.831 Y190.617 E53.50397
G1 X175.355 Y190.116 E53.5812
G1 X174.857 Y189.699 E53.65379
G1 X174.274 Y189.333 E53.73072
G1 X173.651 Y189.038 E53.80775
G1 X173.002 Y188.83 E53.88391
G1 X172.374 Y188.71 E53.95536
G1 X171.665 Y188.664 E54.03476
G1 X170.983 Y188.706 E54.11113
G1 X170.273 Y188.848 E54.19204
G1 X169.423 Y189.155 E54.29304
G1 X157.187 Y194.861 E55.80184
G1 X156.772 Y195.031 E55.85195
G1 X156.34 Y195.073 E55.90046
G1 X155.889 Y195.021 E55.95119
G1 X155.46 Y194.793 E56.00549
G1 X155.194 Y194.574 E56.04399
G1 X154.909 Y194.16 E56.10016
G1 X148.147 Y179.67 E57.88712
G1 X147.841 Y179.098 E57.95962
G1 X147.439 Y178.543 E58.0362
G1 X147.095 Y178.154 E58.09424
G1 X145.838 Y176.895 E58.29306
G1 X145.549 Y176.562 E58.34233
G1 X145.381 Y176.214 E58.38552
G1 X145.142 Y175.585 E58.46071
G1 X144.824 Y174.982 E58.5369
G1 X144.44 Y174.438 E58.61131
G1 X143.998 Y173.951 E58.68481
G1 X143.447 Y173.478 E58.76596
G1 X142.883 Y173.114 E58.84098
G1 X142.318 Y172.833 E58.9115
G1 X141.651 Y172.586 E58.99098
G1 X141.227 Y172.288 E59.0489
G1 X129.9 Y160.958 E60.8393
G1 X129.619 Y160.638 E60.88689
G1 X129.445 Y160.266 E60.93279
G1 X129.368 Y159.919 E60.97251
G1 X129.361 Y159.586 E61.00973
G1 X129.409 Y159.336 E61.03818
G1 X129.459 Y159.182 E61.05628
G1 X129.616 Y158.568 E61.1271
G1 X129.705 Y157.895 E61.20297
G1 X129.703 Y157.175 E61.28343
G1 X129.615 Y156.492 E61.36039
G1 X129.446 Y155.854 E61.43415
G1 X129.231 Y155.298 E61.50077
G1 X128.861 Y154.62 E61.58708
G1 X128.438 Y154.048 E61.66659
G1 X127.992 Y153.582 E61.73867
G1 X127.441 Y153.128 E61.81846
G1 X126.876 Y152.785 E61.89233
G1 X126.245 Y152.491 E61.97012
G1 X125.579 Y152.284 E62.04806
G1 X124.928 Y152.169 E62.12194
G1 X124.232 Y152.136 E62.19981
G1 X123.544 Y152.194 E62.27697
G1 X122.294 Y152.481 E62.42029
G1 X121.984 Y152.494 E62.45497
G1 X121.67 Y152.437 E62.49063
G1 X121.4 Y152.326 E62.52326
G1 X120.981 Y152.039 E62.58001
G1 X117.382 Y148.439 E63.14889
G1 X117.12 Y148.135 E63.19374
G1 X116.923 Y147.729 E63.24417
G1 X116.864 Y147.457 E63.27528
G1 X116.857 Y147.076 E63.31786
G1 X116.907 Y146.793 E63.34998
G1 X117.019 Y146.52 E63.38296
G1 X117.103 Y146.377 E63.40149
G1 X117.408 Y145.736 E63.48082
G1 X117.608 Y145.14 E63.55108
G1 X117.752 Y144.415 E63.63368
G1 X117.8 Y143.728 E63.71064
G1 X117.758 Y143.055 E63.786
G1 X117.634 Y142.402 E63.86028
G1 X117.417 Y141.733 E63.93888
G1 X116.897 Y140.66 E64.07213
G1 X116.831 Y140.359 E64.10656
G1 X116.821 Y139.98 E64.14893
G1 X116.871 Y139.711 E64.17951
G1 X116.983 Y139.427 E64.21363
G1 X117.268 Y139.018 E64.26934
G1 X133.915 Y122.372 E66.90022
G1 X134.348 Y121.882 E66.9733
G1 X134.738 Y121.309 E67.05076
G1 X135.051 Y120.696 E67.12767
G1 X135.288 Y120.032 E67.20646
G1 X135.43 Y119.347 E67.28464
G1 X135.483 Y118.71 E67.35608
G1 X135.456 Y117.983 E67.43738
G1 X135.355 Y117.378 E67.50592
G1 X135.142 Y116.656 E67.59005
G1 X134.89 Y116.092 E67.65908
G1 X134.53 Y115.495 E67.73699
G1 X133.916 Y114.757 E67.84428
G1 X132.484 Y113.321 E68.07091
G1 X132.001 Y112.895 E68.14289
G1 X131.429 Y112.504 E68.22032
G1 X130.78 Y112.175 E68.30163
G1 X130.18 Y111.959 E68.3729
G1 X129.503 Y111.812 E68.45032
G1 X128.828 Y111.749 E68.52608
G1 X128.102 Y111.777 E68.60727
G1 X127.449 Y111.888 E68.6813
G1 X126.77 Y112.093 E68.76056
G1 X126.178 Y112.355 E68.83291
G1 X125.565 Y112.731 E68.91327
G1 X124.858 Y113.323 E69.01632
G1 X104.062 Y134.119 E72.30301
G1 X103.739 Y134.401 E72.35093
G1 X103.347 Y134.586 E72.39937
G1 X103.046 Y134.649 E72.43373
G1 X102.73 Y134.662 E72.46908
G1 X102.257 Y134.562 E72.52311
G1 X101.748 Y134.221 E72.59158
G1 X91.912 Y124.382 E74.14633
G1 X91.63 Y124.061 E74.19408
G1 X91.454 Y123.69 E74.23997
G1 X91.38 Y123.345 E74.27941
G1 X91.373 Y123.011 E74.31674
G1 X91.416 Y122.768 E74.34432
G1 X91.537 Y122.453 E74.38203
G1 X91.82 Y122.046 E74.43743
G1 X112.695 Y101.175 E77.73628
G1 X113.134 Y100.677 E77.81047
G1 X113.535 Y100.088 E77.8901
G1 X113.826 Y99.512 E77.96222
G1 X114.065 Y98.856 E78.04024
G1 X114.223 Y98.126 E78.12371
G1 X114.275 Y97.498 E78.19414
G1 X114.247 Y96.766 E78.276
G1 X114.147 Y96.166 E78.34398
G1 X113.931 Y95.446 E78.42798
G1 X113.695 Y94.91 E78.49343
G1 X113.308 Y94.262 E78.57778
G1 X112.731 Y93.571 E78.67838
G1 X111.273 Y92.11 E78.90905
G1 X110.763 Y91.663 E78.98484
G1 X110.195 Y91.278 E79.06152
G1 X109.594 Y90.975 E79.13674
G1 X108.937 Y90.74 E79.21472
G1 X108.281 Y90.597 E79.28975
G1 X107.596 Y90.54 E79.36657
G1 X106.929 Y90.564 E79.44115
G1 X106.264 Y90.673 E79.51646
G1 X105.597 Y90.869 E79.59415
G1 X104.988 Y91.138 E79.66855
G1 X104.381 Y91.503 E79.74771
G1 X103.68 Y92.084 E79.84946
G1 X89.263 Y106.495 E82.12751
G1 X88.9 Y106.808 E82.18107
G1 X88.547 Y106.96 E82.22402
G1 X88.121 Y107.047 E82.27261
G1 X87.648 Y106.981 E82.32598
G1 X87.337 Y106.863 E82.36316
G1 X86.93 Y106.58 E82.41856
G1 X79.881 Y99.531 E83.53261
G1 X79.413 Y99.119 E83.60229
G1 X78.815 Y98.71 E83.68325
G1 X78.198 Y98.4 E83.76042
G1 X77.591 Y98.183 E83.83246
G1 X76.887 Y98.027 E83.91304
G1 X76.227 Y97.972 E83.98705
G1 X75.535 Y97.997 E84.06444
G1 X75.145 Y98.058 E84.10855
G1 X74.767 Y98.094 E84.15099
G1 X74.437 Y98.059 E84.18807
G1 X74.068 Y97.921 E84.2321
G1 X73.531 Y97.61 E84.30145
G1 X72.926 Y97.34 E84.37549
G1 X72.287 Y97.148 E84.45005
G1 X71.599 Y97.033 E84.52801
G1 X70.905 Y97.009 E84.60561
G1 X70.204 Y97.072 E84.68426
G1 X69.607 Y97.2 E84.7525
G1 X68.953 Y97.431 E84.83001
G1 X68.087 Y97.859 E84.93796
G1 X67.617 Y97.955 E84.99157
G1 X67.144 Y97.889 E85.04494
G1 X66.833 Y97.771 E85.08212
G1 X66.426 Y97.488 E85.13752
G1 X53.866 Y84.923 E87.12295
G1 X53.585 Y84.598 E87.17096
G1 X53.371 Y84.128 E87.22867
G1 X53.209 Y83.679 E87.28202
G1 X52.872 Y83.034 E87.36334
G1 X52.491 Y82.485 E87.43802
G1 X52.016 Y81.965 E87.51673
G1 X51.515 Y81.535 E87.59051
G1 X50.939 Y81.159 E87.66738
G1 X50.345 Y80.865 E87.74145
G1 X49.71 Y80.63 E87.81712
G1 X49.262 Y80.319 E87.87807
G1 X47.931 Y78.992 E88.08811
G1 X47.412 Y78.537 E88.16524
G1 X46.884 Y78.177 E88.23666
G1 X46.406 Y77.925 E88.29704
G1 X32.049 Y71.226 E90.06756
G1 X31.636 Y71.001 E90.12012
G1 X31.349 Y70.711 E90.16572
G1 X31.211 Y70.511 E90.19287
G1 X31.073 Y70.2 E90.2309
G1 X31.004 Y69.838 E90.27208
G1 X31.004 Y69.538 E90.30561
G1 X31.138 Y69.051 E90.36205
G1 X36.907 Y56.673 E91.88821
G1 X37.146 Y56.06 E91.96173
G1 X37.32 Y55.381 E92.04007
G1 X37.4 Y54.694 E92.11736
G1 X37.391 Y53.986 E92.19649
G1 X37.299 Y53.317 E92.27196
G1 X37.13 Y52.688 E92.34474
G1 X36.869 Y52.041 E92.42271
G1 X36.509 Y51.415 E92.50341
G1 X36.149 Y50.935 E92.57046
G1 X35.649 Y50.41 E92.65148
G1 X35.103 Y49.976 E92.72943
G1 X34.326 Y49.522 E92.83
G1 X27.822 Y46.487 E93.63209
G1 X27.377 Y46.241 E93.68891
G1 X27.039 Y45.88 E93.74418
G1 X26.853 Y45.463 E93.79521
G1 X26.784 Y45.098 E93.83672
G1 X26.784 Y44.83 E93.86667
G1 X26.866 Y44.054 E93.95387
G1 X26.844 Y43.316 E94.03638
G1 X26.741 Y42.652 E94.11148
G1 X26.569 Y42.06 E94.18037
G1 X26.266 Y41.366 E94.265
G1 X25.925 Y40.787 E94.34009
G1 X25.529 Y40.278 E94.41216
G1 X24.832 Y39.574 E94.52287
G1 X24.695 Y39.366 E94.55071
G1 X24.549 Y39.018 E94.59288
