;FLAVOR:Marlin
;TIME:30167
;Filament used: 14.0803m
;Layer height: 0.28
;MINX:2.134
;MINY:4.956
;MINZ:0.28
;MAXX:214.371
;MAXY:216.963
;MAXZ:12.88
;TARGET_MACHINE.NAME:Creality Ender-3 S1 Pro
;Generated with Cura_SteamEngine 5.8.0
M82 ;absolute extrusion mode
; Ender 3 S1 Pro Start G-code
; M413 S0 ; Disable power loss recovery
G92 E0 ; Reset Extruder

; Prep surfaces before auto home for better accuracy
M140 S60
M104 S200

G28 ; Home all axes
G1 Z10.0 F3000 ; Move Z Axis up little to prevent scratching of Heat Bed
G1 X0 Y0

M190 S60
M109 S200

G1 X0.1 Y20 Z0.3 F5000.0 ; Move to start position
G1 X0.1 Y200.0 Z0.3 F1500.0 E15 ; Draw the first line
G1 X0.4 Y200.0 Z0.3 F5000.0 ; Move to side a little
G1 X0.4 Y20 Z0.3 F1500.0 E30 ; Draw the second line
G92 E0 ; Reset Extruder
G1 Z2.0 F3000 ; Move Z Axis up little to prevent scratching of Heat Bed
G1 X5 Y20 Z0.3 F5000.0 ; Move over to prevent blob squish

G92 E0
G92 E0
G1 F2400 E-0.8
;LAYER_COUNT:46
;LAYER:0
M107
M204 S2000
G0 F7200 X64.825 Y45.739 Z0.28
M204 S500
;TYPE:SKIRT
G1 F2400 E0
G1 F1500 X66.242 Y43.664 E0.117
G1 X67.813 Y41.206 E0.25284
G1 X68.377 Y40.411 E0.29822
G1 X69.007 Y39.67 E0.34351
G1 X69.701 Y38.987 E0.38885
G1 X70.425 Y38.388 E0.43261
G1 X71.246 Y37.773 E0.48037
G1 X71.901 Y37.311 E0.5177
G1 X72.689 Y36.805 E0.5613
G1 X73.447 Y36.402 E0.60128
G1 X74.048 Y36.111 E0.63237
G1 X104.98 Y21.689 E2.22155
G1 X105.674 Y21.378 E2.25697
G1 X106.574 Y21.023 E2.30202
G1 X107.347 Y20.788 E2.33964
G1 X108.058 Y20.602 E2.37386
G1 X109.034 Y20.372 E2.42055
G1 X109.992 Y20.196 E2.46591
G1 X110.961 Y20.106 E2.51122
G1 X111.938 Y20.101 E2.55671
G1 X112.925 Y20.186 E2.60284
G1 X113.96 Y20.329 E2.65149
G1 X115.311 Y20.548 E2.71522
G1 X117.932 Y20.937 E2.83861
G1 X120.436 Y21.237 E2.95604
G1 X122.912 Y21.462 E3.0718
G1 X125.416 Y21.618 E3.18863
G1 X127.95 Y21.704 E3.30669
G1 X130.478 Y21.719 E3.42441
G1 X132.971 Y21.663 E3.54052
G1 X135.501 Y21.533 E3.65848
G1 X138.001 Y21.336 E3.77525
G1 X140.515 Y21.065 E3.89299
G1 X143.002 Y20.725 E4.00988
G1 X145.485 Y20.315 E4.12706
G1 X147.953 Y19.836 E4.24413
G1 X150.399 Y19.287 E4.36085
G1 X152.822 Y18.671 E4.47727
G1 X155.298 Y17.966 E4.59714
G1 X157.679 Y17.216 E4.71338
G1 X160.094 Y16.38 E4.83238
G1 X162.406 Y15.503 E4.94752
G1 X164.718 Y14.552 E5.06393
G1 X167.437 Y13.336 E5.20263
G1 X181.98 Y6.555 E5.9498
G1 X182.711 Y6.228 E5.98709
G1 X183.613 Y5.873 E6.03223
G1 X184.396 Y5.637 E6.07031
G1 X185.334 Y5.394 E6.11543
G1 X186.054 Y5.228 E6.14983
G1 X187.012 Y5.052 E6.19519
G1 X187.982 Y4.961 E6.24056
G1 X188.957 Y4.956 E6.28596
G1 X189.905 Y5.035 E6.33025
G1 X190.982 Y5.181 E6.38086
G1 X191.715 Y5.301 E6.41545
G1 X192.685 Y5.507 E6.46162
G1 X193.616 Y5.793 E6.50697
G1 X194.487 Y6.146 E6.55073
G1 X195.459 Y6.648 E6.60167
G1 X196.302 Y7.144 E6.64722
G1 X196.945 Y7.543 E6.68245
G1 X197.762 Y8.104 E6.7286
G1 X198.512 Y8.723 E6.77388
G1 X199.157 Y9.355 E6.81593
G1 X199.913 Y10.253 E6.87059
G1 X200.333 Y10.809 E6.90304
G1 X200.955 Y11.677 E6.95276
G1 X201.48 Y12.491 E6.99786
G1 X201.872 Y13.224 E7.03657
G1 X202.18 Y13.858 E7.06939
G1 X212.711 Y36.439 E8.22958
G1 X213.097 Y37.299 E8.27348
G1 X213.452 Y38.2 E8.31857
G1 X213.683 Y38.96 E8.35556
G1 X213.86 Y39.635 E8.38805
G1 X214.101 Y40.656 E8.4369
G1 X214.276 Y41.612 E8.48215
G1 X214.367 Y42.583 E8.52757
G1 X214.371 Y43.559 E8.57301
G1 X214.291 Y44.507 E8.61731
G1 X214.145 Y45.58 E8.66774
G1 X214.024 Y46.316 E8.70247
G1 X213.817 Y47.286 E8.74865
G1 X213.525 Y48.233 E8.7948
G1 X212.997 Y49.462 E8.85708
G1 X212.42 Y50.597 E8.91637
G1 X211.252 Y52.967 E9.0394
G1 X210.2 Y55.262 E9.15696
G1 X209.222 Y57.569 E9.27363
G1 X208.302 Y59.922 E9.39128
G1 X207.45 Y62.294 E9.50864
G1 X206.674 Y64.672 E9.62511
G1 X205.961 Y67.078 E9.74196
G1 X205.31 Y69.524 E9.85982
G1 X204.64 Y72.377 E9.99628
G1 X204.373 Y73.313 E10.04161
G1 X204.035 Y74.196 E10.08563
G1 X203.449 Y75.357 E10.14619
G1 X202.939 Y76.221 E10.19291
G1 X202.545 Y76.858 E10.22778
G1 X201.993 Y77.662 E10.2732
G1 X201.373 Y78.412 E10.31851
G1 X200.684 Y79.111 E10.36421
G1 X199.828 Y79.826 E10.41614
G1 X199.021 Y80.43 E10.46308
G1 X198.426 Y80.853 E10.49707
G1 X197.615 Y81.376 E10.54201
G1 X196.972 Y81.723 E10.57603
G1 X194.093 Y83.157 E10.7258
G1 X191.874 Y84.349 E10.84309
G1 X189.68 Y85.608 E10.96088
G1 X187.539 Y86.918 E11.07775
G1 X185.446 Y88.283 E11.1941
G1 X183.373 Y89.719 E11.31153
G1 X181.305 Y91.238 E11.43101
G1 X179.377 Y92.742 E11.54487
G1 X177.437 Y94.346 E11.66208
G1 X175.519 Y96.026 E11.78081
G1 X173.643 Y97.761 E11.8998
G1 X172.088 Y99.28 E12.00102
G1 X96.723 Y174.644 E16.9639
G1 X94.889 Y176.532 E17.08646
G1 X93.173 Y178.4 E17.20457
G1 X91.543 Y180.278 E17.32036
G1 X89.928 Y182.249 E17.43902
G1 X88.399 Y184.227 E17.55543
G1 X86.92 Y186.258 E17.67242
G1 X85.497 Y188.332 E17.78954
G1 X84.117 Y190.468 E17.90795
G1 X82.836 Y192.584 E18.02313
G1 X81.575 Y194.803 E18.14198
G1 X80.396 Y197.021 E18.25894
G1 X79.134 Y199.565 E18.39117
G1 X78.682 Y200.382 E18.43465
G1 X78.297 Y200.97 E18.46738
G1 X77.71 Y201.796 E18.51456
G1 X77.263 Y202.392 E18.54925
G1 X76.691 Y203.091 E18.59131
G1 X75.957 Y203.838 E18.64008
G1 X75.213 Y204.469 E18.6855
G1 X74.414 Y205.033 E18.73104
G1 X73.485 Y205.618 E18.78216
G1 X72.858 Y205.99 E18.81611
G1 X71.998 Y206.446 E18.86144
G1 X71.085 Y206.83 E18.90756
G1 X69.746 Y207.233 E18.97267
G1 X68.662 Y207.483 E19.02447
G1 X66.161 Y208.096 E19.14437
G1 X63.694 Y208.774 E19.26351
G1 X61.354 Y209.492 E19.37748
G1 X58.93 Y210.31 E19.49661
G1 X56.57 Y211.18 E19.61373
G1 X54.274 Y212.102 E19.72894
G1 X51.908 Y213.132 E19.84909
G1 X49.687 Y214.172 E19.96329
G1 X47.559 Y215.254 E20.07445
G1 X46.846 Y215.605 E20.11146
G1 X45.954 Y215.995 E20.15679
G1 X45.028 Y216.305 E20.20226
G1 X44.038 Y216.54 E20.24964
G1 X43.019 Y216.727 E20.29788
G1 X42.276 Y216.843 E20.3329
G1 X41.307 Y216.946 E20.37827
G1 X40.335 Y216.963 E20.42354
G1 X39.362 Y216.895 E20.46896
G1 X38.414 Y216.743 E20.51366
G1 X37.426 Y216.536 E20.56067
G1 X36.65 Y216.348 E20.59785
G1 X35.722 Y216.078 E20.64285
G1 X34.991 Y215.802 E20.67923
G1 X34.243 Y215.486 E20.71704
G1 X11.101 Y205.289 E21.8946
G1 X10.414 Y204.974 E21.92979
G1 X9.548 Y204.528 E21.97515
G1 X8.731 Y204.012 E22.02015
G1 X8.145 Y203.574 E22.05421
G1 X7.517 Y203.067 E22.0918
G1 X6.753 Y202.426 E22.13823
G1 X6.088 Y201.815 E22.18029
G1 X5.385 Y201.041 E22.22897
G1 X4.797 Y200.264 E22.27435
G1 X4.316 Y199.5 E22.31638
G1 X4.061 Y199.028 E22.34136
G1 X3.527 Y197.972 E22.39647
G1 X3.236 Y197.359 E22.42806
G1 X2.873 Y196.494 E22.47174
G1 X2.567 Y195.532 E22.51875
G1 X2.355 Y194.568 E22.56471
G1 X2.203 Y193.262 E22.62593
G1 X2.154 Y192.252 E22.67302
G1 X2.134 Y191.388 E22.71326
G1 X2.156 Y190.416 E22.75853
G1 X2.26 Y189.483 E22.80225
G1 X2.454 Y188.52 E22.84799
G1 X2.876 Y187.178 E22.91349
G1 X3.191 Y186.369 E22.95392
G1 X3.588 Y185.416 E23.00199
G1 X3.98 Y184.541 E23.04664
G1 X10.774 Y169.972 E23.79517
G1 X11.843 Y167.592 E23.91666
G1 X12.801 Y165.286 E24.03293
G1 X13.706 Y162.925 E24.15067
G1 X14.537 Y160.556 E24.26757
G1 X15.307 Y158.137 E24.38578
G1 X16.007 Y155.711 E24.50335
G1 X16.631 Y153.291 E24.61972
G1 X17.186 Y150.851 E24.73624
G1 X17.684 Y148.345 E24.85521
G1 X18.097 Y145.904 E24.97049
G1 X18.445 Y143.404 E25.08802
G1 X18.726 Y140.887 E25.20595
G1 X18.936 Y138.388 E25.32273
G1 X19.069 Y135.905 E25.43851
G1 X19.137 Y133.336 E25.55818
G1 X19.131 Y130.826 E25.67506
G1 X19.054 Y128.316 E25.79199
G1 X18.909 Y125.83 E25.90794
G1 X18.688 Y123.291 E26.02661
G1 X18.404 Y120.856 E26.14077
G1 X17.846 Y117.157 E26.31496
G1 X17.727 Y116.435 E26.34903
G1 X17.614 Y115.642 E26.38633
G1 X17.521 Y114.672 E26.4317
G1 X17.514 Y113.699 E26.47701
G1 X17.595 Y112.726 E26.52247
G1 X17.774 Y111.693 E26.57129
G1 X17.992 Y110.756 E26.61609
G1 X18.2 Y109.947 E26.65498
G1 X18.464 Y109.084 E26.69701
G1 X18.813 Y108.211 E26.74079
G1 X19.158 Y107.446 E26.77986
G1 X33.47 Y76.756 E28.35667
G1 X33.85 Y75.97 E28.39732
G1 X34.295 Y75.148 E28.44085
G1 X34.74 Y74.461 E28.47896
G1 X35.326 Y73.637 E28.52604
G1 X35.768 Y73.048 E28.56033
G1 X36.363 Y72.324 E28.60397
G1 X37.045 Y71.629 E28.64931
G1 X37.816 Y70.972 E28.69648
G1 X38.63 Y70.398 E28.74286
G1 X39.402 Y69.908 E28.78543
G1 X41.564 Y68.503 E28.9055
G1 X43.632 Y67.074 E29.02254
G1 X45.643 Y65.596 E29.13876
G1 X47.658 Y64.028 E29.25764
G1 X49.592 Y62.435 E29.37431
G1 X51.467 Y60.796 E29.49028
G1 X53.335 Y59.069 E29.60874
G1 X55.129 Y57.314 E29.7256
G1 X56.887 Y55.495 E29.84339
G1 X58.572 Y53.649 E29.95977
G1 X60.237 Y51.717 E30.07853
G1 X61.818 Y49.774 E30.19517
G1 X63.338 Y47.794 E30.3114
G1 X64.825 Y45.739 E30.42952
M204 S2000
G0 F7200 X65.149 Y45.974
M204 S500
G1 F1500 X66.572 Y43.89 E30.54702
G1 X68.14 Y41.437 E30.68259
G1 X68.682 Y40.67 E30.72632
G1 X69.288 Y39.955 E30.76996
G1 X69.956 Y39.295 E30.81369
G1 X70.665 Y38.708 E30.85655
G1 X71.477 Y38.1 E30.90378
G1 X72.117 Y37.648 E30.94027
G1 X72.905 Y37.142 E30.98387
G1 X73.621 Y36.762 E31.02162
G1 X74.217 Y36.474 E31.05244
G1 X105.144 Y22.054 E32.64137
G1 X105.821 Y21.75 E32.67593
G1 X106.691 Y21.406 E32.71949
G1 X107.449 Y21.175 E32.75639
G1 X108.15 Y20.991 E32.79014
G1 X109.107 Y20.765 E32.83593
G1 X110.03 Y20.594 E32.87964
G1 X110.964 Y20.506 E32.92332
G1 X111.904 Y20.5 E32.96709
G1 X112.891 Y20.585 E33.01322
G1 X113.896 Y20.724 E33.06046
G1 X115.252 Y20.944 E33.12443
G1 X117.873 Y21.333 E33.24781
G1 X120.388 Y21.634 E33.36576
G1 X122.887 Y21.861 E33.4826
G1 X125.402 Y22.018 E33.59994
G1 X127.936 Y22.104 E33.718
G1 X130.485 Y22.119 E33.83669
G1 X132.98 Y22.063 E33.9529
G1 X135.532 Y21.932 E34.07189
G1 X138.042 Y21.734 E34.18913
G1 X140.558 Y21.463 E34.30696
G1 X143.067 Y21.12 E34.42488
G1 X145.555 Y20.709 E34.5423
G1 X148.029 Y20.229 E34.65964
G1 X150.498 Y19.675 E34.77747
G1 X152.921 Y19.059 E34.89388
G1 X155.408 Y18.351 E35.01429
G1 X157.799 Y17.598 E35.13102
G1 X160.225 Y16.758 E35.25056
G1 X162.548 Y15.877 E35.36625
G1 X164.87 Y14.922 E35.48316
G1 X167.606 Y13.699 E35.62271
G1 X182.144 Y6.92 E36.36963
G1 X182.858 Y6.6 E36.40607
G1 X183.729 Y6.256 E36.44967
G1 X184.496 Y6.024 E36.48699
G1 X185.424 Y5.784 E36.53162
G1 X186.127 Y5.621 E36.56522
G1 X187.05 Y5.45 E36.60893
G1 X187.985 Y5.361 E36.65267
G1 X188.924 Y5.355 E36.69639
G1 X189.872 Y5.434 E36.74069
G1 X190.917 Y5.576 E36.78979
G1 X191.65 Y5.696 E36.82438
G1 X192.568 Y5.889 E36.86806
G1 X193.466 Y6.164 E36.91179
G1 X194.304 Y6.502 E36.95387
G1 X195.256 Y6.993 E37.00374
G1 X196.091 Y7.484 E37.04885
G1 X196.719 Y7.873 E37.08325
G1 X197.508 Y8.413 E37.12777
G1 X198.232 Y9.009 E37.17143
G1 X198.877 Y9.641 E37.21348
G1 X199.594 Y10.494 E37.26537
G1 X200.008 Y11.042 E37.29735
G1 X200.619 Y11.894 E37.34617
G1 X201.127 Y12.68 E37.38975
G1 X201.512 Y13.399 E37.42772
G1 X201.817 Y14.027 E37.46023
G1 X212.346 Y36.603 E38.62017
G1 X212.725 Y37.446 E38.66321
G1 X213.069 Y38.316 E38.70677
G1 X213.296 Y39.062 E38.74308
G1 X213.471 Y39.727 E38.7751
G1 X213.708 Y40.729 E38.82305
G1 X213.878 Y41.65 E38.86666
G1 X213.967 Y42.585 E38.91039
G1 X213.972 Y43.525 E38.95416
G1 X213.892 Y44.473 E38.99846
G1 X213.75 Y45.515 E39.04743
G1 X213.629 Y46.251 E39.08216
G1 X213.435 Y47.169 E39.12585
G1 X213.157 Y48.075 E39.16998
G1 X212.629 Y49.304 E39.23227
G1 X212.061 Y50.42 E39.29057
G1 X210.893 Y52.79 E39.41361
G1 X209.837 Y55.095 E39.53166
G1 X208.854 Y57.413 E39.6489
G1 X207.925 Y59.787 E39.76761
G1 X207.074 Y62.159 E39.88495
G1 X206.294 Y64.548 E40.00197
G1 X205.574 Y66.975 E40.11985
G1 X204.924 Y69.421 E40.2377
G1 X204.255 Y72.268 E40.37388
G1 X203.999 Y73.17 E40.41754
G1 X203.661 Y74.053 E40.46157
G1 X203.092 Y75.176 E40.52019
G1 X202.599 Y76.011 E40.56534
G1 X202.215 Y76.632 E40.59934
G1 X201.684 Y77.408 E40.64312
G1 X201.088 Y78.132 E40.68679
G1 X200.427 Y78.804 E40.73068
G1 X199.588 Y79.506 E40.78162
G1 X198.789 Y80.104 E40.82809
G1 X198.209 Y80.517 E40.86124
G1 X197.425 Y81.024 E40.90472
G1 X196.794 Y81.365 E40.93812
G1 X193.915 Y82.799 E41.08788
G1 X191.675 Y84.002 E41.20628
G1 X189.481 Y85.261 E41.32407
G1 X187.33 Y86.577 E41.44148
G1 X185.218 Y87.954 E41.55888
G1 X183.145 Y89.39 E41.67631
G1 X181.068 Y90.916 E41.79632
G1 X179.122 Y92.434 E41.91124
G1 X177.173 Y94.045 E42.02899
G1 X175.255 Y95.725 E42.14771
G1 X173.371 Y97.467 E42.26719
G1 X171.808 Y98.994 E42.36894
G1 X96.44 Y174.361 E47.33202
G1 X94.594 Y176.261 E47.45537
G1 X92.878 Y178.129 E47.57348
G1 X91.241 Y180.016 E47.68981
G1 X89.619 Y181.995 E47.80895
G1 X88.083 Y183.982 E47.9259
G1 X86.59 Y186.032 E48.04399
G1 X85.167 Y188.106 E48.16111
G1 X83.781 Y190.251 E48.28002
G1 X82.488 Y192.386 E48.39625
G1 X81.227 Y194.605 E48.51509
G1 X80.043 Y196.833 E48.63258
G1 X78.784 Y199.371 E48.7645
G1 X78.332 Y200.188 E48.80798
G1 X77.971 Y200.738 E48.83861
G1 X77.39 Y201.556 E48.88533
G1 X76.953 Y202.139 E48.91926
G1 X76.381 Y202.838 E48.96131
G1 X75.698 Y203.533 E49.00669
G1 X74.982 Y204.142 E49.05046
G1 X74.183 Y204.706 E49.096
G1 X73.281 Y205.274 E49.14563
G1 X72.67 Y205.637 E49.17872
G1 X71.842 Y206.078 E49.22241
G1 X70.97 Y206.447 E49.2665
G1 X69.656 Y206.843 E49.3304
G1 X68.567 Y207.094 E49.38244
G1 X66.066 Y207.707 E49.50234
G1 X63.588 Y208.389 E49.62202
G1 X61.226 Y209.113 E49.73705
G1 X58.802 Y209.931 E49.85618
G1 X56.421 Y210.809 E49.97434
G1 X54.114 Y211.735 E50.0901
G1 X51.748 Y212.765 E50.21026
G1 X49.506 Y213.815 E50.32554
G1 X47.382 Y214.895 E50.43649
G1 X46.685 Y215.239 E50.47268
G1 X45.826 Y215.616 E50.51636
G1 X44.935 Y215.916 E50.56014
G1 X43.966 Y216.147 E50.60653
G1 X42.957 Y216.332 E50.65429
G1 X42.233 Y216.445 E50.68841
G1 X41.299 Y216.546 E50.73216
G1 X40.362 Y216.564 E50.7758
G1 X39.425 Y216.5 E50.81953
G1 X38.496 Y216.352 E50.86333
G1 X37.52 Y216.147 E50.90977
G1 X36.761 Y215.964 E50.94613
G1 X35.863 Y215.704 E50.98966
G1 X35.147 Y215.434 E51.02529
G1 X34.404 Y215.12 E51.06285
G1 X11.267 Y204.925 E52.24016
G1 X10.596 Y204.618 E52.27452
G1 X9.761 Y204.19 E52.31821
G1 X8.97 Y203.691 E52.36176
G1 X8.396 Y203.263 E52.3951
G1 X7.774 Y202.761 E52.43232
G1 X7.024 Y202.131 E52.47793
G1 X6.359 Y201.52 E52.51998
G1 X5.704 Y200.799 E52.56533
G1 X5.136 Y200.051 E52.60907
G1 X4.655 Y199.287 E52.65111
G1 X4.418 Y198.847 E52.67438
G1 X3.888 Y197.8 E52.72902
G1 X3.605 Y197.204 E52.75974
G1 X3.242 Y196.339 E52.80342
G1 X2.957 Y195.445 E52.84712
G1 X2.752 Y194.522 E52.89114
G1 X2.603 Y193.242 E52.95115
G1 X2.554 Y192.243 E52.99772
G1 X2.534 Y191.397 E53.03713
G1 X2.554 Y190.459 E53.08081
G1 X2.652 Y189.562 E53.12283
G1 X2.846 Y188.599 E53.16857
G1 X3.249 Y187.323 E53.23088
G1 X3.56 Y186.523 E53.27085
G1 X3.953 Y185.58 E53.31842
G1 X4.343 Y184.71 E53.36281
G1 X11.137 Y170.141 E54.11134
G1 X12.208 Y167.756 E54.23308
G1 X13.175 Y165.429 E54.35042
G1 X14.079 Y163.068 E54.46814
G1 X14.914 Y160.688 E54.58559
G1 X15.688 Y158.258 E54.70434
G1 X16.391 Y155.822 E54.8224
G1 X17.018 Y153.391 E54.9393
G1 X17.576 Y150.94 E55.05635
G1 X18.076 Y148.423 E55.17584
G1 X18.491 Y145.971 E55.29164
G1 X18.843 Y143.448 E55.41026
G1 X19.124 Y140.931 E55.52819
G1 X19.334 Y138.421 E55.64548
G1 X19.469 Y135.916 E55.76229
G1 X19.537 Y133.347 E55.88195
G1 X19.531 Y130.825 E55.99939
G1 X19.454 Y128.304 E56.11683
G1 X19.308 Y125.807 E56.2333
G1 X19.086 Y123.256 E56.35254
G1 X18.8 Y120.796 E56.46786
G1 X18.242 Y117.097 E56.64205
G1 X18.123 Y116.378 E56.67598
G1 X18.012 Y115.603 E56.71244
G1 X17.921 Y114.669 E56.75613
G1 X17.913 Y113.731 E56.79981
G1 X17.989 Y112.794 E56.84359
G1 X18.164 Y111.783 E56.89136
G1 X18.379 Y110.856 E56.93567
G1 X18.583 Y110.064 E56.97376
G1 X18.847 Y109.201 E57.01578
G1 X19.177 Y108.376 E57.05715
G1 X19.521 Y107.615 E57.09604
G1 X33.83 Y76.93 E58.67258
G1 X34.202 Y76.16 E58.7124
G1 X34.631 Y75.365 E58.75446
G1 X35.066 Y74.693 E58.79174
G1 X35.646 Y73.877 E58.83835
G1 X36.077 Y73.302 E58.87181
G1 X36.649 Y72.604 E58.91384
G1 X37.331 Y71.909 E58.95918
G1 X38.047 Y71.299 E59.00298
G1 X38.845 Y70.736 E59.04845
G1 X39.617 Y70.245 E59.09105
G1 X41.782 Y68.838 E59.21128
G1 X43.859 Y67.403 E59.32883
G1 X45.889 Y65.912 E59.44612
G1 X47.904 Y64.344 E59.56501
G1 X49.846 Y62.744 E59.68217
G1 X51.739 Y61.09 E59.79922
G1 X53.607 Y59.363 E59.91768
G1 X55.409 Y57.6 E60.03507
G1 X57.175 Y55.773 E60.15339
