;FLAVOR:Marlin
;TIME:22657
;Filament used: 10.6643m
;Layer height: 0.28
;MINX:1.538
;MINY:4.991
;MINZ:0.28
;MAXX:213.036
;MAXY:216.514
;MAXZ:7.56
;TARGET_MACHINE.NAME:Creality Ender-3 S1 Pro
;Generated with Cura_SteamEngine 5.8.0
M82 ;absolute extrusion mode
; Ender 3 S1 Pro Start G-code
; M413 S0 ; Disable power loss recovery
G92 E0 ; Reset Extruder

; Prep surfaces before auto home for better accuracy
M140 S60
M104 S210.0

G28 ; Home all axes
G1 Z10.0 F3000 ; Move Z Axis up little to prevent scratching of Heat Bed
G1 X0 Y0

M190 S60
M109 S210.0

G1 X0.1 Y20 Z0.3 F5000.0 ; Move to start position
G1 X0.1 Y200.0 Z0.3 F1500.0 E15 ; Draw the first line
G1 X0.4 Y200.0 Z0.3 F5000.0 ; Move to side a little
G1 X0.4 Y20 Z0.3 F1500.0 E30 ; Draw the second line
G92 E0 ; Reset Extruder
G1 Z2.0 F3000 ; Move Z Axis up little to prevent scratching of Heat Bed
G1 X5 Y20 Z0.3 F5000.0 ; Move over to prevent blob squish

G92 E0
G92 E0
G1 F2400 E-0.8
;LAYER_COUNT:27
;LAYER:0
M107
M204 S2000
G0 F7200 X91.101 Y76.187 Z0.28
M204 S500
;TYPE:SKIRT
G1 F2400 E0
G1 F1500 X91.793 Y75.369 E0.04989
G1 X92.217 Y74.927 E0.07841
G1 X119.446 Y47.698 E1.87149
G1 X121.328 Y45.762 E1.99721
G1 X123.044 Y43.894 E2.11532
G1 X124.688 Y41.998 E2.23218
G1 X126.317 Y40.011 E2.35182
G1 X127.86 Y38.015 E2.46929
G1 X129.36 Y35.956 E2.58791
G1 X130.79 Y33.872 E2.7056
G1 X132.182 Y31.718 E2.82502
G1 X133.487 Y29.564 E2.94229
G1 X134.748 Y27.345 E3.06114
G1 X135.921 Y25.138 E3.17752
G1 X137.492 Y21.928 E3.34393
G1 X138.399 Y19.985 E3.44377
G1 X138.704 Y19.355 E3.47637
G1 X139.133 Y18.561 E3.51839
G1 X139.631 Y17.807 E3.56047
G1 X140.194 Y17.101 E3.60251
G1 X140.816 Y16.447 E3.64454
G1 X141.494 Y15.85 E3.68661
G1 X142.223 Y15.316 E3.72868
G1 X142.995 Y14.848 E3.77072
G1 X143.806 Y14.451 E3.81277
G1 X144.649 Y14.127 E3.85482
G1 X145.854 Y13.804 E3.91291
G1 X148.665 Y13.233 E4.04648
G1 X151.1 Y12.666 E4.16289
G1 X153.567 Y12.015 E4.2817
G1 X155.986 Y11.304 E4.3991
G1 X158.443 Y10.506 E4.51939
G1 X160.783 Y9.671 E4.63508
G1 X163.205 Y8.73 E4.75607
G1 X165.502 Y7.761 E4.87216
G1 X168.369 Y6.447 E5.01901
G1 X169.085 Y6.104 E5.05598
G1 X169.916 Y5.75 E5.09804
G1 X170.775 Y5.471 E5.1401
G1 X171.734 Y5.255 E5.18587
G1 X172.433 Y5.139 E5.21886
G1 X172.867 Y5.079 E5.23926
G1 X173.766 Y4.995 E5.28131
G1 X174.669 Y4.991 E5.32336
G1 X175.569 Y5.067 E5.36541
G1 X176.5 Y5.231 E5.40943
G1 X177.286 Y5.417 E5.44704
G1 X177.69 Y5.526 E5.46653
G1 X178.551 Y5.8 E5.5086
G1 X179.2 Y6.064 E5.54122
G1 X179.916 Y6.386 E5.57778
G1 X205.538 Y18.336 E6.89423
G1 X206.168 Y18.643 E6.92686
G1 X206.962 Y19.074 E6.96893
G1 X207.574 Y19.473 E7.00295
G1 X207.892 Y19.697 E7.02106
G1 X208.476 Y20.132 E7.05497
G1 X209.172 Y20.708 E7.09704
G1 X209.813 Y21.343 E7.13905
G1 X210.396 Y22.033 E7.18111
G1 X210.934 Y22.8 E7.22474
G1 X211.286 Y23.364 E7.2557
G1 X211.512 Y23.747 E7.2764
G1 X211.936 Y24.545 E7.31848
G1 X212.288 Y25.376 E7.3605
G1 X212.565 Y26.236 E7.40257
G1 X212.775 Y27.176 E7.44742
G1 X212.891 Y27.885 E7.48088
G1 X212.951 Y28.325 E7.50155
G1 X213.034 Y29.224 E7.54359
G1 X213.036 Y30.127 E7.58564
G1 X212.959 Y31.027 E7.6277
G1 X212.797 Y31.938 E7.67079
G1 X212.631 Y32.642 E7.70447
G1 X212.517 Y33.072 E7.72518
G1 X212.248 Y33.934 E7.76723
G1 X211.967 Y34.627 E7.80205
G1 X211.627 Y35.383 E7.84065
G1 X204.645 Y50.356 E8.60993
G1 X203.577 Y52.733 E8.73127
G1 X202.598 Y55.094 E8.85029
G1 X201.686 Y57.475 E8.96901
G1 X200.855 Y59.846 E9.086
G1 X200.074 Y62.291 E9.20552
G1 X199.378 Y64.704 E9.32246
G1 X198.744 Y67.163 E9.4407
G1 X198.173 Y69.67 E9.56043
G1 X197.683 Y72.135 E9.67745
G1 X197.258 Y74.654 E9.79641
G1 X196.906 Y77.162 E9.91433
G1 X196.624 Y79.687 E10.03264
G1 X196.414 Y82.211 E10.15057
G1 X196.277 Y84.739 E10.26846
G1 X196.209 Y87.306 E10.38803
G1 X196.215 Y89.842 E10.50612
G1 X196.292 Y92.372 E10.62398
G1 X196.439 Y94.879 E10.74092
G1 X196.662 Y97.443 E10.86076
G1 X196.95 Y99.927 E10.9772
G1 X197.45 Y103.299 E11.13593
G1 X197.677 Y104.654 E11.19991
G1 X197.778 Y105.354 E11.23284
G1 X197.862 Y106.254 E11.27493
G1 X197.866 Y107.157 E11.31698
G1 X197.79 Y108.057 E11.35903
G1 X197.65 Y108.877 E11.39777
G1 X197.499 Y109.585 E11.43148
G1 X197.271 Y110.459 E11.47354
G1 X196.912 Y111.443 E11.52231
G1 X196.633 Y112.085 E11.5549
G1 X180.743 Y146.163 E13.30574
G1 X180.424 Y146.825 E13.33996
G1 X179.996 Y147.62 E13.382
G1 X179.574 Y148.27 E13.41809
G1 X179.154 Y148.856 E13.45166
G1 X178.895 Y149.198 E13.47164
G1 X178.319 Y149.893 E13.51367
G1 X177.683 Y150.534 E13.55572
G1 X176.993 Y151.117 E13.59778
G1 X176.324 Y151.592 E13.63598
G1 X174.425 Y152.827 E13.74146
G1 X172.302 Y154.281 E13.86128
G1 X170.253 Y155.772 E13.97928
G1 X168.263 Y157.308 E14.09633
G1 X166.285 Y158.925 E14.2153
G1 X164.377 Y160.578 E14.33285
G1 X162.478 Y162.319 E14.45281
G1 X160.686 Y164.059 E14.56912
G1 X158.876 Y165.919 E14.68997
G1 X157.179 Y167.762 E14.80662
G1 X155.533 Y169.657 E14.9235
G1 X153.892 Y171.657 E15.04396
G1 X152.354 Y173.641 E15.16086
G1 X150.846 Y175.707 E15.27996
G1 X149.405 Y177.804 E15.39844
G1 X148.095 Y179.82 E15.51039
G1 X147.57 Y180.555 E15.55245
G1 X146.982 Y181.24 E15.59448
G1 X146.335 Y181.871 E15.63656
G1 X145.773 Y182.337 E15.67056
G1 X145.229 Y182.749 E15.70233
G1 X144.847 Y183.022 E15.7242
G1 X144.089 Y183.514 E15.76628
G1 X143.344 Y183.912 E15.80561
G1 X142.68 Y184.232 E15.83993
G1 X108.937 Y199.965 E17.57354
G1 X108.215 Y200.29 E17.61041
G1 X107.376 Y200.624 E17.65246
G1 X106.464 Y200.894 E17.69675
G1 X105.716 Y201.078 E17.73262
G1 X104.831 Y201.254 E17.77463
G1 X103.933 Y201.352 E17.8167
G1 X103.03 Y201.37 E17.85875
G1 X101.919 Y201.282 E17.91065
G1 X101.216 Y201.181 E17.94372
G1 X99.899 Y200.958 E18.00591
G1 X97.34 Y200.563 E18.12648
G1 X94.797 Y200.244 E18.24582
G1 X92.252 Y199.998 E18.36488
G1 X89.749 Y199.827 E18.4817
G1 X87.182 Y199.724 E18.60133
G1 X84.683 Y199.695 E18.7177
G1 X82.115 Y199.738 E18.8373
G1 X79.583 Y199.851 E18.95531
G1 X77.027 Y200.039 E19.07465
G1 X74.528 Y200.294 E19.19162
G1 X72.014 Y200.622 E19.30968
G1 X69.509 Y201.021 E19.42779
G1 X66.992 Y201.496 E19.54706
G1 X64.536 Y202.03 E19.66409
G1 X62.06 Y202.644 E19.78288
G1 X59.599 Y203.329 E19.90183
G1 X57.172 Y204.078 E20.0201
G1 X54.8 Y204.885 E20.13677
G1 X52.379 Y205.785 E20.25704
G1 X50.061 Y206.722 E20.37346
G1 X46.808 Y208.165 E20.53917
G1 X31.857 Y215.136 E21.3073
G1 X31.203 Y215.431 E21.34071
G1 X30.364 Y215.765 E21.38276
G1 X29.415 Y216.045 E21.42883
G1 X28.653 Y216.23 E21.46534
G1 X27.767 Y216.404 E21.50739
G1 X26.869 Y216.499 E21.54944
G1 X25.966 Y216.514 E21.59149
G1 X24.948 Y216.435 E21.63903
G1 X24.216 Y216.331 E21.67346
G1 X23.741 Y216.249 E21.69591
G1 X22.859 Y216.056 E21.73795
G1 X21.997 Y215.786 E21.78001
G1 X21.162 Y215.441 E21.82208
G1 X20.181 Y214.916 E21.87389
G1 X19.524 Y214.517 E21.90968
G1 X18.774 Y214.015 E21.9517
G1 X18.071 Y213.448 E21.99376
G1 X17.421 Y212.821 E22.03581
G1 X16.726 Y212.007 E22.08565
G1 X16.313 Y211.458 E22.11764
G1 X16.043 Y211.078 E22.13935
G1 X15.553 Y210.319 E22.18141
G1 X15.183 Y209.626 E22.21799
G1 X14.896 Y209.035 E22.24859
G1 X2.915 Y183.34 E23.56873
G1 X2.616 Y182.677 E23.60259
G1 X2.281 Y181.838 E23.64466
G1 X1.997 Y180.87 E23.69163
G1 X1.817 Y180.122 E23.72746
G1 X1.645 Y179.236 E23.76948
G1 X1.552 Y178.338 E23.81152
G1 X1.538 Y177.435 E23.85358
G1 X1.622 Y176.4 E23.90193
G1 X1.722 Y175.692 E23.93522
G1 X1.796 Y175.257 E23.95577
G1 X1.987 Y174.375 E23.99779
G1 X2.255 Y173.512 E24.03987
G1 X2.613 Y172.645 E24.08355
G1 X3.91 Y169.872 E24.22609
G1 X4.913 Y167.551 E24.34383
G1 X5.84 Y165.229 E24.46025
G1 X6.734 Y162.786 E24.58138
G1 X7.521 Y160.435 E24.69683
G1 X8.27 Y157.969 E24.81683
G1 X8.936 Y155.526 E24.93474
G1 X9.543 Y153.02 E25.05481
G1 X10.073 Y150.534 E25.17317
G1 X10.297 Y149.4 E25.22699
G1 X10.512 Y148.523 E25.26904
G1 X10.803 Y147.668 E25.31109
G1 X11.168 Y146.842 E25.35314
G1 X11.606 Y146.052 E25.3952
G1 X12.111 Y145.304 E25.43723
G1 X12.681 Y144.603 E25.4793
G1 X13.31 Y143.955 E25.52135
G1 X13.994 Y143.366 E25.56338
G1 X14.728 Y142.839 E25.60545
G1 X15.751 Y142.253 E25.66035
G1 X16.355 Y141.956 E25.69169
G1 X18.443 Y140.982 E25.79898
G1 X20.847 Y139.821 E25.92329
G1 X23.108 Y138.647 E26.04191
G1 X25.309 Y137.424 E26.15916
G1 X27.486 Y136.132 E26.27704
G1 X29.651 Y134.764 E26.39629
G1 X31.754 Y133.35 E26.51429
G1 X33.822 Y131.873 E26.63262
G1 X35.84 Y130.344 E26.75052
G1 X37.829 Y128.747 E26.86929
G1 X39.757 Y127.106 E26.98718
G1 X41.621 Y125.425 E27.10406
G1 X44.212 Y122.932 E27.27149
G1 X71.256 Y95.888 E29.05238
G1 X71.738 Y95.418 E29.08373
G1 X72.667 Y94.615 E29.14091
G1 X73.913 Y93.663 E29.21392
G1 X75.954 Y92.041 E29.33532
G1 X77.847 Y90.448 E29.45052
G1 X79.798 Y88.708 E29.57225
G1 X81.603 Y87.006 E29.68777
G1 X83.41 Y85.2 E29.80673
G1 X85.173 Y83.339 E29.9261
G1 X86.854 Y81.458 E30.04356
G1 X88.5 Y79.51 E30.16232
G1 X90.083 Y77.525 E30.28054
G1 X91.101 Y76.187 E30.35883
M204 S2000
G1 F2400 E29.55883
;MESH:shell-0.stl
G0 F7200 X99.029 Y81.599
G0 X108.183 Y74.231
M204 S500
;TYPE:WALL-INNER
G1 F2400 E30.35883
G1 F420 X100.053 Y82.36 E30.89417
G1 X100.761 Y83.067 E30.94076
G1 X100.894 Y83.269 E30.95202
G1 X100.932 Y83.415 E30.95904
G1 X100.919 Y83.637 E30.9694
G1 X100.804 Y83.874 E30.98166
G1 X97.381 Y87.296 E31.20704
G1 X122.46 Y112.38 E32.8587
G1 X122.543 Y112.523 E32.8664
G1 X122.588 Y112.721 E32.87586
G1 X122.552 Y112.957 E32.88697
G1 X122.413 Y113.177 E32.89909
G1 X110.131 Y125.454 E33.70772
G1 X109.607 Y125.965 E33.7418
G1 X109.452 Y126.038 E33.74977
G1 X109.217 Y126.072 E33.76083
G1 X109.022 Y126.027 E33.77015
G1 X108.827 Y125.897 E33.78106
G1 X83.803 Y100.877 E35.4288
G1 X80.413 Y104.265 E35.65198
G1 X80.179 Y104.41 E35.66479
G1 X80.013 Y104.44 E35.67265
G1 X79.766 Y104.398 E35.68431
G1 X79.563 Y104.265 E35.69562
G1 X78.856 Y103.557 E35.74221
G1 X39.481 Y142.933 E38.33515
G1 X38.827 Y143.391 E38.37233
G1 X21.09 Y151.663 E39.28364
G1 X28.065 Y166.615 E40.0519
G1 X28.29 Y167.537 E40.09609
G1 X28.136 Y168.541 E40.14338
G1 X27.608 Y169.423 E40.19125
G1 X26.834 Y169.988 E40.23587
G1 X13.181 Y176.355 E40.93734
G1 X12.696 Y176.713 E40.96541
G1 X12.415 Y177.175 E40.99059
G1 X12.332 Y177.705 E41.01557
G1 X12.477 Y178.295 E41.04386
G1 X24.867 Y204.868 E42.40911
G1 X25.225 Y205.356 E42.43729
G1 X25.685 Y205.633 E42.46229
G1 X26.217 Y205.716 E42.48736
G1 X26.807 Y205.571 E42.51565
G1 X92.256 Y175.055 E45.87822
G1 X93.184 Y174.828 E45.9227
G1 X94.193 Y174.98 E45.97022
G1 X94.963 Y175.446 E46.01213
G1 X95.138 Y175.606 E46.02317
G1 X95.633 Y176.289 E46.06245
G1 X101.899 Y189.724 E46.75273
G1 X102.254 Y190.209 E46.78072
G1 X102.713 Y190.488 E46.80573
G1 X103.245 Y190.569 E46.83079
G1 X103.837 Y190.426 E46.85915
G1 X138.612 Y174.209 E48.64583
G1 X139.1 Y173.851 E48.67402
G1 X139.377 Y173.391 E48.69902
G1 X139.46 Y172.857 E48.72418
G1 X139.319 Y172.268 E48.75239
G1 X134.165 Y161.223 E49.31993
G1 X133.967 Y160.377 E49.36038
G1 X133.961 Y160.136 E49.37161
G1 X134.122 Y159.218 E49.41501
G1 X134.666 Y158.388 E49.46122
G1 X154.895 Y138.159 E50.79333
G1 X155.72 Y137.619 E50.83924
G1 X156.637 Y137.453 E50.88264
G1 X156.884 Y137.46 E50.89414
G1 X157.731 Y137.662 E50.93469
G1 X168.777 Y142.811 E51.50217
G1 X169.367 Y142.956 E51.53046
G1 X169.897 Y142.873 E51.55544
G1 X170.359 Y142.592 E51.58062
G1 X170.717 Y142.107 E51.60869
G1 X186.956 Y107.276 E53.39818
G1 X187.077 Y106.747 E53.42345
G1 X186.993 Y106.211 E53.44871
G1 X186.712 Y105.749 E53.47389
G1 X186.227 Y105.391 E53.50196
G1 X172.787 Y99.126 E54.19244
G1 X172.111 Y98.627 E54.23156
G1 X171.955 Y98.456 E54.24234
G1 X171.489 Y97.69 E54.28409
G1 X171.333 Y96.677 E54.33181
G1 X171.559 Y95.751 E54.3762
G1 X202.099 Y30.259 E57.74105
G1 X202.244 Y29.669 E57.76934
G1 X202.161 Y29.135 E57.7945
G1 X201.881 Y28.674 E57.81962
G1 X201.396 Y28.319 E57.84761
G1 X174.82 Y15.926 E59.21303
G1 X174.229 Y15.783 E59.24135
G1 X173.697 Y15.864 E59.2664
G1 X173.237 Y16.144 E59.29148
G1 X172.879 Y16.629 E59.31955
G1 X166.49 Y30.334 E60.02365
G1 X165.926 Y31.104 E60.06809
G1 X165.046 Y31.633 E60.1159
G1 X164.041 Y31.786 E60.16324
G1 X163.12 Y31.561 E60.20739
G1 X148.167 Y24.586 E60.97569
G1 X139.896 Y42.325 E61.88706
G1 X139.443 Y42.975 E61.92395
G1 X108.183 Y74.231 E63.98235
M204 S2000
G1 F2400 E63.18235
G0 F7200 X125.907 Y56.789
G0 X133.42 Y63.937
G0 X133.773 Y63.897
M204 S500
G1 F2400 E63.98235
G1 F420 X133.965 Y63.849 E63.99156
G1 X134.266 Y63.903 E64.0058
G1 X147.181 Y69.928 E64.6694
G1 X147.351 Y70.075 E64.67986
G1 X147.468 Y70.324 E64.69267
G1 X147.469 Y70.606 E64.70581
G1 X141.4 Y83.617 E65.37432
G1 X141.316 Y83.729 E65.38084
G1 X141.085 Y83.881 E65.39372
G1 X140.897 Y83.916 E65.40262
G1 X140.672 Y83.88 E65.41323
G1 X127.729 Y77.846 E66.07819
G1 X127.587 Y77.741 E66.08641
G1 X127.462 Y77.558 E66.09673
G1 X127.417 Y77.4 E66.10438
G1 X127.447 Y77.111 E66.11791
G1 X133.498 Y64.129 E66.78484
G1 X133.773 Y63.897 E66.8016
M204 S2000
G1 F2400 E66.0016
G0 F7200 X133.341 Y64.224
G0 X133.718 Y63.945
G0 X134.345 Y63.741
G0 X135.734 Y60.762
G0 X141.715 Y46.696
M204 S500
G1 F2400 E66.8016
G1 F420 X141.945 Y46.599 E66.81322
G1 X142.113 Y46.59 E66.82106
G1 X142.314 Y46.644 E66.83075
G1 X155.232 Y52.664 E67.49437
G1 X155.402 Y52.81 E67.50481
G1 X155.52 Y53.06 E67.51768
G1 X155.521 Y53.341 E67.53076
G1 X149.452 Y66.353 E68.19932
G1 X149.305 Y66.523 E68.20979
G1 X149.056 Y66.64 E68.2226
G1 X148.726 Y66.616 E68.238
G1 X135.806 Y60.597 E68.90169
G1 X135.572 Y60.402 E68.91588
G1 X135.484 Y60.224 E68.92512
G1 X135.463 Y59.912 E68.93968
G1 X141.546 Y46.869 E69.60982
G1 X141.715 Y46.696 E69.62109
M204 S2000
G1 F2400 E68.82109
G0 F7200 X141.428 Y46.882
G0 X141.774 Y46.67
G0 X142.393 Y46.48
G0 X143.783 Y43.497
G0 X149.442 Y29.692
G0 X149.713 Y29.467
M204 S500
G1 F2400 E69.62109
G1 F420 X149.905 Y29.352 E69.63151
G1 X150.128 Y29.316 E69.64203
G1 X150.298 Y29.34 E69.65002
G1 X163.31 Y35.412 E70.31864
G1 X163.533 Y35.676 E70.33473
G1 X163.583 Y35.869 E70.34401
G1 X163.529 Y36.174 E70.35843
G1 X157.5 Y49.088 E71.02207
G1 X157.354 Y49.258 E71.0325
G1 X157.104 Y49.376 E71.04538
G1 X156.774 Y49.352 E71.06078
G1 X143.858 Y43.332 E71.72432
G1 X143.687 Y43.213 E71.73402
G1 X143.587 Y43.079 E71.74181
G1 X143.515 Y42.857 E71.75268
G1 X143.568 Y42.534 E71.76792
G1 X149.568 Y29.662 E72.42921
G1 X149.713 Y29.467 E72.44052
M204 S2000
G1 F2400 E71.64052
G0 F7200 X149.442 Y29.692
G0 X163.674 Y36.335
G0 X166.635 Y37.717
G0 X166.888 Y37.603
M204 S500
G1 F2400 E72.44052
G1 F420 X167.132 Y37.421 E72.4547
G1 X167.286 Y37.375 E72.46218
G1 X167.568 Y37.393 E72.47534
G1 X180.502 Y43.424 E73.13986
G1 X180.665 Y43.535 E73.14904
G1 X180.836 Y43.844 E73.16549
G1 X180.824 Y44.153 E73.17988
G1 X174.761 Y57.152 E73.84777
G1 X174.667 Y57.271 E73.85484
G1 X174.497 Y57.387 E73.86442
G1 X174.304 Y57.438 E73.87371
G1 X174.042 Y57.404 E73.88602
G1 X161.025 Y51.336 E74.55476
G1 X160.846 Y51.12 E74.56783
G1 X160.788 Y50.96 E74.57575
G1 X160.786 Y50.679 E74.58884
G1 X166.888 Y37.603 E75.26074
M204 S2000
G1 F2400 E74.46074
G0 F7200 X166.707 Y37.751
G0 X167.174 Y37.4
G0 X169.209 Y38.369
G0 X171.613 Y39.058
G0 X173.51 Y36.292
G0 X173.392 Y35.487
M204 S500
G1 F2400 E75.26074
G1 F420 X179.457 Y22.48 E75.92901
G1 X179.684 Y22.274 E75.94328
G1 X179.844 Y22.216 E75.95121
G1 X180.032 Y22.207 E75.95997
G1 X180.222 Y22.26 E75.96916
G1 X193.09 Y28.26 E76.63028
G1 X193.253 Y28.371 E76.63946
G1 X193.424 Y28.68 E76.65591
G1 X193.412 Y28.99 E76.67035
G1 X187.348 Y41.999 E77.33869
G1 X187.206 Y42.149 E77.3483
G1 X186.978 Y42.26 E77.36011
G1 X186.766 Y42.272 E77.37
G1 X186.582 Y42.22 E77.3789
G1 X173.714 Y36.216 E78.0401
G1 X173.551 Y36.105 E78.04929
G1 X173.438 Y35.955 E78.05803
G1 X173.38 Y35.796 E78.06591
G1 X173.392 Y35.487 E78.08031
M204 S2000
G1 F2400 E77.28031
G0 F7200 X173.299 Y35.445
G0 X173.426 Y36.235
G0 X163.8 Y56.878
G0 X159.044 Y54.702
M204 S500
G1 F2400 E78.08031
G1 F420 X159.204 Y54.644 E78.08824
G1 X159.485 Y54.643 E78.10132
G1 X172.566 Y60.748 E78.7735
G1 X172.746 Y60.994 E78.78769
G1 X172.795 Y61.187 E78.79696
G1 X172.765 Y61.429 E78.80832
G1 X166.709 Y74.416 E79.47556
G1 X166.446 Y74.65 E79.49196
G1 X166.253 Y74.702 E79.50126
G1 X165.99 Y74.668 E79.51361
