;FLAVOR:Marlin
;TIME:48
;Filament used: 0.0354967m
;Layer height: 0.28
;MINX:93.067
;MINY:59.512
;MINZ:0.28
;MAXX:163.765
;MAXY:130.211
;MAXZ:0.28
;TARGET_MACHINE.NAME:Creality Ender-3 S1 Pro
;Generated with Cura_SteamEngine 5.8.0
M82 ;absolute extrusion mode
; Ender 3 S1 Pro Start G-code
; M413 S0 ; Disable power loss recovery
G92 E0 ; Reset Extruder

; Prep surfaces before auto home for better accuracy
M140 S60
M104 S210.0

G28 ; Home all axes
G1 Z10.0 F3000 ; Move Z Axis up little to prevent scratching of Heat Bed
G1 X0 Y0

M190 S60
M109 S210.0

G1 X0.1 Y20 Z0.3 F5000.0 ; Move to start position
G1 X0.1 Y200.0 Z0.3 F1500.0 E15 ; Draw the first line
G1 X0.4 Y200.0 Z0.3 F5000.0 ; Move to side a little
G1 X0.4 Y20 Z0.3 F1500.0 E30 ; Draw the second line
G92 E0 ; Reset Extruder
G1 Z2.0 F3000 ; Move Z Axis up little to prevent scratching of Heat Bed
G1 X5 Y20 Z0.3 F5000.0 ; Move over to prevent blob squish

G92 E0
G92 E0
G1 F2400 E-0.8
;LAYER_COUNT:1
;LAYER:0
M107
M204 S2000
G0 F7500 X95.228 Y67.385 Z0.28
M204 S500
;TYPE:SKIRT
G1 F2400 E0
G1 F1500 X95.799 Y66.617 E0.04456
G1 X96.406 Y65.935 E0.08708
G1 X96.855 Y65.471 E0.11714
G1 X98.995 Y63.33 E0.2581
G1 X99.487 Y62.852 E0.29004
G1 X100.19 Y62.229 E0.33378
G1 X100.955 Y61.663 E0.37809
G1 X101.376 Y61.382 E0.40166
G1 X102.178 Y60.897 E0.4453
G1 X103.022 Y60.484 E0.48905
G1 X103.906 Y60.145 E0.53314
G1 X105.238 Y59.795 E0.59727
G1 X105.719 Y59.702 E0.62008
G1 X106.612 Y59.569 E0.66212
G1 X107.585 Y59.512 E0.7075
G1 X108.487 Y59.539 E0.74952
G1 X109.816 Y59.721 E0.81199
G1 X110.284 Y59.816 E0.83422
G1 X111.195 Y60.043 E0.87794
G1 X112.082 Y60.35 E0.92165
G1 X112.945 Y60.738 E0.96571
G1 X114.061 Y61.389 E1.02587
G1 X114.484 Y61.673 E1.04959
G1 X115.211 Y62.21 E1.09168
G1 X115.941 Y62.855 E1.13704
G1 X116.385 Y63.286 E1.16585
G1 X159.943 Y106.845 E4.03425
G1 X160.436 Y107.353 E4.06721
G1 X161.059 Y108.057 E4.11099
G1 X161.649 Y108.858 E4.15731
G1 X161.915 Y109.258 E4.17968
G1 X162.397 Y110.062 E4.22333
G1 X162.808 Y110.906 E4.26704
G1 X163.144 Y111.791 E4.31112
G1 X163.473 Y113.039 E4.37122
G1 X163.571 Y113.533 E4.39467
G1 X163.706 Y114.426 E4.43672
G1 X163.765 Y115.399 E4.48211
G1 X163.741 Y116.302 E4.52418
G1 X163.563 Y117.63 E4.58657
G1 X163.468 Y118.105 E4.60912
G1 X163.244 Y119.016 E4.6528
G1 X162.953 Y119.871 E4.69486
G1 X162.553 Y120.768 E4.74059
G1 X161.885 Y121.916 E4.80244
G1 X161.6 Y122.341 E4.82627
G1 X161.064 Y123.067 E4.86829
G1 X160.425 Y123.788 E4.91315
G1 X159.976 Y124.252 E4.94321
G1 X157.826 Y126.401 E5.08476
G1 X157.322 Y126.89 E5.11746
G1 X156.617 Y127.513 E5.16127
G1 X155.841 Y128.084 E5.20613
G1 X155.444 Y128.348 E5.22833
G1 X154.64 Y128.833 E5.27205
G1 X153.798 Y129.245 E5.3157
G1 X152.913 Y129.583 E5.35982
G1 X151.655 Y129.916 E5.42041
G1 X151.158 Y130.014 E5.444
G1 X150.23 Y130.154 E5.4877
G1 X149.294 Y130.211 E5.53136
G1 X148.348 Y130.185 E5.57543
G1 X147.094 Y130.018 E5.63434
G1 X146.624 Y129.926 E5.65664
G1 X145.712 Y129.704 E5.70034
G1 X144.823 Y129.403 E5.74405
G1 X143.957 Y129.02 E5.78814
G1 X142.766 Y128.331 E5.85221
G1 X142.355 Y128.055 E5.87526
G1 X141.6 Y127.496 E5.91901
G1 X140.879 Y126.857 E5.96387
G1 X140.402 Y126.393 E5.99485
G1 X96.889 Y82.88 E8.86026
G1 X96.407 Y82.384 E8.89246
G1 X95.783 Y81.682 E8.9362
G1 X95.217 Y80.916 E8.98055
G1 X94.936 Y80.495 E9.00412
G1 X94.451 Y79.693 E9.04776
G1 X94.038 Y78.849 E9.09151
G1 X93.699 Y77.966 E9.13555
G1 X93.361 Y76.693 E9.19688
G1 X93.262 Y76.194 E9.22057
G1 X93.127 Y75.301 E9.26263
G1 X93.067 Y74.329 E9.30797
G1 X93.091 Y73.426 E9.35003
G1 X93.275 Y72.059 E9.41426
G1 X93.373 Y71.576 E9.43721
G1 X93.601 Y70.666 E9.48089
G1 X93.909 Y69.78 E9.52457
G1 X94.298 Y68.917 E9.56865
G1 X94.971 Y67.766 E9.63073
G1 X95.228 Y67.385 E9.65213
M204 S2000
G0 F7500 X95.56 Y67.609
M204 S500
G1 F1500 X96.098 Y66.883 E9.69421
G1 X96.693 Y66.213 E9.73594
G1 X97.138 Y65.754 E9.7657
G1 X99.274 Y63.617 E9.9064
G1 X99.753 Y63.151 E9.93751
G1 X100.428 Y62.551 E9.97957
G1 X101.193 Y61.985 E10.02388
G1 X101.583 Y61.724 E10.04573
G1 X102.355 Y61.256 E10.08777
G1 X103.166 Y60.857 E10.12985
G1 X104.008 Y60.532 E10.17188
G1 X105.314 Y60.188 E10.23477
G1 X105.778 Y60.098 E10.25678
G1 X106.671 Y59.965 E10.29882
G1 X107.573 Y59.912 E10.34089
G1 X108.475 Y59.939 E10.38291
G1 X109.737 Y60.113 E10.44223
G1 X110.188 Y60.204 E10.46365
G1 X111.065 Y60.421 E10.50572
G1 X111.919 Y60.715 E10.54778
G1 X112.743 Y61.084 E10.58982
G1 X113.859 Y61.735 E10.64998
G1 X114.246 Y61.995 E10.67169
G1 X114.973 Y62.532 E10.71377
G1 X115.662 Y63.142 E10.75662
G1 X116.102 Y63.569 E10.78517
G1 X159.656 Y107.124 E13.65331
G1 X160.137 Y107.619 E13.68545
G1 X160.737 Y108.294 E13.7275
G1 X161.316 Y109.079 E13.77292
G1 X161.572 Y109.464 E13.79445
G1 X162.038 Y110.238 E13.83652
G1 X162.434 Y111.049 E13.87855
G1 X162.757 Y111.893 E13.92063
G1 X163.086 Y113.141 E13.98072
G1 X163.175 Y113.593 E14.00217
G1 X163.31 Y114.486 E14.04423
G1 X163.365 Y115.388 E14.08631
G1 X163.341 Y116.291 E14.12837
G1 X163.171 Y117.552 E14.18762
G1 X163.08 Y118.01 E14.20936
G1 X162.865 Y118.887 E14.25141
G1 X162.574 Y119.742 E14.29346
G1 X162.207 Y120.567 E14.33551
G1 X161.539 Y121.715 E14.39735
G1 X161.278 Y122.103 E14.41913
G1 X160.742 Y122.829 E14.46115
G1 X160.138 Y123.51 E14.50354
G1 X159.693 Y123.969 E14.5333
G1 X157.548 Y126.114 E14.67456
G1 X157.056 Y126.591 E14.70646
G1 X156.38 Y127.191 E14.74855
G1 X155.619 Y127.751 E14.79255
G1 X155.237 Y128.006 E14.81393
G1 X154.464 Y128.474 E14.85601
G1 X153.654 Y128.872 E14.89804
G1 X152.811 Y129.196 E14.94009
G1 X151.553 Y129.529 E15.00068
G1 X151.098 Y129.619 E15.02228
G1 X150.205 Y129.755 E15.06434
G1 X149.304 Y129.811 E15.10638
G1 X148.401 Y129.788 E15.14844
G1 X147.17 Y129.625 E15.20626
G1 X146.718 Y129.537 E15.2277
G1 X145.84 Y129.325 E15.26976
G1 X144.984 Y129.037 E15.31181
G1 X144.157 Y128.674 E15.35387
G1 X142.989 Y127.999 E15.41669
G1 X142.592 Y127.733 E15.43894
G1 X141.865 Y127.197 E15.481
G1 X141.158 Y126.57 E15.525
G1 X140.681 Y126.106 E15.55598
G1 X97.176 Y82.601 E18.42086
G1 X96.706 Y82.118 E18.45224
G1 X96.105 Y81.444 E18.49429
G1 X95.539 Y80.678 E18.53864
G1 X95.278 Y80.288 E18.56049
G1 X94.81 Y79.516 E18.60253
G1 X94.411 Y78.705 E18.64462
G1 X94.086 Y77.863 E18.68664
G1 X93.748 Y76.59 E18.74797
G1 X93.658 Y76.134 E18.76962
G1 X93.523 Y75.241 E18.81167
G1 X93.467 Y74.34 E18.85371
G1 X93.491 Y73.437 E18.89577
G1 X93.667 Y72.138 E18.95681
G1 X93.761 Y71.673 E18.9789
G1 X93.979 Y70.797 E19.02093
G1 X94.274 Y69.943 E19.063
G1 X94.643 Y69.119 E19.10504
G1 X95.303 Y67.99 E19.16594
G1 X95.56 Y67.609 E19.18734
M204 S2000
G1 F2400 E18.38734
;MESH:shell-0-text.stl
G0 F7500 X127.256 Y99.197
G0 X127.868 Y98.584
M204 S500
;TYPE:WALL-OUTER
G1 F2400 E19.18734
G1 F895.5 X104.729 Y75.443 E20.71877
G1 F855.1 X104.171 Y74.86 E20.75832
G1 F823.8 X103.959 Y74.589 E20.77582
G1 F821.9 X103.876 Y74.156 E20.7983
G1 X103.956 Y73.739 E20.81995
G1 X104.171 Y73.452 E20.83823
G1 F839.2 X104.387 Y73.222 E20.85399
G1 F882.4 X106.087 Y71.508 E20.96865
G1 F859.2 X107.008 Y70.618 E21.03112
G1 F821.9 X107.285 Y70.405 E21.04894
G1 X107.712 Y70.32 E21.07113
G1 X108.139 Y70.407 E21.09335
G1 X108.416 Y70.619 E21.11114
G1 F859.2 X109.33 Y71.504 E21.17319
G1 F902.3 X130.718 Y92.893 E22.57814
G1 F897.8 X152.106 Y114.282 E23.99013
G1 F855.1 X152.657 Y114.86 E24.02927
G1 F837.2 X152.871 Y115.142 E24.04699
G1 F839.2 X152.952 Y115.557 E24.0681
G1 F823.8 X152.87 Y115.993 E24.09067
G1 F821.9 X152.657 Y116.267 E24.10837
G1 F853.1 X152.117 Y116.832 E24.14676
G1 F897.8 X150.741 Y118.212 E24.23773
G1 F861.2 X149.821 Y119.102 E24.30002
G1 F823.8 X149.536 Y119.316 E24.31815
G1 F821.9 X149.108 Y119.4 E24.34039
G1 F833.3 X148.697 Y119.317 E24.36148
G1 F837.2 X148.415 Y119.105 E24.37914
G1 F861.2 X147.494 Y118.212 E24.44156
G1 F902.3 X127.868 Y98.584 E25.7308
M204 S2000
G1 F2400 E24.9308
G0 F7500 X110.548 Y79.058
M204 S500
G1 F2400 E25.7308
G1 F957.4 X108.721 Y77.23 E25.84392
G1 F849.1 X108.485 Y76.926 E25.86292
G1 F845.1 X108.228 Y76.736 E25.87877
G1 F952.4 X106.35 Y74.86 E25.99557
G1 F957.4 X106.616 Y74.594 E26.01204
G1 F952.4 X108.471 Y76.448 E26.12744
G1 F845.1 X108.617 Y76.526 E26.13565
G1 F800 X109.55 Y75.593 E26.20477
G1 F895.5 X110.484 Y74.66 E26.26655
G1 F949.9 X110.752 Y74.928 E26.28327
G1 F895.5 X109.819 Y75.861 E26.34502
G1 F800 X108.886 Y76.795 E26.41418
G1 F849.1 X108.987 Y76.965 E26.42394
G1 F957.4 X110.814 Y78.792 E26.53703
G1 X110.548 Y79.058 E26.5535
M204 S2000
G1 F2400 E25.7535
G0 F7500 X115.266 Y83.468
G0 X115.539 Y83.774
M204 S500
G1 F2400 E26.5535
G1 F821.9 X115.339 Y83.748 E26.56378
G1 F875.9 X115.01 Y83.517 E26.58301
G1 F952.4 X111.862 Y80.369 E26.77891
G1 F913.7 X111.684 Y80.163 E26.7914
G1 F855.1 X111.598 Y79.988 E26.80095
G1 F833.3 X111.577 Y79.752 E26.81287
G1 X111.64 Y79.571 E26.82251
G1 F882.4 X111.841 Y79.307 E26.83827
G1 F942.4 X112.131 Y79.014 E26.8566
G1 F845.1 X112.434 Y78.777 E26.87568
G1 F841.1 X112.619 Y78.528 E26.89113
G1 F942.4 X113.484 Y77.661 E26.94559
G1 F947.4 X113.752 Y77.929 E26.96236
G1 F942.4 X112.91 Y78.773 E27.01537
G1 F841.1 X112.834 Y78.914 E27.02335
G1 F762.7 X116.425 Y82.506 E27.30243
G1 F847.1 X116.59 Y82.407 E27.31195
G1 F949.9 X117.411 Y81.587 E27.36315
G1 X117.68 Y81.855 E27.3799
G1 X116.856 Y82.675 E27.43119
G1 F847.1 X116.56 Y82.906 E27.44976
G1 F845.1 X116.372 Y83.158 E27.46536
G1 F923.1 X115.819 Y83.698 E27.50045
G1 F863.3 X115.539 Y83.774 E27.51453
M204 S2000
G0 F7500 X115.649 Y83.318
M204 S500
G1 F923.1 X116.084 Y82.914 E27.54148
G1 F845.1 X116.161 Y82.771 E27.54954
G1 F762.7 X112.568 Y79.178 E27.82873
G1 F845.1 X112.4 Y79.28 E27.83848
G1 F937.5 X112.112 Y79.576 E27.85694
G1 F873.8 X112.013 Y79.811 E27.86917
G1 F865.4 X112.071 Y80.049 E27.88103
G1 F916 X115.287 Y83.261 E28.08898
G1 F871.7 X115.547 Y83.336 E28.10199
G1 F863.3 X115.649 Y83.318 E28.10701
M204 S2000
G1 F2400 E27.30701
G0 F7500 X115.551 Y83.53
G0 X116.419 Y84.324
G0 X119.61 Y88.118
G0 X120.48 Y88.988
M204 S500
G1 F2400 E28.10701
G1 F949.9 X120.212 Y88.72 E28.12373
G1 F944.9 X122.001 Y86.93 E28.23598
G1 F873.8 X122.065 Y86.822 E28.242
G1 F880.2 X121.977 Y86.687 E28.24967
G1 F957.4 X118.184 Y82.891 E28.48455
G1 F960 X118.449 Y82.625 E28.50095
G1 F957.4 X122.243 Y86.422 E28.73589
G1 F918.4 X122.583 Y86.84 E28.76048
G1 F909.1 X122.291 Y87.175 E28.78096
G1 F944.9 X120.48 Y88.988 E28.89462
M204 S2000
G1 F2400 E28.09462
G0 F7500 X121.939 Y88.727
G0 X125.443 Y92.231
G0 X125.422 Y93.268
M204 S500
G1 F2400 E28.89462
G1 F875.9 X125.701 Y93.161 E28.90892
G1 F932.6 X126.773 Y92.091 E28.97697
G1 F904.5 X126.927 Y91.828 E28.99109
G1 F895.5 X126.834 Y91.544 E29.00508
G1 F942.4 X123.149 Y87.857 E29.23689
G1 F960 X123.415 Y87.592 E29.25328
G1 X127.046 Y91.227 E29.47756
G1 F918.4 X127.318 Y91.548 E29.49676
G1 F841.1 X127.366 Y91.778 E29.50847
G1 F818.2 X127.334 Y91.965 E29.51819
G1 F845.1 X127.229 Y92.144 E29.52848
G1 F900 X127.063 Y92.336 E29.5403
G1 F942.4 X125.961 Y93.435 E29.60951
G1 F888.9 X125.639 Y93.671 E29.62833
G1 F833.3 X125.327 Y93.693 E29.64406
G1 F873.8 X125.021 Y93.527 E29.66075
G1 F939.9 X121.25 Y89.76 E29.8984
G1 F960 X121.516 Y89.494 E29.91482
G1 F923.1 X125.174 Y93.153 E30.14972
G1 F857.1 X125.422 Y93.268 E30.16308
M204 S2000
G1 F2400 E29.36308
G0 F7500 X125.366 Y93.448
G0 X128.151 Y96.658
M204 S500
G1 F2400 E30.16308
G1 F960 X126.217 Y94.725 E30.28245
G1 X126.483 Y94.46 E30.29884
G1 F957.4 X130.3 Y98.279 E30.53518
G1 F880.2 X130.412 Y98.344 E30.54134
G1 F878 X130.519 Y98.281 E30.54727
G1 F942.4 X130.985 Y97.814 E30.57661
G1 F843.1 X131.062 Y97.673 E30.58459
G1 F791.2 X129.763 Y96.375 E30.68186
G1 F851.1 X128.464 Y95.076 E30.77232
G1 F920.7 X127.165 Y93.777 E30.85593
G1 F960 X127.431 Y93.512 E30.87233
G1 F920.7 X128.729 Y94.811 E30.95591
G1 F851.1 X130.028 Y96.11 E31.04637
G1 F791.2 X131.327 Y97.409 E31.14367
G1 F849.1 X131.495 Y97.309 E31.15332
G1 F947.4 X131.937 Y96.862 E31.18113
G1 F873.8 X132.001 Y96.756 E31.18707
G1 F882.4 X131.913 Y96.619 E31.1948
G1 F957.4 X128.118 Y92.824 E31.42972
G1 X128.384 Y92.558 E31.44618
G1 X132.178 Y96.355 E31.68113
G1 F918.4 X132.518 Y96.777 E31.70586
G1 F909.1 X132.228 Y97.108 E31.72614
G1 F947.4 X131.762 Y97.576 E31.75536
G1 F849.1 X131.462 Y97.81 E31.77414
G1 F843.1 X131.276 Y98.059 E31.78959
G1 F942.4 X130.763 Y98.573 E31.82188
G1 F878 X130.416 Y98.877 E31.8439
G1 F816.3 X130.26 Y98.72 E31.85526
G1 F880.2 X130.059 Y98.565 E31.86734
G1 F957.4 X128.151 Y96.658 E31.98542
M204 S2000
G1 F2400 E31.18542
G0 F7500 X135.383 Y103.891
M204 S500
G1 F2400 E31.98542
G1 F960 X133.554 Y102.061 E32.09837
G1 F853.1 X133.32 Y101.759 E32.11713
G1 F849.1 X133.066 Y101.571 E32.13273
G1 F957.4 X131.184 Y99.691 E32.24917
G1 F960 X131.449 Y99.425 E32.26556
G1 F957.4 X133.307 Y101.283 E32.38057
G1 F849.1 X133.452 Y101.361 E32.38869
G1 F805.4 X134.384 Y100.429 E32.45728
G1 F895.5 X135.316 Y99.496 E32.51899
G1 F949.9 X135.584 Y99.764 E32.53572
G1 F895.5 X134.652 Y100.696 E32.5974
G1 F805.4 X133.719 Y101.628 E32.66602
G1 F853.1 X133.819 Y101.797 E32.67567
G1 F960 X135.648 Y103.625 E32.78855
G1 X135.383 Y103.891 E32.80494
M204 S2000
G1 F2400 E32.00494
G0 F7500 X143.644 Y109.965
G0 X143.879 Y110.289
M204 S500
G1 F2400 E32.80494
G1 F837.2 X143.601 Y110.195 E32.81963
G1 F900 X143.377 Y110.002 E32.8334
G1 F957.4 X140.27 Y106.893 E33.02578
G1 F927.8 X140.013 Y106.595 E33.04356
G1 F878 X139.938 Y106.309 E33.05767
G1 F869.6 X140.089 Y105.963 E33.07586
G1 F895.5 X140.524 Y105.526 E33.10472
G1 F865.4 X140.733 Y105.404 E33.11644
G1 F820 X140.897 Y105.36 E33.12512
G1 F829.5 X141.225 Y105.454 E33.14235
G1 F900 X141.498 Y105.691 E33.15919
G1 F960 X144.55 Y108.743 E33.34761
G1 F923.1 X144.73 Y108.946 E33.35992
G1 F853.1 X144.87 Y109.212 E33.37469
G1 F821.9 X144.881 Y109.359 E33.38221
G1 F835.3 X144.773 Y109.631 E33.39689
G1 F900 X144.569 Y109.869 E33.41149
G1 F920.7 X144.27 Y110.151 E33.43019
G1 F853.1 X144.013 Y110.277 E33.44426
G1 F818.2 X143.879 Y110.289 E33.45115
M204 S2000
G0 F7500 X144.077 Y109.799
M204 S500
G1 F891.1 X144.344 Y109.564 E33.46787
G1 F855.1 X144.439 Y109.304 E33.48144
G1 F873.8 X144.327 Y109.057 E33.49445
G1 F930.2 X141.196 Y105.918 E33.69418
G1 F867.5 X140.928 Y105.803 E33.70827
G1 F841.1 X140.762 Y105.855 E33.71694
G1 F875.9 X140.475 Y106.106 E33.73518
G1 F849.1 X140.392 Y106.338 E33.74734
G1 F871.7 X140.497 Y106.591 E33.76051
G1 F937.5 X143.628 Y109.726 E33.95857
G1 F878 X143.897 Y109.847 E33.97265
G1 F853.1 X144.077 Y109.799 E33.9818
M204 S2000
G1 F2400 E33.1818
G0 F7500 X144.064 Y109.985
G0 X142.735 Y111.029
M204 S500
G1 F2400 E33.9818
G1 F975.6 X142.433 Y110.939 E33.99534
G1 X139.292 Y107.798 E34.18615
G1 X139.227 Y107.546 E34.19733
G1 X139.253 Y107.375 E34.20476
G1 X139.307 Y107.292 E34.20901
G1 X142.96 Y110.944 E34.43089
G1 X142.735 Y111.029 E34.44123
M204 S2000
G1 F2400 E33.64123
G0 F7500 X148.316 Y116.826
M204 S500
G1 F2400 E34.44123
G1 F957.4 X146.49 Y114.997 E34.55435
G1 F918.4 X146.15 Y114.575 E34.57908
G1 F909.1 X146.439 Y114.244 E34.59934
G1 F841.1 X147.953 Y112.728 E34.70608
G1 F853.1 X147.853 Y112.559 E34.71573
G1 F960 X146.017 Y110.725 E34.82902
G1 X146.283 Y110.46 E34.84541
G1 X148.118 Y112.295 E34.95869
G1 F853.1 X148.352 Y112.597 E34.97746
G1 F849.1 X148.606 Y112.785 E34.99306
G1 F957.4 X150.483 Y114.659 E35.10915
G1 F960 X150.217 Y114.924 E35.12554
G1 F957.4 X148.365 Y113.073 E35.24015
G1 F849.1 X148.22 Y112.995 E35.24828
G1 F841.1 X146.73 Y114.489 E35.35341
G1 F869.6 X146.667 Y114.596 E35.35939
G1 F882.4 X146.755 Y114.733 E35.36713
G1 F957.4 X148.582 Y116.56 E35.48022
G1 X148.316 Y116.826 E35.49668
;TIME_ELAPSED:48.835819
G1 F2400 E34.69668
M140 S0
G91 ;Relative positioning
G1 E-2 F2700 ;Retract a bit
G1 E-2 Z0.2 F2400 ;Retract and raise Z
G1 X5 Y5 F3000 ;Wipe out
G1 Z10 ;Raise Z more
G90 ;Absolute positioning

G1 X0 Y220 ;Present print
M106 S0 ;Turn-off fan
M104 S0 ;Turn-off hotend
M140 S0 ;Turn-off bed

M84 X Y E ;Disable all steppers but Z

M82 ;absolute extrusion mode
;End of Gcode
;SETTING_3 {"global_quality": "[general]\\nversion = 4\\nname = Low Quality #2\\
;SETTING_3 ndefinition = creality_base\\n\\n[metadata]\\ntype = quality_changes\
