;FLAVOR:Marlin
;TIME:3613
;Filament used: 3.15875m
;Layer height: 0.28
;MINX:0
;MINY:63.05
;MINZ:0.28
;MAXX:220
;MAXY:156.948
;MAXZ:9.24
;TARGET_MACHINE.NAME:Creality Ender-3 S1 Pro
;Generated with Cura_SteamEngine 5.8.0
M82 ;absolute extrusion mode
; Ender 3 S1 Pro Start G-code
; M413 S0 ; Disable power loss recovery
G92 E0 ; Reset Extruder

; Prep surfaces before auto home for better accuracy
M140 S60
M104 S210.0

G28 ; Home all axes
G1 Z10.0 F3000 ; Move Z Axis up little to prevent scratching of Heat Bed
G1 X0 Y0

M190 S60
M109 S210.0

G1 X0.1 Y20 Z0.3 F5000.0 ; Move to start position
G1 X0.1 Y200.0 Z0.3 F1500.0 E15 ; Draw the first line
G1 X0.4 Y200.0 Z0.3 F5000.0 ; Move to side a little
G1 X0.4 Y20 Z0.3 F1500.0 E30 ; Draw the second line
G92 E0 ; Reset Extruder
G1 Z2.0 F3000 ; Move Z Axis up little to prevent scratching of Heat Bed
G1 X5 Y20 Z0.3 F5000.0 ; Move over to prevent blob squish

G92 E0
G92 E0
G1 F2400 E-0.8
;LAYER_COUNT:33
;LAYER:0
M107
M204 S2000
G0 F7500 X0.00 Y68.266 Z0.28
M204 S500
;TYPE:SKIRT
G1 F2400 E0
G1 F1500 X0.409 Y67.735 E0.03121
G1 X1.036 Y67.045 E0.07462
G1 X1.681 Y66.413 E0.11667
G1 X2.298 Y65.896 E0.15415
G1 X3.022 Y65.356 E0.19621
G1 X3.903 Y64.802 E0.24467
G1 X4.693 Y64.364 E0.28673
G1 X5.518 Y63.997 E0.32878
G1 X6.079 Y63.795 E0.35654
G1 X6.575 Y63.633 E0.38084
G1 X7.445 Y63.391 E0.42289
G1 X8.382 Y63.22 E0.46724
G1 X8.895 Y63.151 E0.49134
G1 X10.065 Y63.062 E0.54598
G1 X10.792 Y63.05 E0.57983
G1 X210.289 Y63.053 E9.86925
G1 X210.951 Y63.062 E9.90008
G1 X211.934 Y63.123 E9.94594
G1 X212.422 Y63.177 E9.9688
G1 X213.314 Y63.316 E10.01084
G1 X214.191 Y63.528 E10.05285
G1 X215.054 Y63.795 E10.09492
G1 X215.529 Y63.978 E10.11862
G1 X216.039 Y64.19 E10.14434
G1 X216.857 Y64.574 E10.18641
G1 X217.978 Y65.256 E10.24751
G1 X218.349 Y65.516 E10.26861
G1 X219.065 Y66.067 E10.31068
G1 X219.743 Y66.679 E10.35321
G1 X220 Y66.939 E10.37023
M204 S2000
G1 F2400 E9.57023
G0 F7500 X220 Y153.06
M204 S500
G1 F2400 E10.37023
G1 F1500 X219.583 Y153.49 E10.39812
G1 X218.899 Y154.08 E10.44018
G1 X218.396 Y154.452 E10.46932
G1 X218.018 Y154.714 E10.49073
G1 X217.253 Y155.195 E10.53281
G1 X216.464 Y155.61 E10.57432
G1 X215.642 Y155.984 E10.61637
G1 X214.982 Y156.223 E10.64906
G1 X214.532 Y156.369 E10.67109
G1 X213.661 Y156.61 E10.71317
G1 X212.781 Y156.778 E10.75488
G1 X211.885 Y156.896 E10.79697
G1 X211.171 Y156.933 E10.83026
G1 X210.309 Y156.947 E10.8704
G1 X10.938 Y156.948 E20.15395
G1 X10.094 Y156.937 E20.19325
G1 X8.894 Y156.849 E20.24928
G1 X8.556 Y156.804 E20.26516
G1 X7.485 Y156.603 E20.3159
G1 X7.116 Y156.513 E20.33358
G1 X6.249 Y156.26 E20.37564
G1 X5.618 Y156.022 E20.40704
G1 X5.108 Y155.81 E20.43276
G1 X4.29 Y155.426 E20.47484
G1 X3.154 Y154.733 E20.5368
G1 X2.783 Y154.472 E20.55792
G1 X2.068 Y153.921 E20.59995
G1 X1.4 Y153.316 E20.64192
G1 X0.765 Y152.674 E20.68397
G1 X0.313 Y152.138 E20.71662
G1 X0.00 Y151.735 E20.74038
M204 S2000
G1 F2400 E19.94038
;MESH:shell.stl
G0 F7500 X10.674 Y143.65
G0 X25.507 Y143.662
M204 S500
;TYPE:WALL-INNER
G1 F2400 E20.74038
G1 F1500 X25.318 Y143.796 E20.75116
G1 X25.15 Y143.848 E20.75935
G1 X11.072 Y143.848 E21.41488
G1 X10.835 Y143.8 E21.42614
G1 X10.571 Y143.58 E21.44215
G1 X10.472 Y143.326 E21.45484
G1 X10.472 Y129.248 E22.11037
G1 X10.542 Y128.965 E22.12394
G1 X10.712 Y128.767 E22.1361
G1 X11.019 Y128.65 E22.15139
G1 X25.072 Y128.648 E22.80576
G1 X25.397 Y128.743 E22.82153
G1 X25.546 Y128.879 E22.83092
G1 X25.632 Y129.03 E22.83901
G1 X25.672 Y129.248 E22.84933
G1 X25.67 Y143.301 E23.5037
G1 X25.618 Y143.498 E23.51319
G1 X25.507 Y143.662 E23.52241
M204 S2000
G1 F2400 E22.72241
G0 F7500 X25.544 Y143.72
G0 X25.502 Y128.822
G0 X25.313 Y128.505
G0 X25.071 Y126.529
G0 X25.546 Y126.117
M204 S500
G1 F2400 E23.52241
G1 F1500 X25.397 Y126.253 E23.5318
G1 X25.072 Y126.348 E23.54757
G1 X11.019 Y126.346 E24.20194
G1 X10.712 Y126.229 E24.21723
G1 X10.542 Y126.031 E24.22939
G1 X10.472 Y125.829 E24.23934
G1 X10.472 Y111.748 E24.89501
G1 X10.542 Y111.465 E24.90858
G1 X10.712 Y111.267 E24.92074
G1 X11.019 Y111.15 E24.93603
G1 X25.072 Y111.148 E25.5904
G1 X25.397 Y111.243 E25.60617
G1 X25.546 Y111.379 E25.61556
G1 X25.632 Y111.53 E25.62365
G1 X25.672 Y111.748 E25.63397
G1 X25.67 Y125.801 E26.28834
G1 X25.546 Y126.117 E26.30415
M204 S2000
G1 F2400 E25.50415
G0 F7500 X25.574 Y126.117
G0 X25.502 Y111.322
G0 X25.313 Y111.005
G0 X25.071 Y109.029
G0 X25.397 Y108.753
M204 S500
G1 F2400 E26.30415
G1 F1500 X25.072 Y108.848 E26.31991
G1 X11.019 Y108.846 E26.97428
G1 X10.712 Y108.729 E26.98958
G1 X10.542 Y108.531 E27.00173
G1 X10.472 Y108.329 E27.01168
G1 X10.472 Y94.248 E27.66736
G1 X10.542 Y93.965 E27.68093
G1 X10.712 Y93.767 E27.69308
G1 X11.019 Y93.65 E27.70838
G1 X25.072 Y93.648 E28.36275
G1 X25.397 Y93.743 E28.37851
G1 X25.546 Y93.879 E28.38791
G1 X25.632 Y94.03 E28.396
G1 X25.672 Y94.248 E28.40632
G1 X25.67 Y108.301 E29.06069
G1 X25.546 Y108.617 E29.07649
G1 X25.397 Y108.753 E29.08589
M204 S2000
G1 F2400 E28.28589
G0 F7500 X25.502 Y93.822
G0 X25.313 Y93.505
G0 X25.071 Y91.529
G0 X25.397 Y91.253
M204 S500
G1 F2400 E29.08589
G1 F1500 X25.072 Y91.348 E29.10165
G1 X11.019 Y91.346 E29.75602
G1 X10.712 Y91.229 E29.77132
G1 X10.542 Y91.031 E29.78347
G1 X10.472 Y90.829 E29.79342
G1 X10.472 Y76.748 E30.44909
G1 X10.518 Y76.515 E30.46015
G1 X10.622 Y76.349 E30.46927
G1 X10.839 Y76.194 E30.48169
G1 X10.995 Y76.148 E30.48926
G1 X25.072 Y76.148 E31.14475
G1 X25.318 Y76.2 E31.15646
G1 X25.507 Y76.334 E31.16724
G1 X25.618 Y76.498 E31.17647
G1 X25.672 Y76.748 E31.18838
G1 X25.67 Y90.801 E31.84274
G1 X25.546 Y91.117 E31.85855
G1 X25.397 Y91.253 E31.86794
M204 S2000
G1 F2400 E31.06794
G0 F7500 X25.8 Y91.031
G0 X28.794 Y90.816
G0 X43.897 Y91.253
M204 S500
G1 F2400 E31.86794
G1 F1500 X43.572 Y91.348 E31.88371
G1 X29.519 Y91.346 E32.53808
G1 X29.247 Y91.253 E32.55146
G1 X29.098 Y91.117 E32.56085
G1 X28.974 Y90.801 E32.57666
G1 X28.972 Y76.748 E33.23103
G1 X29.026 Y76.498 E33.24294
G1 X29.137 Y76.334 E33.25216
G1 X29.326 Y76.2 E33.26295
G1 X29.494 Y76.148 E33.27114
G1 X43.572 Y76.148 E33.92667
G1 X43.818 Y76.2 E33.93837
G1 X44.007 Y76.334 E33.94916
G1 X44.118 Y76.499 E33.95842
G1 X44.172 Y76.748 E33.97029
G1 X44.17 Y90.801 E34.62465
G1 X44.046 Y91.117 E34.64046
G1 X43.897 Y91.253 E34.64985
M204 S2000
G1 F2400 E33.84985
G0 F7500 X43.571 Y91.529
G0 X43.571 Y93.467
G0 X43.897 Y108.753
M204 S500
G1 F2400 E34.64985
G1 F1500 X43.572 Y108.848 E34.66562
G1 X29.519 Y108.846 E35.31999
G1 X29.247 Y108.753 E35.33337
G1 X29.098 Y108.617 E35.34276
G1 X28.974 Y108.301 E35.35857
G1 X28.972 Y94.248 E36.01294
G1 X29.012 Y94.03 E36.02326
G1 X29.098 Y93.879 E36.03135
G1 X29.247 Y93.743 E36.04074
G1 X29.519 Y93.65 E36.05413
G1 X43.572 Y93.648 E36.7085
G1 X43.897 Y93.743 E36.72426
G1 X44.047 Y93.881 E36.73375
G1 X44.132 Y94.031 E36.74178
G1 X44.173 Y94.248 E36.75206
G1 X44.17 Y108.301 E37.40643
G1 X44.046 Y108.617 E37.42224
G1 X43.897 Y108.753 E37.43163
M204 S2000
G1 F2400 E36.63163
G0 F7500 X43.571 Y109.029
G0 X43.571 Y110.967
G0 X43.897 Y126.253
M204 S500
G1 F2400 E37.43163
G1 F1500 X43.572 Y126.348 E37.4474
G1 X29.519 Y126.346 E38.10176
G1 X29.247 Y126.253 E38.11515
G1 X29.098 Y126.117 E38.12454
G1 X28.974 Y125.801 E38.14035
G1 X28.972 Y111.748 E38.79472
G1 X29.012 Y111.53 E38.80504
G1 X29.098 Y111.379 E38.81313
G1 X29.247 Y111.243 E38.82252
G1 X29.519 Y111.15 E38.83591
G1 X43.572 Y111.148 E39.49027
G1 X43.897 Y111.243 E39.50604
G1 X44.046 Y111.379 E39.51543
G1 X44.132 Y111.53 E39.52353
G1 X44.172 Y111.748 E39.53385
G1 X44.17 Y125.801 E40.18821
G1 X44.046 Y126.117 E40.20402
G1 X43.897 Y126.253 E40.21341
M204 S2000
G1 F2400 E39.41341
G0 F7500 X43.571 Y126.529
G0 X43.571 Y128.467
G0 X44.007 Y143.662
M204 S500
G1 F2400 E40.21341
G1 F1500 X43.818 Y143.796 E40.2242
G1 X43.65 Y143.848 E40.23239
G1 X29.572 Y143.848 E40.88792
G1 X29.326 Y143.796 E40.89963
G1 X29.137 Y143.662 E40.91042
G1 X29.026 Y143.498 E40.91964
G1 X28.974 Y143.301 E40.92913
G1 X28.972 Y129.248 E41.58349
G1 X29.012 Y129.03 E41.59381
G1 X29.098 Y128.879 E41.6019
G1 X29.247 Y128.743 E41.6113
G1 X29.519 Y128.65 E41.62468
G1 X43.572 Y128.648 E42.27905
G1 X43.897 Y128.743 E42.29482
G1 X44.046 Y128.879 E42.30421
G1 X44.132 Y129.03 E42.3123
G1 X44.172 Y129.248 E42.32262
G1 X44.17 Y143.301 E42.97699
G1 X44.118 Y143.498 E42.98648
G1 X44.007 Y143.662 E42.9957
M204 S2000
G1 F2400 E42.1957
G0 F7500 X44.044 Y143.72
G0 X44.35 Y143.316
G0 X47.294 Y143.316
G0 X62.507 Y143.662
M204 S500
G1 F2400 E42.9957
G1 F1500 X62.318 Y143.796 E43.00648
G1 X62.15 Y143.848 E43.01467
G1 X48.072 Y143.848 E43.6702
G1 X47.826 Y143.796 E43.68191
G1 X47.637 Y143.662 E43.6927
G1 X47.526 Y143.498 E43.70192
G1 X47.474 Y143.301 E43.71141
G1 X47.472 Y129.248 E44.36578
G1 X47.512 Y129.03 E44.3761
G1 X47.598 Y128.879 E44.38419
G1 X47.747 Y128.743 E44.39358
G1 X48.019 Y128.65 E44.40697
G1 X62.072 Y128.648 E45.06133
G1 X62.397 Y128.743 E45.0771
G1 X62.546 Y128.879 E45.08649
G1 X62.632 Y129.03 E45.09459
G1 X62.672 Y129.248 E45.10491
G1 X62.67 Y143.301 E45.75927
G1 X62.618 Y143.498 E45.76876
G1 X62.507 Y143.662 E45.77798
M204 S2000
G1 F2400 E44.97798
G0 F7500 X62.544 Y143.72
G0 X62.502 Y128.822
G0 X62.313 Y128.505
G0 X62.071 Y126.529
G0 X62.397 Y126.253
M204 S500
G1 F2400 E45.77798
G1 F1500 X62.072 Y126.348 E45.79375
G1 X48.019 Y126.346 E46.44811
G1 X47.747 Y126.253 E46.4615
G1 X47.598 Y126.117 E46.47089
G1 X47.474 Y125.801 E46.4867
G1 X47.472 Y111.748 E47.14107
G1 X47.512 Y111.53 E47.15139
G1 X47.598 Y111.379 E47.15948
G1 X47.747 Y111.243 E47.16887
G1 X48.019 Y111.15 E47.18226
G1 X62.072 Y111.148 E47.83662
G1 X62.397 Y111.243 E47.85239
G1 X62.546 Y111.379 E47.86178
G1 X62.632 Y111.53 E47.86988
G1 X62.672 Y111.748 E47.8802
G1 X62.67 Y125.801 E48.53456
G1 X62.546 Y126.117 E48.55037
G1 X62.397 Y126.253 E48.55976
M204 S2000
G1 F2400 E47.75976
G0 F7500 X62.502 Y111.322
G0 X62.313 Y111.005
G0 X62.071 Y109.029
G0 X62.397 Y108.753
M204 S500
G1 F2400 E48.55976
G1 F1500 X62.072 Y108.848 E48.57553
G1 X48.019 Y108.846 E49.2299
G1 X47.747 Y108.753 E49.24328
G1 X47.598 Y108.617 E49.25267
G1 X47.474 Y108.301 E49.26848
G1 X47.483 Y94.248 E49.92285
G1 X47.524 Y94.031 E49.93313
G1 X47.609 Y93.881 E49.94116
G1 X47.757 Y93.744 E49.95055
G1 X48.029 Y93.65 E49.96395
G1 X62.072 Y93.648 E50.61785
G1 X62.397 Y93.743 E50.63362
G1 X62.546 Y93.879 E50.64301
G1 X62.632 Y94.03 E50.6511
G1 X62.672 Y94.248 E50.66142
G1 X62.67 Y108.301 E51.31579
G1 X62.546 Y108.617 E51.3316
G1 X62.397 Y108.753 E51.34099
M204 S2000
G1 F2400 E50.54099
G0 F7500 X62.502 Y93.822
G0 X62.313 Y93.505
G0 X62.071 Y91.529
G0 X62.397 Y91.253
M204 S500
G1 F2400 E51.34099
G1 F1500 X62.072 Y91.348 E51.35676
G1 X48.021 Y91.346 E52.01103
G1 X47.748 Y91.254 E52.02445
G1 X47.598 Y91.117 E52.0339
G1 X47.474 Y90.801 E52.04971
G1 X47.472 Y76.748 E52.70408
G1 X47.526 Y76.499 E52.71594
G1 X47.637 Y76.334 E52.7252
G1 X47.826 Y76.2 E52.73599
G1 X47.994 Y76.148 E52.74418
G1 X62.072 Y76.148 E53.39971
G1 X62.318 Y76.2 E53.41142
G1 X62.507 Y76.334 E53.42221
G1 X62.618 Y76.499 E53.43147
G1 X62.672 Y76.748 E53.44333
G1 X62.67 Y90.801 E54.0977
G1 X62.546 Y91.117 E54.1135
G1 X62.397 Y91.253 E54.1229
M204 S2000
G1 F2400 E53.3229
G0 F7500 X62.8 Y91.031
G0 X65.794 Y90.816
G0 X80.989 Y91.18
M204 S500
G1 F2400 E54.1229
G1 F1500 X80.756 Y91.32 E54.13555
G1 X80.572 Y91.348 E54.14422
G1 X66.519 Y91.346 E54.79859
G1 X66.247 Y91.253 E54.81197
G1 X66.098 Y91.117 E54.82137
G1 X65.974 Y90.801 E54.83717
G1 X65.972 Y76.748 E55.49154
G1 X66.026 Y76.499 E55.5034
G1 X66.137 Y76.334 E55.51266
G1 X66.326 Y76.2 E55.52345
G1 X66.494 Y76.148 E55.53164
G1 X80.572 Y76.148 E56.18717
G1 X80.855 Y76.218 E56.20074
G1 X81.052 Y76.387 E56.21283
G1 X81.172 Y76.625 E56.22524
G1 X81.167 Y90.828 E56.88659
G1 X81.108 Y91.02 E56.89595
G1 X80.989 Y91.18 E56.90523
M204 S2000
G1 F2400 E56.10523
G0 F7500 X81.044 Y91.22
G0 X80.571 Y91.529
G0 X80.571 Y93.467
G0 X80.897 Y108.753
M204 S500
G1 F2400 E56.90523
G1 F1500 X80.572 Y108.848 E56.921
G1 X66.519 Y108.846 E57.57536
G1 X66.247 Y108.753 E57.58875
G1 X66.098 Y108.617 E57.59814
G1 X65.974 Y108.301 E57.61395
G1 X65.972 Y94.248 E58.26832
G1 X66.012 Y94.03 E58.27864
G1 X66.098 Y93.879 E58.28673
G1 X66.247 Y93.743 E58.29612
G1 X66.519 Y93.65 E58.30951
G1 X80.572 Y93.648 E58.96387
G1 X80.897 Y93.743 E58.97964
G1 X81.046 Y93.879 E58.98903
G1 X81.132 Y94.03 E58.99713
G1 X81.172 Y94.248 E59.00745
G1 X81.17 Y108.301 E59.66181
G1 X81.046 Y108.617 E59.67762
G1 X80.897 Y108.753 E59.68701
M204 S2000
G1 F2400 E58.88701
G0 F7500 X80.571 Y109.029
G0 X80.571 Y110.967
G0 X80.897 Y126.253
M204 S500
G1 F2400 E59.68701
G1 F1500 X80.572 Y126.348 E59.70278
G1 X66.519 Y126.346 E60.35715
G1 X66.247 Y126.253 E60.37053
G1 X66.098 Y126.117 E60.37993
G1 X65.974 Y125.801 E60.39573
G1 X65.972 Y111.748 E61.0501
G1 X66.012 Y111.53 E61.06042
G1 X66.098 Y111.379 E61.06851
G1 X66.247 Y111.243 E61.0779
G1 X66.519 Y111.15 E61.09129
G1 X80.572 Y111.148 E61.74566
G1 X80.897 Y111.243 E61.76142
G1 X81.046 Y111.379 E61.77082
G1 X81.132 Y111.53 E61.77891
G1 X81.172 Y111.748 E61.78923
G1 X81.17 Y125.801 E62.44359
G1 X81.046 Y126.117 E62.4594
G1 X80.897 Y126.253 E62.4688
M204 S2000
G1 F2400 E61.6688
G0 F7500 X80.571 Y126.529
G0 X80.571 Y128.467
G0 X80.818 Y143.796
M204 S500
G1 F2400 E62.4688
G1 F1500 X80.65 Y143.848 E62.47698
G1 X66.572 Y143.848 E63.13251
G1 X66.326 Y143.796 E63.14422
G1 X66.137 Y143.662 E63.15501
G1 X66.026 Y143.498 E63.16423
G1 X65.974 Y143.301 E63.17372
G1 X65.972 Y129.248 E63.82809
G1 X66.012 Y129.03 E63.83841
G1 X66.098 Y128.879 E63.8465
G1 X66.247 Y128.743 E63.85589
G1 X66.519 Y128.65 E63.86928
G1 X80.572 Y128.648 E64.52364
G1 X80.897 Y128.743 E64.53941
G1 X81.046 Y128.879 E64.5488
G1 X81.132 Y129.03 E64.5569
G1 X81.172 Y129.248 E64.56722
G1 X81.17 Y143.301 E65.22158
G1 X81.118 Y143.498 E65.23107
G1 X81.007 Y143.662 E65.24029
G1 X80.818 Y143.796 E65.25108
M204 S2000
G1 F2400 E64.45108
G0 F7500 X81.35 Y143.316
G0 X84.294 Y143.316
G0 X99.318 Y143.796
M204 S500
G1 F2400 E65.25108
G1 F1500 X99.15 Y143.848 E65.25927
G1 X85.072 Y143.848 E65.9148
G1 X84.826 Y143.796 E65.92651
G1 X84.637 Y143.662 E65.93729
G1 X84.526 Y143.498 E65.94652
G1 X84.474 Y143.301 E65.956
G1 X84.472 Y129.248 E66.61037
G1 X84.512 Y129.03 E66.62069
G1 X84.598 Y128.879 E66.62878
G1 X84.747 Y128.743 E66.63818
G1 X85.019 Y128.65 E66.65156
G1 X99.072 Y128.648 E67.30593
G1 X99.397 Y128.743 E67.32169
G1 X99.546 Y128.879 E67.33109
G1 X99.632 Y129.03 E67.33918
G1 X99.672 Y129.248 E67.3495
G1 X99.67 Y143.301 E68.00387
G1 X99.618 Y143.498 E68.01335
G1 X99.507 Y143.662 E68.02257
G1 X99.318 Y143.796 E68.03336
M204 S2000
G1 F2400 E67.23336
G0 F7500 X99.85 Y143.316
G0 X102.794 Y143.316
G0 X110.397 Y143.848
M204 S500
G1 F2400 E68.03336
G1 F1500 X103.572 Y143.848 E68.35116
G1 X103.326 Y143.796 E68.36287
G1 X103.137 Y143.662 E68.37366
G1 X103.026 Y143.498 E68.38288
G1 X102.974 Y143.301 E68.39237
G1 X102.972 Y129.248 E69.04673
G1 X103.012 Y129.03 E69.05706
G1 X103.098 Y128.879 E69.06515
G1 X103.247 Y128.743 E69.07454
G1 X103.519 Y128.65 E69.08793
G1 X117.572 Y128.648 E69.74229
G1 X117.897 Y128.743 E69.75806
G1 X118.046 Y128.879 E69.76745
G1 X118.132 Y129.03 E69.77554
G1 X118.172 Y129.248 E69.78586
G1 X118.17 Y143.301 E70.44023
G1 X118.118 Y143.498 E70.44972
G1 X118.007 Y143.662 E70.45894
G1 X117.818 Y143.796 E70.46973
G1 X117.65 Y143.848 E70.47792
G1 X110.397 Y143.848 E70.81565
M204 S2000
G1 F2400 E70.01565
G0 F7500 X110.382 Y145.967
G0 X110.385 Y146.148
M204 S500
G1 F2400 E70.81565
G1 F1500 X210.919 Y146.148 E75.49693
G1 X211.257 Y146.088 E75.51292
G1 X211.596 Y145.976 E75.52954
G1 X211.917 Y145.812 E75.54632
G1 X212.195 Y145.617 E75.56214
G1 X212.492 Y145.297 E75.58247
G1 X212.686 Y145.009 E75.59864
G1 X212.833 Y144.687 E75.61512
G1 X212.934 Y144.357 E75.63119
G1 X212.972 Y144.025 E75.64675
G1 X212.972 Y76.087 E78.81023
G1 X212.938 Y75.652 E78.83054
G1 X212.808 Y75.22 E78.85155
G1 X212.596 Y74.84 E78.87181
G1 X212.376 Y74.563 E78.88828
G1 X212.11 Y74.321 E78.90503
G1 X211.83 Y74.122 E78.92102
G1 X211.434 Y73.962 E78.94091
G1 X211.179 Y73.892 E78.95322
G1 X210.819 Y73.852 E78.97009
G1 X10.285 Y73.848 E88.30779
