;FLAVOR:Marlin
;TIME:14780
;Filament used: 11.9807m
;Layer height: 0.28
;MINX:3.053
;MINY:8.697
;MINZ:0.28
;MAXX:214.529
;MAXY:220
;MAXZ:7.56
;TARGET_MACHINE.NAME:Creality Ender-3 S1 Pro
;Generated with Cura_SteamEngine 5.8.0
M82 ;absolute extrusion mode
; Ender 3 S1 Pro Start G-code
; M413 S0 ; Disable power loss recovery
G92 E0 ; Reset Extruder

; Prep surfaces before auto home for better accuracy
M140 S60
M104 S210.0

G28 ; Home all axes
G1 Z10.0 F3000 ; Move Z Axis up little to prevent scratching of Heat Bed
G1 X0 Y0

M190 S60
M109 S210.0

G1 X0.1 Y20 Z0.3 F5000.0 ; Move to start position
G1 X0.1 Y200.0 Z0.3 F1500.0 E15 ; Draw the first line
G1 X0.4 Y200.0 Z0.3 F5000.0 ; Move to side a little
G1 X0.4 Y20 Z0.3 F1500.0 E30 ; Draw the second line
G92 E0 ; Reset Extruder
G1 Z2.0 F3000 ; Move Z Axis up little to prevent scratching of Heat Bed
G1 X5 Y20 Z0.3 F5000.0 ; Move over to prevent blob squish

G92 E0
G92 E0
G1 F2400 E-0.8
;LAYER_COUNT:27
;LAYER:0
M107
M204 S2000
G0 F7500 X173.77 Y220 Z0.28
M204 S500
;TYPE:SKIRT
G1 F2400 E0
G1 F1500 X173.283 Y219.919 E0.02299
G1 X172.4 Y219.729 E0.06505
G1 X171.537 Y219.461 E0.10712
G1 X170.702 Y219.119 E0.14914
G1 X167.475 Y217.497 E0.31732
G1 X165.139 Y216.408 E0.43733
G1 X162.859 Y215.423 E0.55298
G1 X160.436 Y214.457 E0.67444
G1 X158.114 Y213.606 E0.78959
G1 X155.688 Y212.794 E0.90872
G1 X153.238 Y212.05 E1.02795
G1 X150.792 Y211.382 E1.14601
G1 X148.181 Y210.75 E1.2711
G1 X147.439 Y210.583 E1.30652
G1 X146.568 Y210.346 E1.34855
G1 X145.72 Y210.033 E1.39064
G1 X144.904 Y209.646 E1.43269
G1 X144.361 Y209.337 E1.46178
G1 X143.691 Y208.928 E1.49834
G1 X142.942 Y208.424 E1.54037
G1 X142.24 Y207.855 E1.58245
G1 X141.592 Y207.227 E1.62447
G1 X140.779 Y206.251 E1.68362
G1 X140.332 Y205.641 E1.71883
G1 X139.83 Y204.89 E1.76089
G1 X139.375 Y204.049 E1.80542
G1 X137.848 Y200.889 E1.96884
G1 X136.684 Y198.645 E2.08655
G1 X135.441 Y196.406 E2.2058
G1 X134.152 Y194.234 E2.3234
G1 X132.78 Y192.062 E2.44303
G1 X131.391 Y189.993 E2.55907
G1 X129.887 Y187.888 E2.67953
G1 X128.38 Y185.899 E2.79573
G1 X126.773 Y183.898 E2.91523
G1 X125.12 Y181.952 E3.03413
G1 X123.453 Y180.102 E3.15008
G1 X120.999 Y177.552 E3.31487
G1 X90.208 Y146.762 E5.34248
G1 X89.641 Y146.18 E5.38032
G1 X89.243 Y145.748 E5.40767
G1 X88.677 Y145.095 E5.44791
G1 X87.915 Y144.192 E5.50292
G1 X86.246 Y142.326 E5.6195
G1 X84.468 Y140.445 E5.74002
G1 X82.682 Y138.662 E5.85753
G1 X80.826 Y136.91 E5.97638
G1 X78.914 Y135.205 E6.09567
G1 X77.536 Y134.031 E6.17996
G1 X77.179 Y133.713 E6.20222
G1 X76.717 Y133.273 E6.23193
G1 X45.676 Y102.231 E8.27607
G1 X43.776 Y100.384 E8.39945
G1 X41.908 Y98.668 E8.51757
G1 X40.012 Y97.024 E8.63442
G1 X38.025 Y95.395 E8.75406
G1 X36.029 Y93.852 E8.87154
G1 X33.97 Y92.352 E8.99015
G1 X31.871 Y90.911 E9.10871
G1 X29.754 Y89.544 E9.22605
G1 X27.569 Y88.22 E9.34501
G1 X25.351 Y86.96 E9.4638
G1 X23.146 Y85.787 E9.58009
G1 X19.138 Y83.831 E9.78776
G1 X18.344 Y83.4 E9.82983
G1 X17.554 Y82.871 E9.8741
G1 X16.939 Y82.417 E9.9097
G1 X16.237 Y81.849 E9.95174
G1 X15.588 Y81.221 E9.9938
G1 X14.997 Y80.538 E10.03585
G1 X14.464 Y79.8 E10.07824
G1 X14.114 Y79.246 E10.10875
G1 X13.822 Y78.754 E10.1354
G1 X13.395 Y77.958 E10.17746
G1 X13.041 Y77.127 E10.21952
G1 X12.762 Y76.268 E10.26157
G1 X12.644 Y75.799 E10.28409
G1 X12.501 Y75.167 E10.31426
G1 X11.912 Y72.714 E10.43173
G1 X11.237 Y70.21 E10.55249
G1 X10.521 Y67.826 E10.6684
G1 X9.712 Y65.388 E10.78801
G1 X8.839 Y62.989 E10.90688
G1 X7.915 Y60.653 E11.02386
G1 X6.903 Y58.29 E11.14355
G1 X5.84 Y55.996 E11.26128
G1 X4.8 Y53.898 E11.37032
G1 X4.282 Y52.887 E11.42322
G1 X3.906 Y52.066 E11.46526
G1 X3.605 Y51.215 E11.50729
G1 X3.31 Y49.977 E11.56656
G1 X3.201 Y49.314 E11.59784
G1 X3.138 Y48.854 E11.61946
G1 X3.056 Y47.955 E11.6615
G1 X3.053 Y47.052 E11.70354
G1 X3.13 Y46.152 E11.7456
G1 X3.283 Y45.275 E11.78706
G1 X3.442 Y44.59 E11.8198
G1 X3.561 Y44.134 E11.84175
G1 X3.827 Y43.272 E11.88375
G1 X4.128 Y42.526 E11.92121
G1 X4.459 Y41.792 E11.9587
G1 X16.39 Y16.209 E13.27313
G1 X16.696 Y15.579 E13.30575
G1 X17.126 Y14.784 E13.34783
G1 X17.526 Y14.17 E13.38195
G1 X17.952 Y13.576 E13.41599
G1 X18.212 Y13.234 E13.436
G1 X18.79 Y12.54 E13.47805
G1 X19.427 Y11.9 E13.5201
G1 X20.118 Y11.318 E13.56217
G1 X20.856 Y10.802 E13.6041
G1 X21.423 Y10.449 E13.6352
G1 X21.832 Y10.209 E13.65728
G1 X22.63 Y9.787 E13.69931
G1 X23.463 Y9.437 E13.74139
G1 X24.323 Y9.162 E13.78343
G1 X25.273 Y8.952 E13.82873
G1 X25.93 Y8.845 E13.85973
G1 X26.364 Y8.785 E13.88013
G1 X27.263 Y8.701 E13.92217
G1 X28.166 Y8.697 E13.96422
G1 X29.066 Y8.773 E14.00628
G1 X29.997 Y8.937 E14.0503
G1 X30.76 Y9.117 E14.0868
G1 X31.164 Y9.225 E14.10627
G1 X32.026 Y9.497 E14.14836
G1 X32.47 Y9.671 E14.17057
G1 X33.234 Y9.991 E14.20914
G1 X34.578 Y10.575 E14.27737
G1 X36.962 Y11.528 E14.39692
G1 X39.324 Y12.397 E14.51411
G1 X41.721 Y13.203 E14.63187
G1 X44.164 Y13.948 E14.7508
G1 X46.601 Y14.616 E14.86846
G1 X49.067 Y15.218 E14.98666
G1 X51.563 Y15.752 E15.10551
G1 X54.059 Y16.213 E15.2237
G1 X56.548 Y16.601 E15.341
G1 X59.087 Y16.924 E15.46018
G1 X61.616 Y17.173 E15.57851
G1 X64.143 Y17.349 E15.69646
G1 X66.673 Y17.454 E15.81437
G1 X69.206 Y17.487 E15.93233
G1 X71.775 Y17.448 E16.05197
G1 X74.279 Y17.339 E16.16867
G1 X76.826 Y17.157 E16.28758
G1 X79.36 Y16.902 E16.40616
G1 X81.874 Y16.577 E16.5242
G1 X83.978 Y16.251 E16.62334
G1 X85.452 Y16.005 E16.69293
G1 X86.183 Y15.901 E16.72731
G1 X87.082 Y15.818 E16.76935
G1 X87.985 Y15.814 E16.81139
G1 X88.885 Y15.891 E16.85346
G1 X89.806 Y16.054 E16.89701
G1 X90.592 Y16.24 E16.93462
G1 X90.996 Y16.349 E16.9541
G1 X91.857 Y16.623 E16.99618
G1 X92.517 Y16.892 E17.02936
G1 X93.229 Y17.213 E17.06573
G1 X144.247 Y41.004 E19.68695
G1 X144.899 Y41.321 E19.7207
G1 X145.693 Y41.751 E19.76275
G1 X146.461 Y42.261 E19.80568
G1 X147.068 Y42.705 E19.8407
G1 X147.773 Y43.27 E19.88276
G1 X148.424 Y43.895 E19.92479
G1 X149.018 Y44.576 E19.96686
G1 X149.542 Y45.294 E20.00825
G1 X149.994 Y45.976 E20.04635
G1 X150.859 Y47.317 E20.12066
G1 X152.304 Y49.426 E20.2397
G1 X153.796 Y51.474 E20.35769
G1 X155.332 Y53.463 E20.47471
G1 X156.968 Y55.46 E20.59492
G1 X158.601 Y57.344 E20.71101
G1 X160.354 Y59.255 E20.83176
G1 X162.099 Y61.054 E20.94847
G1 X163.906 Y62.811 E21.06582
G1 X165.798 Y64.552 E21.18555
G1 X167.719 Y66.219 E21.30398
G1 X169.684 Y67.83 E21.4223
G1 X171.671 Y69.369 E21.53933
G1 X173.747 Y70.883 E21.65897
G1 X175.848 Y72.327 E21.77768
G1 X177.832 Y73.616 E21.88785
G1 X178.567 Y74.14 E21.92988
G1 X179.253 Y74.728 E21.97196
G1 X179.884 Y75.375 E22.01404
G1 X180.357 Y75.945 E22.04853
G1 X180.771 Y76.494 E22.08055
G1 X181.044 Y76.877 E22.10245
G1 X181.535 Y77.634 E22.14446
G1 X181.919 Y78.353 E22.18242
G1 X182.222 Y78.979 E22.2148
G1 X206.029 Y130.034 E24.83789
G1 X206.338 Y130.722 E24.87301
G1 X206.671 Y131.561 E24.91504
G1 X206.899 Y132.313 E24.95163
G1 X207.062 Y132.953 E24.98239
G1 X207.16 Y133.382 E25.00288
G1 X207.322 Y134.271 E25.04495
G1 X207.405 Y135.17 E25.08699
G1 X207.407 Y136.073 E25.12904
G1 X207.334 Y136.941 E25.1696
G1 X207.24 Y137.621 E25.20157
G1 X206.983 Y139.159 E25.27417
G1 X206.584 Y141.765 E25.39693
G1 X206.269 Y144.299 E25.51584
G1 X206.027 Y146.834 E25.63441
G1 X205.858 Y149.356 E25.75211
G1 X205.759 Y151.898 E25.87057
G1 X205.733 Y154.43 E25.98847
G1 X205.778 Y156.959 E26.10625
G1 X205.896 Y159.501 E26.22475
G1 X206.086 Y162.053 E26.34391
G1 X206.346 Y164.57 E26.46173
G1 X206.676 Y167.077 E26.57948
G1 X207.078 Y169.583 E26.69766
G1 X207.557 Y172.102 E26.81706
G1 X208.085 Y174.522 E26.93239
G1 X208.714 Y177.04 E27.05324
G1 X209.401 Y179.5 E27.17217
G1 X210.148 Y181.907 E27.28953
G1 X210.96 Y184.285 E27.40653
G1 X211.864 Y186.709 E27.527
G1 X212.807 Y189.029 E27.64361
G1 X213.51 Y190.652 E27.72597
G1 X213.832 Y191.496 E27.76803
G1 X214.066 Y192.316 E27.80774
G1 X214.248 Y193.07 E27.84386
G1 X214.421 Y193.956 E27.88589
G1 X214.515 Y194.854 E27.92794
G1 X214.529 Y195.757 E27.96999
G1 X214.457 Y196.709 E28.01444
G1 X214.359 Y197.419 E28.04782
G1 X214.273 Y197.929 E28.0719
G1 X214.084 Y198.812 E28.11395
G1 X213.817 Y199.675 E28.15601
G1 X213.475 Y200.511 E28.19807
G1 X212.937 Y201.522 E28.2514
G1 X212.538 Y202.18 E28.28723
G1 X212.036 Y202.93 E28.32926
G1 X211.469 Y203.634 E28.37135
G1 X210.843 Y204.284 E28.41337
G1 X209.986 Y205.013 E28.46576
G1 X209.439 Y205.422 E28.49756
G1 X209.094 Y205.667 E28.51726
G1 X208.335 Y206.157 E28.55933
G1 X207.656 Y206.521 E28.59521
G1 X207.069 Y206.807 E28.62561
G1 X181.378 Y218.788 E29.94558
G1 X180.686 Y219.099 E29.98091
G1 X179.847 Y219.432 E30.02294
G1 X178.942 Y219.7 E30.06689
G1 X178.19 Y219.885 E30.10295
G1 X177.611 Y220 E30.13044
M204 S2000
G1 F2400 E29.33044
;MESH:shell-0.stl
G0 F7500 X181.27 Y202.929
G0 X174.884 Y189.709
M204 S500
;TYPE:WALL-INNER
G1 F2400 E30.13044
G1 F900 X174.872 Y189.4 E30.14484
G1 X174.93 Y189.24 E30.15276
G1 X175.043 Y189.091 E30.16147
G1 X175.206 Y188.98 E30.17065
G1 X188.078 Y182.98 E30.83194
G1 X188.263 Y182.927 E30.8409
G1 X188.551 Y182.965 E30.85443
G1 X188.702 Y183.051 E30.86252
G1 X188.846 Y183.205 E30.87234
G1 X194.908 Y196.207 E31.54034
G1 X194.92 Y196.516 E31.55474
G1 X194.749 Y196.825 E31.57118
G1 X194.586 Y196.936 E31.58036
G1 X181.714 Y202.94 E32.24173
G1 X181.524 Y202.993 E32.25092
G1 X181.337 Y202.984 E32.25964
G1 X181.177 Y202.926 E32.26756
G1 X180.947 Y202.717 E32.28203
G1 X174.884 Y189.709 E32.9503
M204 S2000
G1 F2400 E32.1503
G0 F7500 X174.794 Y189.752
G0 X174.696 Y189.362
G0 X173.171 Y186.087
G0 X168.399 Y187.591
M204 S500
G1 F2400 E32.9503
G1 F900 X162.294 Y174.511 E33.62244
G1 X162.296 Y174.232 E33.63543
G1 X162.414 Y173.982 E33.6483
G1 X162.584 Y173.836 E33.65873
G1 X175.502 Y167.812 E34.32244
G1 X175.812 Y167.758 E34.33709
G1 X176.062 Y167.839 E34.34933
G1 X176.175 Y167.925 E34.35594
G1 X176.3 Y168.102 E34.36603
G1 X182.332 Y181.039 E35.03069
G1 X182.344 Y181.348 E35.04509
G1 X182.286 Y181.507 E35.05297
G1 X182.173 Y181.656 E35.06168
G1 X182.01 Y181.768 E35.07089
G1 X169.075 Y187.799 E35.73545
G1 X168.794 Y187.817 E35.74856
G1 X168.641 Y187.772 E35.75599
G1 X168.399 Y187.591 E35.77006
M204 S2000
G1 F2400 E34.97006
G0 F7500 X162.318 Y174.151
G0 X162.494 Y173.678
G0 X161.105 Y170.693
G0 X160.462 Y170.43
M204 S500
G1 F2400 E35.77006
G1 F900 X160.316 Y170.26 E35.78049
G1 X154.246 Y157.247 E36.44911
G1 X154.248 Y156.968 E36.4621
G1 X154.366 Y156.718 E36.47498
G1 X154.535 Y156.572 E36.48538
G1 X167.45 Y150.548 E37.14895
G1 X167.624 Y150.497 E37.1574
G1 X167.891 Y150.521 E37.16988
G1 X168.132 Y150.67 E37.18307
G1 X168.23 Y150.802 E37.19073
G1 X174.273 Y163.767 E37.85679
G1 X174.303 Y164.009 E37.86815
G1 X174.254 Y164.201 E37.87737
G1 X174.071 Y164.452 E37.89184
G1 X161.042 Y170.524 E38.56117
G1 X160.712 Y170.548 E38.57658
G1 X160.462 Y170.43 E38.58945
M204 S2000
G1 F2400 E37.78945
G0 F7500 X154.267 Y156.886
G0 X154.445 Y156.415
G0 X153.054 Y153.429
G0 X152.5 Y153.225
M204 S500
G1 F2400 E38.58945
G1 F900 X152.264 Y152.996 E38.60476
G1 X146.24 Y140.078 E39.26847
G1 X146.187 Y139.89 E39.27756
G1 X146.191 Y139.728 E39.28511
G1 X146.257 Y139.536 E39.29456
G1 X146.498 Y139.296 E39.3104
G1 X159.474 Y133.25 E39.97698
G1 X159.697 Y133.225 E39.98743
G1 X159.845 Y133.255 E39.99446
G1 X160.036 Y133.362 E40.00466
G1 X160.164 Y133.51 E40.01377
G1 X166.217 Y146.476 E40.68007
G1 X166.256 Y146.659 E40.68878
G1 X166.213 Y146.916 E40.70092
G1 X166.06 Y147.136 E40.71339
G1 X165.908 Y147.238 E40.72192
G1 X152.99 Y153.26 E41.38558
G1 X152.768 Y153.296 E41.39605
G1 X152.5 Y153.225 E41.40896
M204 S2000
G1 F2400 E40.60896
G0 F7500 X152.485 Y153.231
G0 X152.106 Y153.086
G0 X149.121 Y154.475
G0 X135.281 Y161.295
M204 S500
G1 F2400 E41.40896
G1 F900 X135.008 Y161.067 E41.42553
G1 X128.954 Y148.078 E42.09282
G1 X128.938 Y147.726 E42.10923
G1 X129 Y147.575 E42.11683
G1 X129.237 Y147.346 E42.13217
G1 X142.162 Y141.32 E42.79621
G1 X142.507 Y141.287 E42.81235
G1 X142.696 Y141.36 E42.82178
G1 X142.822 Y141.46 E42.82927
G1 X142.932 Y141.622 E42.83839
G1 X148.952 Y154.538 E43.50193
G1 X148.988 Y154.761 E43.51245
G1 X148.918 Y155.027 E43.52526
G1 X148.741 Y155.242 E43.53823
G1 X135.726 Y161.308 E44.20685
G1 X135.473 Y161.343 E44.21874
G1 X135.281 Y161.295 E44.22796
M204 S2000
G1 F2400 E43.42796
G0 F7500 X134.848 Y160.962
G0 X135.459 Y161.523
G0 X137.178 Y164.463
G0 X143.213 Y178.494
M204 S500
G1 F2400 E44.22796
G1 F900 X143.062 Y178.338 E44.23807
G1 X136.971 Y165.28 E44.909
G1 X136.992 Y164.968 E44.92356
G1 X137.08 Y164.79 E44.93281
G1 X137.268 Y164.62 E44.94461
G1 X150.283 Y158.551 E45.61329
G1 X150.564 Y158.552 E45.62638
G1 X150.724 Y158.611 E45.63432
G1 X150.938 Y158.788 E45.64725
G1 X157.004 Y171.802 E46.31583
G1 X157.04 Y172.025 E46.32635
G1 X156.969 Y172.291 E46.33917
G1 X156.79 Y172.508 E46.35227
G1 X143.778 Y178.576 E47.0208
G1 X143.455 Y178.601 E47.03589
G1 X143.213 Y178.494 E47.04821
M204 S2000
G1 F2400 E46.24821
G0 F7500 X142.926 Y178.284
G0 X143.282 Y178.524
G0 X143.84 Y178.746
G0 X145.23 Y181.731
G0 X151.221 Y195.725
M204 S500
G1 F2400 E47.04821
G1 F900 X151.107 Y195.596 E47.05623
G1 X145.076 Y182.662 E47.72074
G1 X145.023 Y182.341 E47.73589
G1 X145.094 Y182.118 E47.74679
G1 X145.32 Y181.888 E47.76181
G1 X158.333 Y175.814 E48.4305
G1 X158.612 Y175.816 E48.4435
G1 X158.772 Y175.874 E48.45142
G1 X158.986 Y176.051 E48.46435
G1 X165.088 Y189.138 E49.13672
G1 X165.07 Y189.439 E49.15076
G1 X164.955 Y189.659 E49.16232
G1 X164.791 Y189.797 E49.1723
G1 X151.874 Y195.82 E49.83595
G1 X151.638 Y195.876 E49.84724
G1 X151.415 Y195.84 E49.85776
G1 X151.221 Y195.725 E49.86826
M204 S2000
G1 F2400 E49.06826
G0 F7500 X150.987 Y195.577
G0 X145.089 Y182.215
G0 X141.103 Y182.103
G0 X109.202 Y150.48
M204 S500
G1 F2400 E49.86826
G1 F900 X140.951 Y182.229 E51.95899
G1 X141.404 Y182.879 E51.99588
G1 X149.067 Y199.304 E52.83984
G1 X149.418 Y199.781 E52.86741
G1 X149.879 Y200.061 E52.89253
G1 X150.409 Y200.144 E52.91751
G1 X150.999 Y199.999 E52.9458
G1 X164.634 Y193.642 E53.64631
G1 X165.558 Y193.421 E53.69055
G1 X166.555 Y193.57 E53.73749
G1 X167.439 Y194.1 E53.78549
G1 X168.002 Y194.873 E53.83002
G1 X174.371 Y208.529 E54.53165
G1 X174.726 Y209.015 E54.55968
G1 X175.188 Y209.292 E54.58476
G1 X175.721 Y209.376 E54.60989
G1 X176.311 Y209.231 E54.63818
G1 X202.884 Y196.841 E56.00342
G1 X203.368 Y196.483 E56.03145
G1 X203.649 Y196.021 E56.05663
G1 X203.732 Y195.491 E56.08161
G1 X203.587 Y194.901 E56.1099
G1 X181.101 Y146.671 E58.58778
G1 X180.875 Y145.74 E58.63239
G1 X181.024 Y144.737 E58.6796
G1 X181.556 Y143.867 E58.72709
G1 X182.33 Y143.3 E58.77177
G1 X195.767 Y137.033 E59.46215
G1 X196.252 Y136.675 E59.49022
G1 X196.532 Y136.214 E59.51534
G1 X196.612 Y135.683 E59.54034
G1 X196.47 Y135.092 E59.56865
G1 X172.225 Y83.097 E62.24003
G1 X171.867 Y82.612 E62.2681
G1 X171.405 Y82.331 E62.29328
G1 X170.875 Y82.248 E62.31826
G1 X170.285 Y82.393 E62.34655
G1 X159.24 Y87.543 E62.91401
G1 X158.274 Y87.767 E62.96018
G1 X157.226 Y87.585 E63.00971
G1 X156.397 Y87.039 E63.05593
G1 X136.176 Y66.813 E64.38769
G1 X135.628 Y65.988 E64.4338
G1 X135.45 Y64.932 E64.48367
G1 X135.678 Y63.977 E64.52939
G1 X140.827 Y52.935 E65.0967
G1 X140.972 Y52.345 E65.12499
G1 X140.889 Y51.815 E65.14997
G1 X140.608 Y51.353 E65.17515
G1 X140.123 Y50.995 E65.20322
G1 X88.127 Y26.749 E67.87467
G1 X87.537 Y26.604 E67.90296
G1 X87.007 Y26.687 E67.92794
G1 X86.545 Y26.968 E67.95312
G1 X86.187 Y27.453 E67.98118
G1 X79.921 Y40.895 E68.67177
G1 X79.351 Y41.665 E68.71637
G1 X78.489 Y42.187 E68.7633
G1 X77.484 Y42.345 E68.81067
G1 X76.549 Y42.119 E68.85546
G1 X28.319 Y19.633 E71.33334
G1 X27.729 Y19.488 E71.36163
G1 X27.199 Y19.571 E71.38661
G1 X26.737 Y19.852 E71.41179
G1 X26.379 Y20.337 E71.43986
G1 X13.986 Y46.908 E72.80507
G1 X13.843 Y47.499 E72.83339
G1 X13.924 Y48.031 E72.85845
G1 X14.203 Y48.493 E72.88358
G1 X14.691 Y48.848 E72.91168
G1 X28.346 Y55.218 E73.61329
G1 X29.116 Y55.783 E73.65776
G1 X29.649 Y56.66 E73.70555
G1 X29.798 Y57.669 E73.75304
G1 X29.573 Y58.588 E73.7971
G1 X23.218 Y72.22 E74.49745
G1 X23.076 Y72.809 E74.52566
G1 X23.159 Y73.341 E74.55073
G1 X23.44 Y73.803 E74.57591
G1 X23.917 Y74.157 E74.60357
G1 X40.335 Y81.813 E75.4471
